(Negative koordinater)
O0003
(T25 D=0.1 CR=0. - ZMIN=-50. - FLAT END MILL)
N10 G90 G94 G17 G49 G40 G80
N15 G28 G91 Z0.
N20 G90

(2D CONTOUR1)
N25 T25 M06
N30 S5000 M03
N35 G54
N45 G00 X-279.95 Y-887.715
N50 G43 Z15. H25
N55 G00 Z5.
N60 G01 Z1. F2000.
N65 Z-50.
N70 Y-960. F3000.
N75 G02 X-300. Y-980.05 A180. R20.05
N80 G01 X-460.
N85 G02 X-480.05 Y-960. A90. R20.05
N90 G01 Y-800.
N95 G02 X-460. Y-779.95 A0. R20.05
N100 G01 X-300.
N105 G02 X-279.95 Y-800. A270. R20.05
N110 G01 Y-887.715
N115 G00 Z15.

(2D CONTOUR1)
N125 G00 X-59.95 Y-887.715
N130 Z15.
N135 Z5.
N140 G01 Z1. F2000.
N145 Z-50.
N150 Y-960. F3000.
N155 G02 X-80. Y-980.05 A180. R20.05
N160 G01 X-240.
N165 G02 X-260.05 Y-960. A90. R20.05
N170 G01 Y-800.
N175 G02 X-240. Y-779.95 A0. R20.05
N180 G01 X-80.
N185 G02 X-59.95 Y-800. A270. R20.05
N190 G01 Y-887.715
N195 G00 Z15.

N205 G28 G91 Z0.
N210 G49
N215 M05
%
