(generell kniv jobb)
O0005
(T25 D=0.1 CR=0. - ZMIN=0. - FLAT END MILL)
N10 G90 G94 G17 G49 G40 G80
N15 G28 G91 Z0.
N20 G90

(2D CONTOUR1)
N25 T25 M06
N30 S5000 M03
N35 G54
N45 G00 X510.146 Y719.304
N50 G43 Z65. H25
N55 G00 Z55.
N60 G01 Z51. F2000.
N65 Z0.
N70 X513.146 Y724.5
N75 G03 X513.95 Y727.5 A90. R6.
N80 G01 Y803. F3000.
N85 G03 X494. Y822.95 A180. R19.95
N90 G01 X397.
N95 G03 X377.05 Y803. A270. R19.95
N100 G01 Y679.
N105 G03 X397. Y659.05 A0. R19.95
N110 G01 X494.
N115 G03 X513.95 Y679. A90. R19.95
N120 G01 Y727.5
N125 G03 X513.146 Y730.5 A120. R6. F2000.
N130 G01 X510.146 Y735.696
N135 G00 Z55.
N140 X838.146 Y744.804
N145 G01 Z51. F2000.
N150 Z0.
N155 X841.146 Y750.
N160 G03 X841.95 Y753. A90. R6.
N165 G01 Y803. F3000.
N170 G03 X822. Y822.95 A180. R19.95
N175 G01 X663.
N180 G03 X643.05 Y803. A270. R19.95
N185 G01 Y703.
N190 G03 X663. Y683.05 A0. R19.95
N195 G01 X822.
N200 G03 X841.95 Y703. A90. R19.95
N205 G01 Y753.
N210 G03 X841.146 Y756. A120. R6. F2000.
N215 G01 X838.146 Y761.196
N220 G00 Z55.
N225 X707.304 Y968.854
N230 G01 Z51. F2000.
N235 Z0.
N240 X712.5 Y965.854
N245 G03 X715.5 Y965.05 A0. R6.
N250 G01 X822. F3000.
N255 G03 X841.95 Y985. A90. R19.95
N260 G01 Y1090.
N265 G03 X822. Y1109.95 A180. R19.95
N270 G01 X663.
N275 G03 X643.05 Y1090. A270. R19.95
N280 G01 Y985.
N285 G03 X663. Y965.05 A0. R19.95
N290 G01 X715.5
N295 G03 X718.5 Y965.854 A30. R6. F2000.
N300 G01 X723.696 Y968.854
N305 G00 Z55.
N310 X510.146 Y1046.804
N315 G01 Z51. F2000.
N320 Z0.
N325 X513.146 Y1052.
N330 G03 X513.95 Y1055. A90. R6.
N335 G01 Y1124. F3000.
N340 G03 X494. Y1143.95 A180. R19.95
N345 G01 X356.
N350 G03 X336.05 Y1124. A270. R19.95
N355 G01 Y963.
N360 G03 X356. Y943.05 A0. R19.95
N365 G01 X494.
N370 G03 X513.95 Y963. A90. R19.95
N375 G01 Y1055.
N380 G03 X513.146 Y1058. A120. R6. F2000.
N385 G01 X510.146 Y1063.196
N390 G00 Z55.
N395 X258.146 Y1019.804
N400 G01 Z51. F2000.
N405 Z0.
N410 X261.146 Y1025.
N415 G03 X261.95 Y1028. A90. R6.
N420 G01 Y1124. F3000.
N425 G03 X242. Y1143.95 A180. R19.95
N430 G01 X132.
N435 G03 X112.05 Y1124. A270. R19.95
N440 G01 Y973.
N445 G03 X132. Y953.05 A0. R19.95
N450 G01 X242.
N455 G03 X261.95 Y973. A90. R19.95
N460 G01 Y1028.
N465 G03 X261.146 Y1031. A120. R6. F2000.
N470 G01 X258.146 Y1036.196
N475 G00 Z55.
N480 Y784.804
N485 G01 Z51. F2000.
N490 Z0.
N495 X261.146 Y790.
N500 G03 X261.95 Y793. A90. R6.
N505 G01 Y839. F3000.
N510 G03 X242. Y858.95 A180. R19.95
N515 G01 X150.
N520 G03 X130.05 Y839. A270. R19.95
N525 G01 Y679.
N530 G03 X150. Y659.05 A0. R19.95
N535 G01 X242.
N540 G03 X261.95 Y679. A90. R19.95
N545 G01 Y793.
N550 G03 X261.146 Y796. A120. R6. F2000.
N555 G01 X258.146 Y801.196
N560 G00 Z55.
N565 X250.146 Y466.804
N570 G01 Z51. F2000.
N575 Z0.
N580 X253.146 Y472.
N585 G03 X253.95 Y475. A90. R6.
N590 G01 Y537.95 F3000.
N595 X130.05
N600 Y413.05
N605 X253.95
N610 Y475.
N615 G03 X253.146 Y478. A120. R6. F2000.
N620 G01 X250.146 Y483.196
N625 G00 Z55.
N630 X522.146 Y467.804
N635 G01 Z51. F2000.
N640 Z0.
N645 X525.146 Y473.
N650 G03 X525.95 Y476. A90. R6.
N655 G01 Y546.95 F3000.
N660 X377.05
N665 Y405.05
N670 X525.95
N675 Y476.
N680 G03 X525.146 Y479. A120. R6. F2000.
N685 G01 X522.146 Y484.196
N690 G00 Z55.
N695 X850.146 Y472.304
N700 G01 Z51. F2000.
N705 Z0.
N710 X853.146 Y477.5
N715 G03 X853.95 Y480.5 A90. R6.
N720 G01 Y555.95 F3000.
N725 X682.05
N730 Y405.05
N735 X853.95
N740 Y480.5
N745 G03 X853.146 Y483.5 A120. R6. F2000.
N750 G01 X850.146 Y488.696
N755 G00 Z55.
N760 Y204.304
N765 G01 Z51. F2000.
N770 Z0.
N775 X853.146 Y209.5
N780 G03 X853.95 Y212.5 A90. R6.
N785 G01 Y273.95 F3000.
N790 X697.05
N795 Y151.05
N800 X853.95
N805 Y212.5
N810 G03 X853.146 Y215.5 A120. R6. F2000.
N815 G01 X850.146 Y220.696
N820 G00 Z55.
N825 X522.146 Y180.304
N830 G01 Z51. F2000.
N835 Z0.
N840 X525.146 Y185.5
N845 G03 X525.95 Y188.5 A90. R6.
N850 G01 Y253.95 F3000.
N855 X377.05
N860 Y123.05
N865 X525.95
N870 Y188.5
N875 G03 X525.146 Y191.5 A120. R6. F2000.
N880 G01 X522.146 Y196.696
N885 G00 Z55.
N890 X241.146 Y189.304
N895 G01 Z51. F2000.
N900 Z0.
N905 X244.146 Y194.5
N910 G03 X244.95 Y197.5 A90. R6.
N915 G01 Y253.95 F3000.
N920 X112.05
N925 Y141.05
N930 X244.95
N935 Y197.5
N940 G03 X244.146 Y200.5 A120. R6. F2000.
N945 G01 X241.146 Y205.696
N950 G00 Z65.

N960 G28 G91 Z0.
N965 G49
N970 M05
%
