(XYZok fres etter kniv)
O0007
(T2 D=12. CR=0. - ZMIN=16. - FLAT END MILL)
(T25 D=0.1 CR=0. - ZMIN=0. - FLAT END MILL)
N10 G90 G94 G17 G49 G40 G80
N15 G28 G91 Z0.
N20 G90

(KNIV KONTUR)
N25 T25 M06
N30 S5000 M03
N35 G56
N45 G00 X160.962 Y16.088
N46 G00 X160.862 Y16.146
N50 G43 Z65. H25
N55 G00 Z55.
N60 G01 Z51. F2000.
N65 Z0.
N70 X155.666 Y19.146
N75 G03 X152.666 Y19.95 A180. R6.
N80 G01 X32. F3000.
N85 G02 X19.95 Y32. A90. R12.05
N90 G01 Y163.
N95 G02 X32. Y175.05 A0. R12.05
N100 G01 X278.
N105 G02 X290.05 Y163. A270. R12.05
N110 G01 Y32.
N115 G02 X278. Y19.95 A180. R12.05
N120 G01 X152.666
N125 G03 X149.666 Y19.146 A210. R6. F2000.
N130 G01 X144.47 Y16.146
N135 G00 Z65.
N145 M05
N150 G28 G91 Z0.
N155 G90
N160 G49

(12MM GROVFRESING)
N165 T2 M06
(SKUMFRESSKRUBB)
N170 S24000 M03
N175 G54
N185 G00 X105.038 Y56.996
N190 G43 Z65. H02
N195 G00 Z56.
N200 G01 Z46.343 F3000.
N205 G02 X105.012 Y56.98 Z46.076 R1.2
N210 X104.935 Y56.937 Z45.822 R1.2
N215 X104.804 Y56.879 Z45.595 R1.2
N220 X104.621 Y56.828 Z45.405 R1.2
N225 X104.395 Y56.805 Z45.262 R1.2
N230 X104.143 Y56.83 Z45.173 R1.2
N235 X103.89 Y56.913 Z45.143 R1.2
N240 G03 X89.12 Y60.107 R35.467 F12000.
N245 G02 X88.89 Y60.389 R0.235
N250 G03 X89.33 Y63.067 R35.776
N255 G02 X89.7 Y63.393 R0.373
N260 G01 X150.832
N265 G02 X151.247 Y63.06 R0.426
N270 G03 X153.225 Y56.895 R35.498
N275 G02 X153.035 Y56.607 R0.207
N280 G01 X105.079
N285 G02 X104.074 Y56.828 R2.395
N290 G03 X103.89 Y56.913 R35.467
N295 X98.324 Y55.859 R4.91
N300 G02 X92.974 Y53.997 R6.288
N305 G03 X89.149 Y54.251 R28.958
N310 X85.013 Y54.229 R388.068
N315 G02 X80.877 Y54.207 R387.905
N320 X80.704 Y54.484 R0.193
N325 G03 X83.751 Y67.5 R29.947
N330 X83.729 Y68.24 R12.431
N335 G02 X83.707 Y68.98 R12.431
N340 X84.02 Y69.293 R0.313
N345 G01 X156.014
N350 G02 X156.35 Y68.978 R0.336
N355 G03 X163.9 Y50.96 R29.66
N360 G02 X163.786 Y50.707 R0.152
N365 G01 X103.937
N370 G02 X102.466 Y51.055 R3.283
N375 G03 X95.994 Y53.43 R30.54
N380 X92.974 Y53.997 R28.958
N385 X88.069 Y51.329 R4.735
N390 G02 X83.354 Y48.338 R5.228
N395 G01 X68.479 Y48.306
N400 G02 X68.399 Y48.542 R0.132
N405 G03 X77.85 Y67.5 R23.936
N410 X77.828 Y71.191 R308.861
N415 G02 X77.806 Y74.881 R308.861
N420 X78.119 Y75.194 R0.313
N425 G01 X161.881
N430 G02 X162.194 Y74.881 R0.313
N435 X162.172 Y72.846 R93.89
N440 G03 X162.15 Y70.812 R93.89
N445 X186. Y46.962 R23.85
N450 G01 X198.029 Y47.006
N455 G02 X198.175 Y46.739 R0.173
N460 G03 X197.231 Y45.147 R24.032
N465 G02 X196.66 Y44.806 R0.648
N470 G01 X102.292
N475 G02 X100.988 Y45.153 R2.62
N480 G03 X95.278 Y47.527 R24.421
N485 X89.149 Y48.35 R23.232
N490 G01 X83.354 Y48.338
N495 G03 X78.94 Y45.386 R4.792
N500 G02 X74.526 Y42.434 R4.784
N505 G01 X47.22 Y42.405
N510 G02 X46.905 Y42.72 R0.315
N515 G01 Y49.276
N520 G02 X47.224 Y49.595 R0.319
N525 X50.64 Y49.572 R259.206
N530 G03 X54.055 Y49.55 R259.206
N535 X71.95 Y67.5 R17.895
N540 G01 X71.905 Y80.776
N545 G02 X72.224 Y81.095 R0.319
N550 G01 X167.776
N555 G02 X168.095 Y80.776 R0.319
N560 G01 X168.05 Y70.812
N565 G03 X186. Y52.862 R17.95
N570 G01 X217.776 Y52.907
N575 G02 X218.095 Y52.587 R0.319
N580 G01 Y52.038
N585 G02 X217.775 Y51.713 R0.326
N590 G03 X207.439 Y48.149 R17.748
N595 X201.102 Y39.24 R17.905
N600 G02 X200.644 Y38.905 R0.482
N605 G01 X100.359
N610 G02 X99.341 Y39.222 R1.795
N615 G03 X94.49 Y41.61 R18.647
N620 X89.149 Y42.45 R17.398
N625 G01 X74.526 Y42.434
N630 G03 X70.078 Y39.467 R4.825
N635 G02 X65.631 Y36.5 R4.817
N640 G01 X41.
N645 Y55.5
N650 X54.
N655 G03 X66. Y67.5 R12.
N660 G01 Y87.
N665 X174.
N670 Y70.812
N675 G03 X186. Y58.812 R12.
N680 G01 X224.
N685 Y45.812
N690 X218.165
N695 G03 X206.165 Y33.812 R12.
N700 G01 Y33.
N705 X97.619
N710 G03 X89.149 Y36.5 R12.
N715 G01 X65.631
N720 G02 X65.177 Y37.492 R0.6
N725 G01 X76.059 Y50.098
N730 G02 X76.366 Y50.288 R0.6
N735 G01 X104.2 Y57.326
N740 X104.936 Y57.336
N745 G02 X105.038 Y56.996 R0.185
N750 G01 Z41.486 F3000.
N755 G02 X105.012 Y56.98 Z41.219 R1.2
N760 X104.935 Y56.937 Z40.965 R1.2
N765 X104.804 Y56.879 Z40.738 R1.2
N770 X104.621 Y56.828 Z40.548 R1.2
N775 X104.395 Y56.805 Z40.405 R1.2
N780 X104.143 Y56.83 Z40.316 R1.2
N785 X103.89 Y56.913 Z40.286 R1.2
N790 G03 X89.12 Y60.107 R35.467 F12000.
N795 G02 X88.89 Y60.389 R0.235
N800 G03 X89.33 Y63.067 R35.776
N805 G02 X89.7 Y63.393 R0.373
N810 G01 X150.832
N815 G02 X151.247 Y63.06 R0.426
N820 G03 X153.225 Y56.895 R35.498
N825 G02 X153.035 Y56.607 R0.207
N830 G01 X105.079
N835 G02 X104.074 Y56.828 R2.395
N840 G03 X103.89 Y56.913 R35.467
N845 X98.324 Y55.859 R4.91
N850 G02 X92.974 Y53.997 R6.288
N855 G03 X89.149 Y54.251 R28.958
N860 X85.013 Y54.229 R388.068
N865 G02 X80.877 Y54.207 R387.905
N870 X80.704 Y54.484 R0.193
N875 G03 X83.751 Y67.5 R29.947
N880 X83.729 Y68.24 R12.431
N885 G02 X83.707 Y68.98 R12.431
N890 X84.02 Y69.293 R0.313
N895 G01 X156.014
N900 G02 X156.35 Y68.978 R0.336
N905 G03 X163.9 Y50.96 R29.66
N910 G02 X163.786 Y50.707 R0.152
N915 G01 X103.937
N920 G02 X102.466 Y51.055 R3.283
N925 G03 X95.994 Y53.43 R30.54
N930 X92.974 Y53.997 R28.958
N935 X88.069 Y51.329 R4.735
N940 G02 X83.354 Y48.338 R5.228
N945 G01 X68.479 Y48.306
N950 G02 X68.399 Y48.542 R0.132
N955 G03 X77.85 Y67.5 R23.936
N960 X77.828 Y71.191 R308.861
N965 G02 X77.806 Y74.881 R308.861
N970 X78.119 Y75.194 R0.313
N975 G01 X161.881
N980 G02 X162.194 Y74.881 R0.313
N985 X162.172 Y72.846 R93.89
N990 G03 X162.15 Y70.812 R93.89
N995 X186. Y46.962 R23.85
N1000 G01 X198.029 Y47.006
N1005 G02 X198.175 Y46.739 R0.173
N1010 G03 X197.231 Y45.147 R24.032
N1015 G02 X196.66 Y44.806 R0.648
N1020 G01 X102.292
N1025 G02 X100.988 Y45.153 R2.62
N1030 G03 X95.278 Y47.527 R24.421
N1035 X89.149 Y48.35 R23.232
N1040 G01 X83.354 Y48.338
N1045 G03 X78.94 Y45.386 R4.792
N1050 G02 X74.526 Y42.434 R4.784
N1055 G01 X47.22 Y42.405
N1060 G02 X46.905 Y42.72 R0.315
N1065 G01 Y49.276
N1070 G02 X47.224 Y49.595 R0.319
N1075 X50.64 Y49.572 R259.206
N1080 G03 X54.055 Y49.55 R259.206
N1085 X71.95 Y67.5 R17.895
N1090 G01 X71.905 Y80.776
N1095 G02 X72.224 Y81.095 R0.319
N1100 G01 X167.776
N1105 G02 X168.095 Y80.776 R0.319
N1110 G01 X168.05 Y70.812
N1115 G03 X186. Y52.862 R17.95
N1120 G01 X217.776 Y52.907
N1125 G02 X218.095 Y52.587 R0.319
N1130 G01 Y52.038
N1135 G02 X217.775 Y51.713 R0.326
N1140 G03 X207.439 Y48.149 R17.748
N1145 X201.102 Y39.24 R17.905
N1150 G02 X200.644 Y38.905 R0.482
N1155 G01 X100.359
N1160 G02 X99.341 Y39.222 R1.795
N1165 G03 X94.49 Y41.61 R18.647
N1170 X89.149 Y42.45 R17.398
N1175 G01 X74.526 Y42.434
N1180 G03 X70.078 Y39.467 R4.825
N1185 G02 X65.631 Y36.5 R4.817
N1190 G01 X41.
N1195 Y55.5
N1200 X54.
N1205 G03 X66. Y67.5 R12.
N1210 G01 Y87.
N1215 X174.
N1220 Y70.812
N1225 G03 X186. Y58.812 R12.
N1230 G01 X224.
N1235 Y45.812
N1240 X218.165
N1245 G03 X206.165 Y33.812 R12.
N1250 G01 Y33.
N1255 X97.619
N1260 G03 X89.149 Y36.5 R12.
N1265 G01 X65.631
N1270 G02 X65.177 Y37.492 R0.6
N1275 G01 X76.059 Y50.098
N1280 G02 X76.366 Y50.288 R0.6
N1285 G01 X104.2 Y57.326
N1290 X104.936 Y57.336
N1295 G02 X105.038 Y56.996 R0.185
N1300 G01 Z36.629 F3000.
N1305 G02 X105.012 Y56.98 Z36.362 R1.2
N1310 X104.935 Y56.937 Z36.108 R1.2
N1315 X104.804 Y56.879 Z35.88 R1.2
N1320 X104.621 Y56.828 Z35.69 R1.2
N1325 X104.395 Y56.805 Z35.547 R1.2
N1330 X104.143 Y56.83 Z35.459 R1.2
N1335 X103.89 Y56.913 Z35.429 R1.2
N1340 G03 X89.12 Y60.107 R35.467 F12000.
N1345 G02 X88.89 Y60.389 R0.235
N1350 G03 X89.33 Y63.067 R35.776
N1355 G02 X89.7 Y63.393 R0.373
N1360 G01 X150.832
N1365 G02 X151.247 Y63.06 R0.426
N1370 G03 X153.225 Y56.895 R35.498
N1375 G02 X153.035 Y56.607 R0.207
N1380 G01 X105.079
N1385 G02 X104.074 Y56.828 R2.395
N1390 G03 X103.89 Y56.913 R35.467
N1395 X98.324 Y55.859 R4.91
N1400 G02 X92.974 Y53.997 R6.288
N1405 G03 X89.149 Y54.251 R28.958
N1410 X85.013 Y54.229 R388.068
N1415 G02 X80.877 Y54.207 R387.905
N1420 X80.704 Y54.484 R0.193
N1425 G03 X83.751 Y67.5 R29.947
N1430 X83.729 Y68.24 R12.431
N1435 G02 X83.707 Y68.98 R12.431
N1440 X84.02 Y69.293 R0.313
N1445 G01 X156.014
N1450 G02 X156.35 Y68.978 R0.336
N1455 G03 X163.9 Y50.96 R29.66
N1460 G02 X163.786 Y50.707 R0.152
N1465 G01 X103.937
N1470 G02 X102.466 Y51.055 R3.283
N1475 G03 X95.994 Y53.43 R30.54
N1480 X92.974 Y53.997 R28.958
N1485 X88.069 Y51.329 R4.735
N1490 G02 X83.354 Y48.338 R5.228
N1495 G01 X68.479 Y48.306
N1500 G02 X68.399 Y48.542 R0.132
N1505 G03 X77.85 Y67.5 R23.936
N1510 X77.828 Y71.191 R308.861
N1515 G02 X77.806 Y74.881 R308.861
N1520 X78.119 Y75.194 R0.313
N1525 G01 X161.881
N1530 G02 X162.194 Y74.881 R0.313
N1535 X162.172 Y72.846 R93.89
N1540 G03 X162.15 Y70.812 R93.89
N1545 X186. Y46.962 R23.85
N1550 G01 X198.029 Y47.006
N1555 G02 X198.175 Y46.739 R0.173
N1560 G03 X197.231 Y45.147 R24.032
N1565 G02 X196.66 Y44.806 R0.648
N1570 G01 X102.292
N1575 G02 X100.988 Y45.153 R2.62
N1580 G03 X95.278 Y47.527 R24.421
N1585 X89.149 Y48.35 R23.232
N1590 G01 X83.354 Y48.338
N1595 G03 X78.94 Y45.386 R4.792
N1600 G02 X74.526 Y42.434 R4.784
N1605 G01 X47.22 Y42.405
N1610 G02 X46.905 Y42.72 R0.315
N1615 G01 Y49.276
N1620 G02 X47.224 Y49.595 R0.319
N1625 X50.64 Y49.572 R259.206
N1630 G03 X54.055 Y49.55 R259.206
N1635 X71.95 Y67.5 R17.895
N1640 G01 X71.905 Y80.776
N1645 G02 X72.224 Y81.095 R0.319
N1650 G01 X167.776
N1655 G02 X168.095 Y80.776 R0.319
N1660 G01 X168.05 Y70.812
N1665 G03 X186. Y52.862 R17.95
N1670 G01 X217.776 Y52.907
N1675 G02 X218.095 Y52.587 R0.319
N1680 G01 Y52.038
N1685 G02 X217.775 Y51.713 R0.326
N1690 G03 X207.439 Y48.149 R17.748
N1695 X201.102 Y39.24 R17.905
N1700 G02 X200.644 Y38.905 R0.482
N1705 G01 X100.359
N1710 G02 X99.341 Y39.222 R1.795
N1715 G03 X94.49 Y41.61 R18.647
N1720 X89.149 Y42.45 R17.398
N1725 G01 X74.526 Y42.434
N1730 G03 X70.078 Y39.467 R4.825
N1735 G02 X65.631 Y36.5 R4.817
N1740 G01 X41.
N1745 Y55.5
N1750 X54.
N1755 G03 X66. Y67.5 R12.
N1760 G01 Y87.
N1765 X174.
N1770 Y70.812
N1775 G03 X186. Y58.812 R12.
N1780 G01 X224.
N1785 Y45.812
N1790 X218.165
N1795 G03 X206.165 Y33.812 R12.
N1800 G01 Y33.
N1805 X97.619
N1810 G03 X89.149 Y36.5 R12.
N1815 G01 X65.631
N1820 G02 X65.177 Y37.492 R0.6
N1825 G01 X76.059 Y50.098
N1830 G02 X76.366 Y50.288 R0.6
N1835 G01 X104.2 Y57.326
N1840 X104.936 Y57.336
N1845 G02 X105.038 Y56.996 R0.185
N1850 G01 Z31.771 F3000.
N1855 G02 X105.012 Y56.98 Z31.504 R1.2
N1860 X104.935 Y56.937 Z31.251 R1.2
N1865 X104.804 Y56.879 Z31.023 R1.2
N1870 X104.621 Y56.828 Z30.833 R1.2
N1875 X104.395 Y56.805 Z30.69 R1.2
N1880 X104.143 Y56.83 Z30.602 R1.2
N1885 X103.89 Y56.913 Z30.571 R1.2
N1890 G03 X89.12 Y60.107 R35.467 F12000.
N1895 G02 X88.89 Y60.389 R0.235
N1900 G03 X89.33 Y63.067 R35.776
N1905 G02 X89.7 Y63.393 R0.373
N1910 G01 X150.832
N1915 G02 X151.247 Y63.06 R0.426
N1920 G03 X153.225 Y56.895 R35.498
N1925 G02 X153.035 Y56.607 R0.207
N1930 G01 X105.079
N1935 G02 X104.074 Y56.828 R2.395
N1940 G03 X103.89 Y56.913 R35.467
N1945 X98.324 Y55.859 R4.91
N1950 G02 X92.974 Y53.997 R6.288
N1955 G03 X89.149 Y54.251 R28.958
N1960 X85.013 Y54.229 R388.068
N1965 G02 X80.877 Y54.207 R387.905
N1970 X80.704 Y54.484 R0.193
N1975 G03 X83.751 Y67.5 R29.947
N1980 X83.729 Y68.24 R12.431
N1985 G02 X83.707 Y68.98 R12.431
N1990 X84.02 Y69.293 R0.313
N1995 G01 X156.014
N2000 G02 X156.35 Y68.978 R0.336
N2005 G03 X163.9 Y50.96 R29.66
N2010 G02 X163.786 Y50.707 R0.152
N2015 G01 X103.937
N2020 G02 X102.466 Y51.055 R3.283
N2025 G03 X95.994 Y53.43 R30.54
N2030 X92.974 Y53.997 R28.958
N2035 X88.069 Y51.329 R4.735
N2040 G02 X83.354 Y48.338 R5.228
N2045 G01 X68.479 Y48.306
N2050 G02 X68.399 Y48.542 R0.132
N2055 G03 X77.85 Y67.5 R23.936
N2060 X77.828 Y71.191 R308.861
N2065 G02 X77.806 Y74.881 R308.861
N2070 X78.119 Y75.194 R0.313
N2075 G01 X161.881
N2080 G02 X162.194 Y74.881 R0.313
N2085 X162.172 Y72.846 R93.89
N2090 G03 X162.15 Y70.812 R93.89
N2095 X186. Y46.962 R23.85
N2100 G01 X198.029 Y47.006
N2105 G02 X198.175 Y46.739 R0.173
N2110 G03 X197.231 Y45.147 R24.032
N2115 G02 X196.66 Y44.806 R0.648
N2120 G01 X102.292
N2125 G02 X100.988 Y45.153 R2.62
N2130 G03 X95.278 Y47.527 R24.421
N2135 X89.149 Y48.35 R23.232
N2140 G01 X83.354 Y48.338
N2145 G03 X78.94 Y45.386 R4.792
N2150 G02 X74.526 Y42.434 R4.784
N2155 G01 X47.22 Y42.405
N2160 G02 X46.905 Y42.72 R0.315
N2165 G01 Y49.276
N2170 G02 X47.224 Y49.595 R0.319
N2175 X50.64 Y49.572 R259.206
N2180 G03 X54.055 Y49.55 R259.206
N2185 X71.95 Y67.5 R17.895
N2190 G01 X71.905 Y80.776
N2195 G02 X72.224 Y81.095 R0.319
N2200 G01 X167.776
N2205 G02 X168.095 Y80.776 R0.319
N2210 G01 X168.05 Y70.812
N2215 G03 X186. Y52.862 R17.95
N2220 G01 X217.776 Y52.907
N2225 G02 X218.095 Y52.587 R0.319
N2230 G01 Y52.038
N2235 G02 X217.775 Y51.713 R0.326
N2240 G03 X207.439 Y48.149 R17.748
N2245 X201.102 Y39.24 R17.905
N2250 G02 X200.644 Y38.905 R0.482
N2255 G01 X100.359
N2260 G02 X99.341 Y39.222 R1.795
N2265 G03 X94.49 Y41.61 R18.647
N2270 X89.149 Y42.45 R17.398
N2275 G01 X74.526 Y42.434
N2280 G03 X70.078 Y39.467 R4.825
N2285 G02 X65.631 Y36.5 R4.817
N2290 G01 X41.
N2295 Y55.5
N2300 X54.
N2305 G03 X66. Y67.5 R12.
N2310 G01 Y87.
N2315 X174.
N2320 Y70.812
N2325 G03 X186. Y58.812 R12.
N2330 G01 X224.
N2335 Y45.812
N2340 X218.165
N2345 G03 X206.165 Y33.812 R12.
N2350 G01 Y33.
N2355 X97.619
N2360 G03 X89.149 Y36.5 R12.
N2365 G01 X65.631
N2370 G02 X65.177 Y37.492 R0.6
N2375 G01 X76.059 Y50.098
N2380 G02 X76.366 Y50.288 R0.6
N2385 G01 X104.2 Y57.326
N2390 X104.936 Y57.336
N2395 G02 X105.038 Y56.996 R0.185
N2400 G01 Z26.914 F3000.
N2405 G02 X105.012 Y56.98 Z26.647 R1.2
N2410 X104.935 Y56.937 Z26.394 R1.2
N2415 X104.804 Y56.879 Z26.166 R1.2
N2420 X104.621 Y56.828 Z25.976 R1.2
N2425 X104.395 Y56.805 Z25.833 R1.2
N2430 X104.143 Y56.83 Z25.744 R1.2
N2435 X103.89 Y56.913 Z25.714 R1.2
N2440 G03 X89.12 Y60.107 R35.467 F12000.
N2445 G02 X88.89 Y60.389 R0.235
N2450 G03 X89.33 Y63.067 R35.776
N2455 G02 X89.7 Y63.393 R0.373
N2460 G01 X150.832
N2465 G02 X151.247 Y63.06 R0.426
N2470 G03 X153.225 Y56.895 R35.498
N2475 G02 X153.035 Y56.607 R0.207
N2480 G01 X105.079
N2485 G02 X104.074 Y56.828 R2.395
N2490 G03 X103.89 Y56.913 R35.467
N2495 X98.324 Y55.859 R4.91
N2500 G02 X92.974 Y53.997 R6.288
N2505 G03 X89.149 Y54.251 R28.958
N2510 X85.013 Y54.229 R388.068
N2515 G02 X80.877 Y54.207 R387.905
N2520 X80.704 Y54.484 R0.193
N2525 G03 X83.751 Y67.5 R29.947
N2530 X83.729 Y68.24 R12.431
N2535 G02 X83.707 Y68.98 R12.431
N2540 X84.02 Y69.293 R0.313
N2545 G01 X156.014
N2550 G02 X156.35 Y68.978 R0.336
N2555 G03 X163.9 Y50.96 R29.66
N2560 G02 X163.786 Y50.707 R0.152
N2565 G01 X103.937
N2570 G02 X102.466 Y51.055 R3.283
N2575 G03 X95.994 Y53.43 R30.54
N2580 X92.974 Y53.997 R28.958
N2585 X88.069 Y51.329 R4.735
N2590 G02 X83.354 Y48.338 R5.228
N2595 G01 X68.479 Y48.306
N2600 G02 X68.399 Y48.542 R0.132
N2605 G03 X77.85 Y67.5 R23.936
N2610 X77.828 Y71.191 R308.861
N2615 G02 X77.806 Y74.881 R308.861
N2620 X78.119 Y75.194 R0.313
N2625 G01 X161.881
N2630 G02 X162.194 Y74.881 R0.313
N2635 X162.172 Y72.846 R93.89
N2640 G03 X162.15 Y70.812 R93.89
N2645 X186. Y46.962 R23.85
N2650 G01 X198.029 Y47.006
N2655 G02 X198.175 Y46.739 R0.173
N2660 G03 X197.231 Y45.147 R24.032
N2665 G02 X196.66 Y44.806 R0.648
N2670 G01 X102.292
N2675 G02 X100.988 Y45.153 R2.62
N2680 G03 X95.278 Y47.527 R24.421
N2685 X89.149 Y48.35 R23.232
N2690 G01 X83.354 Y48.338
N2695 G03 X78.94 Y45.386 R4.792
N2700 G02 X74.526 Y42.434 R4.784
N2705 G01 X47.22 Y42.405
N2710 G02 X46.905 Y42.72 R0.315
N2715 G01 Y49.276
N2720 G02 X47.224 Y49.595 R0.319
N2725 X50.64 Y49.572 R259.206
N2730 G03 X54.055 Y49.55 R259.206
N2735 X71.95 Y67.5 R17.895
N2740 G01 X71.905 Y80.776
N2745 G02 X72.224 Y81.095 R0.319
N2750 G01 X167.776
N2755 G02 X168.095 Y80.776 R0.319
N2760 G01 X168.05 Y70.812
N2765 G03 X186. Y52.862 R17.95
N2770 G01 X217.776 Y52.907
N2775 G02 X218.095 Y52.587 R0.319
N2780 G01 Y52.038
N2785 G02 X217.775 Y51.713 R0.326
N2790 G03 X207.439 Y48.149 R17.748
N2795 X201.102 Y39.24 R17.905
N2800 G02 X200.644 Y38.905 R0.482
N2805 G01 X100.359
N2810 G02 X99.341 Y39.222 R1.795
N2815 G03 X94.49 Y41.61 R18.647
N2820 X89.149 Y42.45 R17.398
N2825 G01 X74.526 Y42.434
N2830 G03 X70.078 Y39.467 R4.825
N2835 G02 X65.631 Y36.5 R4.817
N2840 G01 X41.
N2845 Y55.5
N2850 X54.
N2855 G03 X66. Y67.5 R12.
N2860 G01 Y87.
N2865 X174.
N2870 Y70.812
N2875 G03 X186. Y58.812 R12.
N2880 G01 X224.
N2885 Y45.812
N2890 X218.165
N2895 G03 X206.165 Y33.812 R12.
N2900 G01 Y33.
N2905 X97.619
N2910 G03 X89.149 Y36.5 R12.
N2915 G01 X65.631
N2920 G02 X65.177 Y37.492 R0.6
N2925 G01 X76.059 Y50.098
N2930 G02 X76.366 Y50.288 R0.6
N2935 G01 X104.2 Y57.326
N2940 X104.936 Y57.336
N2945 G02 X105.038 Y56.996 R0.185
N2950 G01 Z22.057 F3000.
N2955 G02 X105.012 Y56.98 Z21.79 R1.2
N2960 X104.935 Y56.937 Z21.536 R1.2
N2965 X104.804 Y56.879 Z21.309 R1.2
N2970 X104.621 Y56.828 Z21.119 R1.2
N2975 X104.395 Y56.805 Z20.976 R1.2
N2980 X104.143 Y56.83 Z20.887 R1.2
N2985 X103.89 Y56.913 Z20.857 R1.2
N2990 G03 X89.12 Y60.107 R35.467 F12000.
N2995 G02 X88.89 Y60.389 R0.235
N3000 G03 X89.33 Y63.067 R35.776
N3005 G02 X89.7 Y63.393 R0.373
N3010 G01 X150.832
N3015 G02 X151.247 Y63.06 R0.426
N3020 G03 X153.225 Y56.895 R35.498
N3025 G02 X153.035 Y56.607 R0.207
N3030 G01 X105.079
N3035 G02 X104.074 Y56.828 R2.395
N3040 G03 X103.89 Y56.913 R35.467
N3045 X98.324 Y55.859 R4.91
N3050 G02 X92.974 Y53.997 R6.288
N3055 G03 X89.149 Y54.251 R28.958
N3060 X85.013 Y54.229 R388.068
N3065 G02 X80.877 Y54.207 R387.905
N3070 X80.704 Y54.484 R0.193
N3075 G03 X83.751 Y67.5 R29.947
N3080 X83.729 Y68.24 R12.431
N3085 G02 X83.707 Y68.98 R12.431
N3090 X84.02 Y69.293 R0.313
N3095 G01 X156.014
N3100 G02 X156.35 Y68.978 R0.336
N3105 G03 X163.9 Y50.96 R29.66
N3110 G02 X163.786 Y50.707 R0.152
N3115 G01 X103.937
N3120 G02 X102.466 Y51.055 R3.283
N3125 G03 X95.994 Y53.43 R30.54
N3130 X92.974 Y53.997 R28.958
N3135 X88.069 Y51.329 R4.735
N3140 G02 X83.354 Y48.338 R5.228
N3145 G01 X68.479 Y48.306
N3150 G02 X68.399 Y48.542 R0.132
N3155 G03 X77.85 Y67.5 R23.936
N3160 X77.828 Y71.191 R308.861
N3165 G02 X77.806 Y74.881 R308.861
N3170 X78.119 Y75.194 R0.313
N3175 G01 X161.881
N3180 G02 X162.194 Y74.881 R0.313
N3185 X162.172 Y72.846 R93.89
N3190 G03 X162.15 Y70.812 R93.89
N3195 X186. Y46.962 R23.85
N3200 G01 X198.029 Y47.006
N3205 G02 X198.175 Y46.739 R0.173
N3210 G03 X197.231 Y45.147 R24.032
N3215 G02 X196.66 Y44.806 R0.648
N3220 G01 X102.292
N3225 G02 X100.988 Y45.153 R2.62
N3230 G03 X95.278 Y47.527 R24.421
N3235 X89.149 Y48.35 R23.232
N3240 G01 X83.354 Y48.338
N3245 G03 X78.94 Y45.386 R4.792
N3250 G02 X74.526 Y42.434 R4.784
N3255 G01 X47.22 Y42.405
N3260 G02 X46.905 Y42.72 R0.315
N3265 G01 Y49.276
N3270 G02 X47.224 Y49.595 R0.319
N3275 X50.64 Y49.572 R259.206
N3280 G03 X54.055 Y49.55 R259.206
N3285 X71.95 Y67.5 R17.895
N3290 G01 X71.905 Y80.776
N3295 G02 X72.224 Y81.095 R0.319
N3300 G01 X167.776
N3305 G02 X168.095 Y80.776 R0.319
N3310 G01 X168.05 Y70.812
N3315 G03 X186. Y52.862 R17.95
N3320 G01 X217.776 Y52.907
N3325 G02 X218.095 Y52.587 R0.319
N3330 G01 Y52.038
N3335 G02 X217.775 Y51.713 R0.326
N3340 G03 X207.439 Y48.149 R17.748
N3345 X201.102 Y39.24 R17.905
N3350 G02 X200.644 Y38.905 R0.482
N3355 G01 X100.359
N3360 G02 X99.341 Y39.222 R1.795
N3365 G03 X94.49 Y41.61 R18.647
N3370 X89.149 Y42.45 R17.398
N3375 G01 X74.526 Y42.434
N3380 G03 X70.078 Y39.467 R4.825
N3385 G02 X65.631 Y36.5 R4.817
N3390 G01 X41.
N3395 Y55.5
N3400 X54.
N3405 G03 X66. Y67.5 R12.
N3410 G01 Y87.
N3415 X174.
N3420 Y70.812
N3425 G03 X186. Y58.812 R12.
N3430 G01 X224.
N3435 Y45.812
N3440 X218.165
N3445 G03 X206.165 Y33.812 R12.
N3450 G01 Y33.
N3455 X97.619
N3460 G03 X89.149 Y36.5 R12.
N3465 G01 X65.631
N3470 G02 X65.177 Y37.492 R0.6
N3475 G01 X76.059 Y50.098
N3480 G02 X76.366 Y50.288 R0.6
N3485 G01 X104.2 Y57.326
N3490 X104.936 Y57.336
N3495 G02 X105.038 Y56.996 R0.185
N3500 G01 Z17.2 F3000.
N3505 G02 X105.012 Y56.98 Z16.933 R1.2
N3510 X104.935 Y56.937 Z16.679 R1.2
N3515 X104.804 Y56.879 Z16.452 R1.2
N3520 X104.621 Y56.828 Z16.262 R1.2
N3525 X104.395 Y56.805 Z16.119 R1.2
N3530 X104.143 Y56.83 Z16.03 R1.2
N3535 X103.89 Y56.913 Z16. R1.2
N3540 G03 X89.12 Y60.107 R35.467 F12000.
N3545 G02 X88.89 Y60.389 R0.235
N3550 G03 X89.33 Y63.067 R35.776
N3555 G02 X89.7 Y63.393 R0.373
N3560 G01 X150.832
N3565 G02 X151.247 Y63.06 R0.426
N3570 G03 X153.225 Y56.895 R35.498
N3575 G02 X153.035 Y56.607 R0.207
N3580 G01 X105.079
N3585 G02 X104.074 Y56.828 R2.395
N3590 G03 X103.89 Y56.913 R35.467
N3595 X98.324 Y55.859 R4.91
N3600 G02 X92.974 Y53.997 R6.288
N3605 G03 X89.149 Y54.251 R28.958
N3610 X85.013 Y54.229 R388.068
N3615 G02 X80.877 Y54.207 R387.905
N3620 X80.704 Y54.484 R0.193
N3625 G03 X83.751 Y67.5 R29.947
N3630 X83.729 Y68.24 R12.431
N3635 G02 X83.707 Y68.98 R12.431
N3640 X84.02 Y69.293 R0.313
N3645 G01 X156.014
N3650 G02 X156.35 Y68.978 R0.336
N3655 G03 X163.9 Y50.96 R29.66
N3660 G02 X163.786 Y50.707 R0.152
N3665 G01 X103.937
N3670 G02 X102.466 Y51.055 R3.283
N3675 G03 X95.994 Y53.43 R30.54
N3680 X92.974 Y53.997 R28.958
N3685 X88.069 Y51.329 R4.735
N3690 G02 X83.354 Y48.338 R5.228
N3695 G01 X68.479 Y48.306
N3700 G02 X68.399 Y48.542 R0.132
N3705 G03 X77.85 Y67.5 R23.936
N3710 X77.828 Y71.191 R308.861
N3715 G02 X77.806 Y74.881 R308.861
N3720 X78.119 Y75.194 R0.313
N3725 G01 X161.881
N3730 G02 X162.194 Y74.881 R0.313
N3735 X162.172 Y72.846 R93.89
N3740 G03 X162.15 Y70.812 R93.89
N3745 X186. Y46.962 R23.85
N3750 G01 X198.029 Y47.006
N3755 G02 X198.175 Y46.739 R0.173
N3760 G03 X197.231 Y45.147 R24.032
N3765 G02 X196.66 Y44.806 R0.648
N3770 G01 X102.292
N3775 G02 X100.988 Y45.153 R2.62
N3780 G03 X95.278 Y47.527 R24.421
N3785 X89.149 Y48.35 R23.232
N3790 G01 X83.354 Y48.338
N3795 G03 X78.94 Y45.386 R4.792
N3800 G02 X74.526 Y42.434 R4.784
N3805 G01 X47.22 Y42.405
N3810 G02 X46.905 Y42.72 R0.315
N3815 G01 Y49.276
N3820 G02 X47.224 Y49.595 R0.319
N3825 X50.64 Y49.572 R259.206
N3830 G03 X54.055 Y49.55 R259.206
N3835 X71.95 Y67.5 R17.895
N3840 G01 X71.905 Y80.776
N3845 G02 X72.224 Y81.095 R0.319
N3850 G01 X167.776
N3855 G02 X168.095 Y80.776 R0.319
N3860 G01 X168.05 Y70.812
N3865 G03 X186. Y52.862 R17.95
N3870 G01 X217.776 Y52.907
N3875 G02 X218.095 Y52.587 R0.319
N3880 G01 Y52.038
N3885 G02 X217.775 Y51.713 R0.326
N3890 G03 X207.439 Y48.149 R17.748
N3895 X201.102 Y39.24 R17.905
N3900 G02 X200.644 Y38.905 R0.482
N3905 G01 X100.359
N3910 G02 X99.341 Y39.222 R1.795
N3915 G03 X94.49 Y41.61 R18.647
N3920 X89.149 Y42.45 R17.398
N3925 G01 X74.526 Y42.434
N3930 G03 X70.078 Y39.467 R4.825
N3935 G02 X65.631 Y36.5 R4.817
N3940 G01 X41.
N3945 Y55.5
N3950 X54.
N3955 G03 X66. Y67.5 R12.
N3960 G01 Y87.
N3965 X174.
N3970 Y70.812
N3975 G03 X186. Y58.812 R12.
N3980 G01 X224.
N3985 Y45.812
N3990 X218.165
N3995 G03 X206.165 Y33.812 R12.
N4000 G01 Y33.
N4005 X97.619
N4010 G03 X89.149 Y36.5 R12.
N4015 G01 X65.631
N4020 G02 X65.366 Y36.53 Z16.03 R1.2 F3000.
N4025 X65.126 Y36.611 Z16.119 R1.2
N4030 X64.93 Y36.726 Z16.262 R1.2
N4035 X64.785 Y36.848 Z16.452 R1.2
N4040 X64.69 Y36.955 Z16.679 R1.2
N4045 X64.638 Y37.027 Z16.933 R1.2
N4050 X64.621 Y37.052 Z17.2 R1.2
N4055 G00 Z65.
N4060 X220.711 Y135.445
N4065 Z56.
N4070 G01 Z46.343 F3000.
N4075 G02 X220.732 Y135.423 Z46.076 R1.2
N4080 X220.793 Y135.358 Z45.822 R1.2
N4085 X220.879 Y135.244 Z45.595 R1.2
N4090 X220.971 Y135.079 Z45.405 R1.2
N4095 X221.046 Y134.864 Z45.262 R1.2
N4100 X221.08 Y134.613 Z45.173 R1.2
N4105 X221.058 Y134.348 Z45.143 R1.2
N4110 G03 X220.671 Y131.932 R35.527 F12000.
N4115 G02 X220.301 Y131.606 R0.373
N4120 G01 X159.912
N4125 G02 X159.578 Y131.927 R0.334
N4130 G03 X158.787 Y138.092 R35.155
N4135 G02 X159.031 Y138.394 R0.249
N4140 G01 X221.791
N4145 G02 X222.008 Y138.099 R0.227
N4150 G03 X221.058 Y134.348 R35.527
N4155 X223.067 Y130.191 R3.846
N4160 G02 X221.977 Y125.706 R2.375
N4165 G01 X154.021
N4170 G02 X153.706 Y126.021 R0.315
N4175 X153.729 Y128.261 R111.446
N4180 G03 X153.751 Y130.5 R111.446
N4185 X150.455 Y144.012 R29.346
N4190 G02 X150.627 Y144.294 R0.193
N4195 G01 X231.168
N4200 G02 X231.313 Y144.023 R0.174
N4205 G03 X227.556 Y136.137 R30.382
N4210 X226.249 Y127.5 R29.193
N4215 X226.271 Y126.763 R12.092
N4220 G02 X226.294 Y126.025 R12.092
N4225 X225.975 Y125.706 R0.319
N4230 G01 X221.977
N4235 G03 X217.552 Y122.756 R4.794
N4240 G02 X213.127 Y119.806 R4.794
N4245 G01 X148.115
N4250 G02 X147.806 Y120.115 R0.309
N4255 G01 X147.85 Y130.5
N4260 G03 X145.745 Y140.232 R23.547
N4265 X139.853 Y148.259 R24.217
N4270 G02 X139.868 Y148.645 R0.251
N4275 G03 X141.305 Y149.846 R23.976
N4280 G02 X142.211 Y150.194 R1.352
N4285 G01 X240.105
N4290 G02 X240.992 Y149.954 R1.759
N4295 G03 X244.11 Y148.423 R24.124
N4300 G02 X244.13 Y148.136 R0.16
N4305 G03 X232.15 Y127.5 R23.914
N4310 X232.172 Y123.809 R308.861
N4315 G02 X232.194 Y120.119 R308.861
N4320 X231.881 Y119.806 R0.313
N4325 G01 X213.127
N4330 G03 X208.701 Y116.855 R4.794
N4335 G02 X204.275 Y113.905 R4.794
N4340 G01 X142.22
N4345 G02 X141.905 Y114.22 R0.315
N4350 G01 X141.95 Y130.5
N4355 G03 X124. Y148.45 R17.95
N4360 G01 X92.22 Y148.405
N4365 G02 X91.905 Y148.72 R0.315
N4370 G01 Y149.276
N4375 G02 X92.224 Y149.595 R0.319
N4380 G01 X125.336 Y149.55
N4385 G03 X138.837 Y155.741 R17.82
N4390 G02 X139.611 Y156.095 R1.024
N4395 G01 X241.742
N4400 G02 X242.876 Y155.743 R2.004
N4405 G03 X247.704 Y153.379 R18.48
N4410 X253.016 Y152.55 R17.443
N4415 G01 X262.776 Y152.595
N4420 G02 X263.095 Y152.276 R0.319
N4425 G01 Y145.724
N4430 G02 X262.776 Y145.405 R0.319
N4435 X259.36 Y145.428 R259.206
N4440 G03 X255.945 Y145.45 R259.206
N4445 X238.05 Y127.5 R17.895
N4450 G01 X238.095 Y114.224
N4455 G02 X237.776 Y113.905 R0.319
N4460 G01 X204.275
N4465 G03 X199.846 Y110.952 R4.798
N4470 G02 X195.418 Y108. R4.798
N4475 G01 X136.
N4480 Y130.5
N4485 G03 X124. Y142.5 R12.
N4490 G01 X86.
N4495 Y155.5
N4500 X125.335
N4505 G03 X136. Y162. R12.
N4510 G01 X244.546
N4515 G03 X253.016 Y158.5 R12.
N4520 G01 X269.
N4525 Y139.5
N4530 X256.
N4535 G03 X244. Y127.5 R12.
N4540 G01 Y108.
N4545 X195.418
N4550 G02 X194.919 Y108.933 R0.6
N4555 G01 X204.285 Y122.958
N4560 G02 X204.501 Y123.154 R0.6
N4565 G03 X204.593 Y123.215 R0.6
N4570 G01 X219.921 Y135.48
N4575 G02 X220.711 Y135.445 R0.6
N4580 G01 Z41.486 F3000.
N4585 G02 X220.732 Y135.423 Z41.219 R1.2
N4590 X220.793 Y135.358 Z40.965 R1.2
N4595 X220.879 Y135.244 Z40.738 R1.2
N4600 X220.971 Y135.079 Z40.548 R1.2
N4605 X221.046 Y134.864 Z40.405 R1.2
N4610 X221.08 Y134.613 Z40.316 R1.2
N4615 X221.058 Y134.348 Z40.286 R1.2
N4620 G03 X220.671 Y131.932 R35.527 F12000.
N4625 G02 X220.301 Y131.606 R0.373
N4630 G01 X159.912
N4635 G02 X159.578 Y131.927 R0.334
N4640 G03 X158.787 Y138.092 R35.155
N4645 G02 X159.031 Y138.394 R0.249
N4650 G01 X221.791
N4655 G02 X222.008 Y138.099 R0.227
N4660 G03 X221.058 Y134.348 R35.527
N4665 X223.067 Y130.191 R3.846
N4670 G02 X221.977 Y125.706 R2.375
N4675 G01 X154.021
N4680 G02 X153.706 Y126.021 R0.315
N4685 X153.729 Y128.261 R111.446
N4690 G03 X153.751 Y130.5 R111.446
N4695 X150.455 Y144.012 R29.346
N4700 G02 X150.627 Y144.294 R0.193
N4705 G01 X231.168
N4710 G02 X231.313 Y144.023 R0.174
N4715 G03 X227.556 Y136.137 R30.382
N4720 X226.249 Y127.5 R29.193
N4725 X226.271 Y126.763 R12.092
N4730 G02 X226.294 Y126.025 R12.092
N4735 X225.975 Y125.706 R0.319
N4740 G01 X221.977
N4745 G03 X217.552 Y122.756 R4.794
N4750 G02 X213.127 Y119.806 R4.794
N4755 G01 X148.115
N4760 G02 X147.806 Y120.115 R0.309
N4765 G01 X147.85 Y130.5
N4770 G03 X145.745 Y140.232 R23.547
N4775 X139.853 Y148.259 R24.217
N4780 G02 X139.868 Y148.645 R0.251
N4785 G03 X141.305 Y149.846 R23.976
N4790 G02 X142.211 Y150.194 R1.352
N4795 G01 X240.105
N4800 G02 X240.992 Y149.954 R1.759
N4805 G03 X244.11 Y148.423 R24.124
N4810 G02 X244.13 Y148.136 R0.16
N4815 G03 X232.15 Y127.5 R23.914
N4820 X232.172 Y123.809 R308.861
N4825 G02 X232.194 Y120.119 R308.861
N4830 X231.881 Y119.806 R0.313
N4835 G01 X213.127
N4840 G03 X208.701 Y116.855 R4.794
N4845 G02 X204.275 Y113.905 R4.794
N4850 G01 X142.22
N4855 G02 X141.905 Y114.22 R0.315
N4860 G01 X141.95 Y130.5
N4865 G03 X124. Y148.45 R17.95
N4870 G01 X92.22 Y148.405
N4875 G02 X91.905 Y148.72 R0.315
N4880 G01 Y149.276
N4885 G02 X92.224 Y149.595 R0.319
N4890 G01 X125.336 Y149.55
N4895 G03 X138.837 Y155.741 R17.82
N4900 G02 X139.611 Y156.095 R1.024
N4905 G01 X241.742
N4910 G02 X242.876 Y155.743 R2.004
N4915 G03 X247.704 Y153.379 R18.48
N4920 X253.016 Y152.55 R17.443
N4925 G01 X262.776 Y152.595
N4930 G02 X263.095 Y152.276 R0.319
N4935 G01 Y145.724
N4940 G02 X262.776 Y145.405 R0.319
N4945 X259.36 Y145.428 R259.206
N4950 G03 X255.945 Y145.45 R259.206
N4955 X238.05 Y127.5 R17.895
N4960 G01 X238.095 Y114.224
N4965 G02 X237.776 Y113.905 R0.319
N4970 G01 X204.275
N4975 G03 X199.846 Y110.952 R4.798
N4980 G02 X195.418 Y108. R4.798
N4985 G01 X136.
N4990 Y130.5
N4995 G03 X124. Y142.5 R12.
N5000 G01 X86.
N5005 Y155.5
N5010 X125.335
N5015 G03 X136. Y162. R12.
N5020 G01 X244.546
N5025 G03 X253.016 Y158.5 R12.
N5030 G01 X269.
N5035 Y139.5
N5040 X256.
N5045 G03 X244. Y127.5 R12.
N5050 G01 Y108.
N5055 X195.418
N5060 G02 X194.919 Y108.933 R0.6
N5065 G01 X204.285 Y122.958
N5070 G02 X204.501 Y123.154 R0.6
N5075 G03 X204.593 Y123.215 R0.6
N5080 G01 X219.921 Y135.48
N5085 G02 X220.711 Y135.445 R0.6
N5090 G01 Z36.629 F3000.
N5095 G02 X220.732 Y135.423 Z36.362 R1.2
N5100 X220.793 Y135.358 Z36.108 R1.2
N5105 X220.879 Y135.244 Z35.88 R1.2
N5110 X220.971 Y135.079 Z35.69 R1.2
N5115 X221.046 Y134.864 Z35.547 R1.2
N5120 X221.08 Y134.613 Z35.459 R1.2
N5125 X221.058 Y134.348 Z35.429 R1.2
N5130 G03 X220.671 Y131.932 R35.527 F12000.
N5135 G02 X220.301 Y131.606 R0.373
N5140 G01 X159.912
N5145 G02 X159.578 Y131.927 R0.334
N5150 G03 X158.787 Y138.092 R35.155
N5155 G02 X159.031 Y138.394 R0.249
N5160 G01 X221.791
N5165 G02 X222.008 Y138.099 R0.227
N5170 G03 X221.058 Y134.348 R35.527
N5175 X223.067 Y130.191 R3.846
N5180 G02 X221.977 Y125.706 R2.375
N5185 G01 X154.021
N5190 G02 X153.706 Y126.021 R0.315
N5195 X153.729 Y128.261 R111.446
N5200 G03 X153.751 Y130.5 R111.446
N5205 X150.455 Y144.012 R29.346
N5210 G02 X150.627 Y144.294 R0.193
N5215 G01 X231.168
N5220 G02 X231.313 Y144.023 R0.174
N5225 G03 X227.556 Y136.137 R30.382
N5230 X226.249 Y127.5 R29.193
N5235 X226.271 Y126.763 R12.092
N5240 G02 X226.294 Y126.025 R12.092
N5245 X225.975 Y125.706 R0.319
N5250 G01 X221.977
N5255 G03 X217.552 Y122.756 R4.794
N5260 G02 X213.127 Y119.806 R4.794
N5265 G01 X148.115
N5270 G02 X147.806 Y120.115 R0.309
N5275 G01 X147.85 Y130.5
N5280 G03 X145.745 Y140.232 R23.547
N5285 X139.853 Y148.259 R24.217
N5290 G02 X139.868 Y148.645 R0.251
N5295 G03 X141.305 Y149.846 R23.976
N5300 G02 X142.211 Y150.194 R1.352
N5305 G01 X240.105
N5310 G02 X240.992 Y149.954 R1.759
N5315 G03 X244.11 Y148.423 R24.124
N5320 G02 X244.13 Y148.136 R0.16
N5325 G03 X232.15 Y127.5 R23.914
N5330 X232.172 Y123.809 R308.861
N5335 G02 X232.194 Y120.119 R308.861
N5340 X231.881 Y119.806 R0.313
N5345 G01 X213.127
N5350 G03 X208.701 Y116.855 R4.794
N5355 G02 X204.275 Y113.905 R4.794
N5360 G01 X142.22
N5365 G02 X141.905 Y114.22 R0.315
N5370 G01 X141.95 Y130.5
N5375 G03 X124. Y148.45 R17.95
N5380 G01 X92.22 Y148.405
N5385 G02 X91.905 Y148.72 R0.315
N5390 G01 Y149.276
N5395 G02 X92.224 Y149.595 R0.319
N5400 G01 X125.336 Y149.55
N5405 G03 X138.837 Y155.741 R17.82
N5410 G02 X139.611 Y156.095 R1.024
N5415 G01 X241.742
N5420 G02 X242.876 Y155.743 R2.004
N5425 G03 X247.704 Y153.379 R18.48
N5430 X253.016 Y152.55 R17.443
N5435 G01 X262.776 Y152.595
N5440 G02 X263.095 Y152.276 R0.319
N5445 G01 Y145.724
N5450 G02 X262.776 Y145.405 R0.319
N5455 X259.36 Y145.428 R259.206
N5460 G03 X255.945 Y145.45 R259.206
N5465 X238.05 Y127.5 R17.895
N5470 G01 X238.095 Y114.224
N5475 G02 X237.776 Y113.905 R0.319
N5480 G01 X204.275
N5485 G03 X199.846 Y110.952 R4.798
N5490 G02 X195.418 Y108. R4.798
N5495 G01 X136.
N5500 Y130.5
N5505 G03 X124. Y142.5 R12.
N5510 G01 X86.
N5515 Y155.5
N5520 X125.335
N5525 G03 X136. Y162. R12.
N5530 G01 X244.546
N5535 G03 X253.016 Y158.5 R12.
N5540 G01 X269.
N5545 Y139.5
N5550 X256.
N5555 G03 X244. Y127.5 R12.
N5560 G01 Y108.
N5565 X195.418
N5570 G02 X194.919 Y108.933 R0.6
N5575 G01 X204.285 Y122.958
N5580 G02 X204.501 Y123.154 R0.6
N5585 G03 X204.593 Y123.215 R0.6
N5590 G01 X219.921 Y135.48
N5595 G02 X220.711 Y135.445 R0.6
N5600 G01 Z31.771 F3000.
N5605 G02 X220.732 Y135.423 Z31.504 R1.2
N5610 X220.793 Y135.358 Z31.251 R1.2
N5615 X220.879 Y135.244 Z31.023 R1.2
N5620 X220.971 Y135.079 Z30.833 R1.2
N5625 X221.046 Y134.864 Z30.69 R1.2
N5630 X221.08 Y134.613 Z30.602 R1.2
N5635 X221.058 Y134.348 Z30.571 R1.2
N5640 G03 X220.671 Y131.932 R35.527 F12000.
N5645 G02 X220.301 Y131.606 R0.373
N5650 G01 X159.912
N5655 G02 X159.578 Y131.927 R0.334
N5660 G03 X158.787 Y138.092 R35.155
N5665 G02 X159.031 Y138.394 R0.249
N5670 G01 X221.791
N5675 G02 X222.008 Y138.099 R0.227
N5680 G03 X221.058 Y134.348 R35.527
N5685 X223.067 Y130.191 R3.846
N5690 G02 X221.977 Y125.706 R2.375
N5695 G01 X154.021
N5700 G02 X153.706 Y126.021 R0.315
N5705 X153.729 Y128.261 R111.446
N5710 G03 X153.751 Y130.5 R111.446
N5715 X150.455 Y144.012 R29.346
N5720 G02 X150.627 Y144.294 R0.193
N5725 G01 X231.168
N5730 G02 X231.313 Y144.023 R0.174
N5735 G03 X227.556 Y136.137 R30.382
N5740 X226.249 Y127.5 R29.193
N5745 X226.271 Y126.763 R12.092
N5750 G02 X226.294 Y126.025 R12.092
N5755 X225.975 Y125.706 R0.319
N5760 G01 X221.977
N5765 G03 X217.552 Y122.756 R4.794
N5770 G02 X213.127 Y119.806 R4.794
N5775 G01 X148.115
N5780 G02 X147.806 Y120.115 R0.309
N5785 G01 X147.85 Y130.5
N5790 G03 X145.745 Y140.232 R23.547
N5795 X139.853 Y148.259 R24.217
N5800 G02 X139.868 Y148.645 R0.251
N5805 G03 X141.305 Y149.846 R23.976
N5810 G02 X142.211 Y150.194 R1.352
N5815 G01 X240.105
N5820 G02 X240.992 Y149.954 R1.759
N5825 G03 X244.11 Y148.423 R24.124
N5830 G02 X244.13 Y148.136 R0.16
N5835 G03 X232.15 Y127.5 R23.914
N5840 X232.172 Y123.809 R308.861
N5845 G02 X232.194 Y120.119 R308.861
N5850 X231.881 Y119.806 R0.313
N5855 G01 X213.127
N5860 G03 X208.701 Y116.855 R4.794
N5865 G02 X204.275 Y113.905 R4.794
N5870 G01 X142.22
N5875 G02 X141.905 Y114.22 R0.315
N5880 G01 X141.95 Y130.5
N5885 G03 X124. Y148.45 R17.95
N5890 G01 X92.22 Y148.405
N5895 G02 X91.905 Y148.72 R0.315
N5900 G01 Y149.276
N5905 G02 X92.224 Y149.595 R0.319
N5910 G01 X125.336 Y149.55
N5915 G03 X138.837 Y155.741 R17.82
N5920 G02 X139.611 Y156.095 R1.024
N5925 G01 X241.742
N5930 G02 X242.876 Y155.743 R2.004
N5935 G03 X247.704 Y153.379 R18.48
N5940 X253.016 Y152.55 R17.443
N5945 G01 X262.776 Y152.595
N5950 G02 X263.095 Y152.276 R0.319
N5955 G01 Y145.724
N5960 G02 X262.776 Y145.405 R0.319
N5965 X259.36 Y145.428 R259.206
N5970 G03 X255.945 Y145.45 R259.206
N5975 X238.05 Y127.5 R17.895
N5980 G01 X238.095 Y114.224
N5985 G02 X237.776 Y113.905 R0.319
N5990 G01 X204.275
N5995 G03 X199.846 Y110.952 R4.798
N6000 G02 X195.418 Y108. R4.798
N6005 G01 X136.
N6010 Y130.5
N6015 G03 X124. Y142.5 R12.
N6020 G01 X86.
N6025 Y155.5
N6030 X125.335
N6035 G03 X136. Y162. R12.
N6040 G01 X244.546
N6045 G03 X253.016 Y158.5 R12.
N6050 G01 X269.
N6055 Y139.5
N6060 X256.
N6065 G03 X244. Y127.5 R12.
N6070 G01 Y108.
N6075 X195.418
N6080 G02 X194.919 Y108.933 R0.6
N6085 G01 X204.285 Y122.958
N6090 G02 X204.501 Y123.154 R0.6
N6095 G03 X204.593 Y123.215 R0.6
N6100 G01 X219.921 Y135.48
N6105 G02 X220.711 Y135.445 R0.6
N6110 G01 Z26.914 F3000.
N6115 G02 X220.732 Y135.423 Z26.647 R1.2
N6120 X220.793 Y135.358 Z26.394 R1.2
N6125 X220.879 Y135.244 Z26.166 R1.2
N6130 X220.971 Y135.079 Z25.976 R1.2
N6135 X221.046 Y134.864 Z25.833 R1.2
N6140 X221.08 Y134.613 Z25.744 R1.2
N6145 X221.058 Y134.348 Z25.714 R1.2
N6150 G03 X220.671 Y131.932 R35.527 F12000.
N6155 G02 X220.301 Y131.606 R0.373
N6160 G01 X159.912
N6165 G02 X159.578 Y131.927 R0.334
N6170 G03 X158.787 Y138.092 R35.155
N6175 G02 X159.031 Y138.394 R0.249
N6180 G01 X221.791
N6185 G02 X222.008 Y138.099 R0.227
N6190 G03 X221.058 Y134.348 R35.527
N6195 X223.067 Y130.191 R3.846
N6200 G02 X221.977 Y125.706 R2.375
N6205 G01 X154.021
N6210 G02 X153.706 Y126.021 R0.315
N6215 X153.729 Y128.261 R111.446
N6220 G03 X153.751 Y130.5 R111.446
N6225 X150.455 Y144.012 R29.346
N6230 G02 X150.627 Y144.294 R0.193
N6235 G01 X231.168
N6240 G02 X231.313 Y144.023 R0.174
N6245 G03 X227.556 Y136.137 R30.382
N6250 X226.249 Y127.5 R29.193
N6255 X226.271 Y126.763 R12.092
N6260 G02 X226.294 Y126.025 R12.092
N6265 X225.975 Y125.706 R0.319
N6270 G01 X221.977
N6275 G03 X217.552 Y122.756 R4.794
N6280 G02 X213.127 Y119.806 R4.794
N6285 G01 X148.115
N6290 G02 X147.806 Y120.115 R0.309
N6295 G01 X147.85 Y130.5
N6300 G03 X145.745 Y140.232 R23.547
N6305 X139.853 Y148.259 R24.217
N6310 G02 X139.868 Y148.645 R0.251
N6315 G03 X141.305 Y149.846 R23.976
N6320 G02 X142.211 Y150.194 R1.352
N6325 G01 X240.105
N6330 G02 X240.992 Y149.954 R1.759
N6335 G03 X244.11 Y148.423 R24.124
N6340 G02 X244.13 Y148.136 R0.16
N6345 G03 X232.15 Y127.5 R23.914
N6350 X232.172 Y123.809 R308.861
N6355 G02 X232.194 Y120.119 R308.861
N6360 X231.881 Y119.806 R0.313
N6365 G01 X213.127
N6370 G03 X208.701 Y116.855 R4.794
N6375 G02 X204.275 Y113.905 R4.794
N6380 G01 X142.22
N6385 G02 X141.905 Y114.22 R0.315
N6390 G01 X141.95 Y130.5
N6395 G03 X124. Y148.45 R17.95
N6400 G01 X92.22 Y148.405
N6405 G02 X91.905 Y148.72 R0.315
N6410 G01 Y149.276
N6415 G02 X92.224 Y149.595 R0.319
N6420 G01 X125.336 Y149.55
N6425 G03 X138.837 Y155.741 R17.82
N6430 G02 X139.611 Y156.095 R1.024
N6435 G01 X241.742
N6440 G02 X242.876 Y155.743 R2.004
N6445 G03 X247.704 Y153.379 R18.48
N6450 X253.016 Y152.55 R17.443
N6455 G01 X262.776 Y152.595
N6460 G02 X263.095 Y152.276 R0.319
N6465 G01 Y145.724
N6470 G02 X262.776 Y145.405 R0.319
N6475 X259.36 Y145.428 R259.206
N6480 G03 X255.945 Y145.45 R259.206
N6485 X238.05 Y127.5 R17.895
N6490 G01 X238.095 Y114.224
N6495 G02 X237.776 Y113.905 R0.319
N6500 G01 X204.275
N6505 G03 X199.846 Y110.952 R4.798
N6510 G02 X195.418 Y108. R4.798
N6515 G01 X136.
N6520 Y130.5
N6525 G03 X124. Y142.5 R12.
N6530 G01 X86.
N6535 Y155.5
N6540 X125.335
N6545 G03 X136. Y162. R12.
N6550 G01 X244.546
N6555 G03 X253.016 Y158.5 R12.
N6560 G01 X269.
N6565 Y139.5
N6570 X256.
N6575 G03 X244. Y127.5 R12.
N6580 G01 Y108.
N6585 X195.418
N6590 G02 X194.919 Y108.933 R0.6
N6595 G01 X204.285 Y122.958
N6600 G02 X204.501 Y123.154 R0.6
N6605 G03 X204.593 Y123.215 R0.6
N6610 G01 X219.921 Y135.48
N6615 G02 X220.711 Y135.445 R0.6
N6620 G01 Z22.057 F3000.
N6625 G02 X220.732 Y135.423 Z21.79 R1.2
N6630 X220.793 Y135.358 Z21.536 R1.2
N6635 X220.879 Y135.244 Z21.309 R1.2
N6640 X220.971 Y135.079 Z21.119 R1.2
N6645 X221.046 Y134.864 Z20.976 R1.2
N6650 X221.08 Y134.613 Z20.887 R1.2
N6655 X221.058 Y134.348 Z20.857 R1.2
N6660 G03 X220.671 Y131.932 R35.527 F12000.
N6665 G02 X220.301 Y131.606 R0.373
N6670 G01 X159.912
N6675 G02 X159.578 Y131.927 R0.334
N6680 G03 X158.787 Y138.092 R35.155
N6685 G02 X159.031 Y138.394 R0.249
N6690 G01 X221.791
N6695 G02 X222.008 Y138.099 R0.227
N6700 G03 X221.058 Y134.348 R35.527
N6705 X223.067 Y130.191 R3.846
N6710 G02 X221.977 Y125.706 R2.375
N6715 G01 X154.021
N6720 G02 X153.706 Y126.021 R0.315
N6725 X153.729 Y128.261 R111.446
N6730 G03 X153.751 Y130.5 R111.446
N6735 X150.455 Y144.012 R29.346
N6740 G02 X150.627 Y144.294 R0.193
N6745 G01 X231.168
N6750 G02 X231.313 Y144.023 R0.174
N6755 G03 X227.556 Y136.137 R30.382
N6760 X226.249 Y127.5 R29.193
N6765 X226.271 Y126.763 R12.092
N6770 G02 X226.294 Y126.025 R12.092
N6775 X225.975 Y125.706 R0.319
N6780 G01 X221.977
N6785 G03 X217.552 Y122.756 R4.794
N6790 G02 X213.127 Y119.806 R4.794
N6795 G01 X148.115
N6800 G02 X147.806 Y120.115 R0.309
N6805 G01 X147.85 Y130.5
N6810 G03 X145.745 Y140.232 R23.547
N6815 X139.853 Y148.259 R24.217
N6820 G02 X139.868 Y148.645 R0.251
N6825 G03 X141.305 Y149.846 R23.976
N6830 G02 X142.211 Y150.194 R1.352
N6835 G01 X240.105
N6840 G02 X240.992 Y149.954 R1.759
N6845 G03 X244.11 Y148.423 R24.124
N6850 G02 X244.13 Y148.136 R0.16
N6855 G03 X232.15 Y127.5 R23.914
N6860 X232.172 Y123.809 R308.861
N6865 G02 X232.194 Y120.119 R308.861
N6870 X231.881 Y119.806 R0.313
N6875 G01 X213.127
N6880 G03 X208.701 Y116.855 R4.794
N6885 G02 X204.275 Y113.905 R4.794
N6890 G01 X142.22
N6895 G02 X141.905 Y114.22 R0.315
N6900 G01 X141.95 Y130.5
N6905 G03 X124. Y148.45 R17.95
N6910 G01 X92.22 Y148.405
N6915 G02 X91.905 Y148.72 R0.315
N6920 G01 Y149.276
N6925 G02 X92.224 Y149.595 R0.319
N6930 G01 X125.336 Y149.55
N6935 G03 X138.837 Y155.741 R17.82
N6940 G02 X139.611 Y156.095 R1.024
N6945 G01 X241.742
N6950 G02 X242.876 Y155.743 R2.004
N6955 G03 X247.704 Y153.379 R18.48
N6960 X253.016 Y152.55 R17.443
N6965 G01 X262.776 Y152.595
N6970 G02 X263.095 Y152.276 R0.319
N6975 G01 Y145.724
N6980 G02 X262.776 Y145.405 R0.319
N6985 X259.36 Y145.428 R259.206
N6990 G03 X255.945 Y145.45 R259.206
N6995 X238.05 Y127.5 R17.895
N7000 G01 X238.095 Y114.224
N7005 G02 X237.776 Y113.905 R0.319
N7010 G01 X204.275
N7015 G03 X199.846 Y110.952 R4.798
N7020 G02 X195.418 Y108. R4.798
N7025 G01 X136.
N7030 Y130.5
N7035 G03 X124. Y142.5 R12.
N7040 G01 X86.
N7045 Y155.5
N7050 X125.335
N7055 G03 X136. Y162. R12.
N7060 G01 X244.546
N7065 G03 X253.016 Y158.5 R12.
N7070 G01 X269.
N7075 Y139.5
N7080 X256.
N7085 G03 X244. Y127.5 R12.
N7090 G01 Y108.
N7095 X195.418
N7100 G02 X194.919 Y108.933 R0.6
N7105 G01 X204.285 Y122.958
N7110 G02 X204.501 Y123.154 R0.6
N7115 G03 X204.593 Y123.215 R0.6
N7120 G01 X219.921 Y135.48
N7125 G02 X220.711 Y135.445 R0.6
N7130 G01 Z17.2 F3000.
N7135 G02 X220.732 Y135.423 Z16.933 R1.2
N7140 X220.793 Y135.358 Z16.679 R1.2
N7145 X220.879 Y135.244 Z16.452 R1.2
N7150 X220.971 Y135.079 Z16.262 R1.2
N7155 X221.046 Y134.864 Z16.119 R1.2
N7160 X221.08 Y134.613 Z16.03 R1.2
N7165 X221.058 Y134.348 Z16. R1.2
N7170 G03 X220.671 Y131.932 R35.527 F12000.
N7175 G02 X220.301 Y131.606 R0.373
N7180 G01 X159.912
N7185 G02 X159.578 Y131.927 R0.334
N7190 G03 X158.787 Y138.092 R35.155
N7195 G02 X159.031 Y138.394 R0.249
N7200 G01 X221.791
N7205 G02 X222.008 Y138.099 R0.227
N7210 G03 X221.058 Y134.348 R35.527
N7215 X223.067 Y130.191 R3.846
N7220 G02 X221.977 Y125.706 R2.375
N7225 G01 X154.021
N7230 G02 X153.706 Y126.021 R0.315
N7235 X153.729 Y128.261 R111.446
N7240 G03 X153.751 Y130.5 R111.446
N7245 X150.455 Y144.012 R29.346
N7250 G02 X150.627 Y144.294 R0.193
N7255 G01 X231.168
N7260 G02 X231.313 Y144.023 R0.174
N7265 G03 X227.556 Y136.137 R30.382
N7270 X226.249 Y127.5 R29.193
N7275 X226.271 Y126.763 R12.092
N7280 G02 X226.294 Y126.025 R12.092
N7285 X225.975 Y125.706 R0.319
N7290 G01 X221.977
N7295 G03 X217.552 Y122.756 R4.794
N7300 G02 X213.127 Y119.806 R4.794
N7305 G01 X148.115
N7310 G02 X147.806 Y120.115 R0.309
N7315 G01 X147.85 Y130.5
N7320 G03 X145.745 Y140.232 R23.547
N7325 X139.853 Y148.259 R24.217
N7330 G02 X139.868 Y148.645 R0.251
N7335 G03 X141.305 Y149.846 R23.976
N7340 G02 X142.211 Y150.194 R1.352
N7345 G01 X240.105
N7350 G02 X240.992 Y149.954 R1.759
N7355 G03 X244.11 Y148.423 R24.124
N7360 G02 X244.13 Y148.136 R0.16
N7365 G03 X232.15 Y127.5 R23.914
N7370 X232.172 Y123.809 R308.861
N7375 G02 X232.194 Y120.119 R308.861
N7380 X231.881 Y119.806 R0.313
N7385 G01 X213.127
N7390 G03 X208.701 Y116.855 R4.794
N7395 G02 X204.275 Y113.905 R4.794
N7400 G01 X142.22
N7405 G02 X141.905 Y114.22 R0.315
N7410 G01 X141.95 Y130.5
N7415 G03 X124. Y148.45 R17.95
N7420 G01 X92.22 Y148.405
N7425 G02 X91.905 Y148.72 R0.315
N7430 G01 Y149.276
N7435 G02 X92.224 Y149.595 R0.319
N7440 G01 X125.336 Y149.55
N7445 G03 X138.837 Y155.741 R17.82
N7450 G02 X139.611 Y156.095 R1.024
N7455 G01 X241.742
N7460 G02 X242.876 Y155.743 R2.004
N7465 G03 X247.704 Y153.379 R18.48
N7470 X253.016 Y152.55 R17.443
N7475 G01 X262.776 Y152.595
N7480 G02 X263.095 Y152.276 R0.319
N7485 G01 Y145.724
N7490 G02 X262.776 Y145.405 R0.319
N7495 X259.36 Y145.428 R259.206
N7500 G03 X255.945 Y145.45 R259.206
N7505 X238.05 Y127.5 R17.895
N7510 G01 X238.095 Y114.224
N7515 G02 X237.776 Y113.905 R0.319
N7520 G01 X204.275
N7525 G03 X199.846 Y110.952 R4.798
N7530 G02 X195.418 Y108. R4.798
N7535 G01 X136.
N7540 Y130.5
N7545 G03 X124. Y142.5 R12.
N7550 G01 X86.
N7555 Y155.5
N7560 X125.335
N7565 G03 X136. Y162. R12.
N7570 G01 X244.546
N7575 G03 X253.016 Y158.5 R12.
N7580 G01 X269.
N7585 Y139.5
N7590 X256.
N7595 G03 X244. Y127.5 R12.
N7600 G01 Y108.
N7605 X195.418
N7610 G02 X195.153 Y108.03 Z16.03 R1.2 F3000.
N7615 X194.913 Y108.111 Z16.119 R1.2
N7620 X194.717 Y108.226 Z16.262 R1.2
N7625 X194.572 Y108.348 Z16.452 R1.2
N7630 X194.477 Y108.455 Z16.679 R1.2
N7635 X194.425 Y108.527 Z16.933 R1.2
N7640 X194.408 Y108.552 Z17.2 R1.2
N7645 G00 Z65.

N7655 G28 G91 Z0.
N7660 G49
N7665 M05
%
