(XYZok 5x 30mm og 5x 40mm)
O1002
(T25 D=0.1 CR=0. - ZMIN=0. - FLAT END MILL)
N10 G90 G94 G17 G49 G40 G80
N15 G28 G91 Z0.
N20 G90

(TRACE4)
N25 T25 M06
N30 S5000 M03
N35 G56
N45 G00 X143.338 Y240.897
N46 G00 X143.238 Y240.839
N50 G43 Z55. H25
N55 G00 Z45.
N60 G01 Z0. F2000.
N65 X136.309 Y236.839 F3000.
N70 X118.809 Y267.15
N75 X111.015 Y262.65
N80 X101.015 Y279.97
N85 X66.374 Y259.97
N90 X76.374 Y242.65
N95 X68.58 Y238.15
N100 X86.08 Y207.839
N105 X79.152 Y203.839
N110 Z45. F2000.
N115 G00 X79.146 Y203.849
N120 G01 Z0. F2000.
N125 X98.767 Y169.864 F3000.
N130 X98.066 Y169.163
N135 X97.394 Y168.434
N140 X96.751 Y167.68
N145 X96.139 Y166.9
N150 X95.558 Y166.097
N155 X95.009 Y165.272
N160 X94.493 Y164.425
N165 X94.011 Y163.559
N170 X93.564 Y162.674
N175 X93.153 Y161.772
N180 X92.777 Y160.855
N185 X92.439 Y159.923
N190 X92.137 Y158.979
N195 X91.873 Y158.023
N200 X91.647 Y157.058
N205 X91.46 Y156.085
N210 X91.311 Y155.104
N215 X91.201 Y154.119
N220 X91.131 Y153.13
N225 X91.1 Y152.14
N230 X91.108 Y151.148
N235 X91.155 Y150.158
N240 X91.242 Y149.171
N245 X91.367 Y148.187
N250 X91.532 Y147.21
N255 X91.735 Y146.24
N260 X91.976 Y145.278
N265 X92.256 Y144.327
N270 X92.572 Y143.388
N275 X92.926 Y142.462
N280 X93.316 Y141.55
N285 X93.743 Y140.655
N290 X94.204 Y139.778
N295 X94.699 Y138.919
N300 X95.229 Y138.081
N305 X95.791 Y137.265
N310 X96.385 Y136.471
N315 X97.01 Y135.702
N320 X97.665 Y134.958
N325 X98.349 Y134.24
N330 X99.061 Y133.55
N335 X99.8 Y132.889
N340 X100.564 Y132.258
N345 X101.353 Y131.658
N350 X102.165 Y131.089
N355 X102.998 Y130.553
N360 X103.853 Y130.05
N365 X104.727 Y129.582
N370 X105.618 Y129.149
N375 X106.526 Y128.751
N380 X107.449 Y128.39
N385 X108.386 Y128.065
N390 X109.335 Y127.778
N395 X110.294 Y127.529
N400 X111.263 Y127.318
N405 X112.239 Y127.146
N410 X113.221 Y127.012
N415 X114.208 Y126.918
N420 X115.198 Y126.862
N425 X116.189 Y126.846
N430 X117.18 Y126.87
N435 X118.17 Y126.932
N440 X119.156 Y127.034
N445 X120.137 Y127.175
N450 X121.112 Y127.354
N455 X122.079 Y127.572
N460 X123.036 Y127.828
N465 X169.152 Y47.954
N470 X172.147 Y49.684
N475 X173.018 Y48.888
N480 X173.915 Y48.121
N485 X174.838 Y47.386
N490 X175.785 Y46.682
N495 X176.754 Y46.01
N500 X177.746 Y45.371
N505 X178.759 Y44.766
N510 X179.792 Y44.196
N515 X180.844 Y43.661
N520 X181.913 Y43.161
N525 X182.998 Y42.698
N530 X184.098 Y42.271
N535 X185.212 Y41.882
N540 X186.338 Y41.531
N545 X187.476 Y41.218
N550 X188.623 Y40.943
N555 X189.779 Y40.708
N560 X190.942 Y40.511
N565 X192.112 Y40.353
N570 X193.286 Y40.236
N575 X194.463 Y40.157
N580 X195.642 Y40.119
N585 X196.822 Y40.12
N590 X198.001 Y40.161
N595 X199.178 Y40.242
N600 X200.352 Y40.362
N605 X201.521 Y40.522
N610 X202.684 Y40.721
N615 X203.839 Y40.959
N620 X204.986 Y41.237
N625 X206.123 Y41.552
N630 X207.249 Y41.906
N635 X208.362 Y42.297
N640 X209.461 Y42.726
N645 X210.545 Y43.192
N650 X211.613 Y43.693
N655 X212.663 Y44.231
N660 X213.695 Y44.804
N665 X214.706 Y45.411
N670 X215.697 Y46.051
N675 X216.666 Y46.725
N680 X217.611 Y47.431
N685 X218.532 Y48.169
N690 X219.427 Y48.937
N695 X220.296 Y49.735
N700 X221.138 Y50.562
N705 X221.951 Y51.417
N710 X222.736 Y52.298
N715 X223.489 Y53.206
N720 X224.212 Y54.138
N725 X224.904 Y55.094
N730 X225.562 Y56.073
N735 X226.187 Y57.074
N740 X226.778 Y58.095
N745 X227.334 Y59.136
N750 X227.855 Y60.194
N755 X228.34 Y61.27
N760 X228.789 Y62.361
N765 X229.2 Y63.467
N770 X229.574 Y64.586
N775 X229.91 Y65.717
N780 X230.207 Y66.859
N785 X230.466 Y68.01
N790 X230.686 Y69.169
N795 X230.867 Y70.335
N800 X231.008 Y71.506
N805 X231.11 Y72.682
N810 X231.172 Y73.86
N815 X231.195 Y75.04
N820 X231.177 Y76.219
N825 X231.12 Y77.398
N830 X231.023 Y78.574
N835 X230.887 Y79.746
N840 X230.711 Y80.912
N845 X230.496 Y82.073
N850 X230.242 Y83.225
N855 X233.238 Y84.954
N860 X187.122 Y164.828
N865 X187.823 Y165.53
N870 X188.495 Y166.258
N875 X189.138 Y167.013
N880 X189.751 Y167.792
N885 X190.332 Y168.595
N890 X190.881 Y169.421
N895 X191.396 Y170.267
N900 X191.878 Y171.134
N905 X192.325 Y172.018
N910 X192.737 Y172.92
N915 X193.112 Y173.838
N920 X193.451 Y174.769
N925 X193.752 Y175.714
N930 X194.016 Y176.669
N935 X194.242 Y177.634
N940 X194.43 Y178.608
N945 X194.578 Y179.588
N950 X194.688 Y180.573
N955 X194.758 Y181.562
N960 X194.79 Y182.553
N965 X194.782 Y183.544
N970 X194.734 Y184.534
N975 X194.648 Y185.522
N980 X194.522 Y186.505
N985 X194.358 Y187.483
N990 X194.155 Y188.453
N995 X193.913 Y189.414
N1000 X193.634 Y190.365
N1005 X193.317 Y191.305
N1010 X192.963 Y192.231
N1015 X192.573 Y193.142
N1020 X192.147 Y194.037
N1025 X191.686 Y194.914
N1030 X191.19 Y195.773
N1035 X190.661 Y196.611
N1040 X190.099 Y197.428
N1045 X189.505 Y198.221
N1050 X188.88 Y198.991
N1055 X188.225 Y199.735
N1060 X187.541 Y200.452
N1065 X186.829 Y201.142
N1070 X186.09 Y201.803
N1075 X185.326 Y202.434
N1080 X184.537 Y203.035
N1085 X183.725 Y203.603
N1090 X182.891 Y204.139
N1095 X182.036 Y204.642
N1100 X181.163 Y205.11
N1105 X180.271 Y205.544
N1110 X179.363 Y205.941
N1115 X178.44 Y206.303
N1120 X177.503 Y206.627
N1125 X176.554 Y206.914
N1130 X175.595 Y207.163
N1135 X174.626 Y207.374
N1140 X173.65 Y207.547
N1145 X172.668 Y207.68
N1150 X171.681 Y207.775
N1155 X170.691 Y207.83
N1160 X169.7 Y207.846
N1165 X168.709 Y207.823
N1170 X167.72 Y207.76
N1175 X166.734 Y207.658
N1180 X165.753 Y207.518
N1185 X164.778 Y207.338
N1190 X163.811 Y207.12
N1195 X162.853 Y206.864
N1200 X114.238 Y291.068
N1205 X107.309 Y287.068
N1210 X89.81 Y317.379
N1215 X82.015 Y312.879
N1220 X72.015 Y330.2
N1225 X37.374 Y310.2
N1230 X47.374 Y292.879
N1235 X39.58 Y288.379
N1240 X57.08 Y258.068
N1245 X50.152 Y254.068
N1250 X79.146 Y203.849
N1255 Z45. F2000.
N1260 G00 X198.238 Y145.576
N1265 G01 Z0. F2000.
N1270 X195.242 Y143.846 F3000.
N1275 X195.496 Y142.694
N1280 X195.711 Y141.534
N1285 X195.887 Y140.368
N1290 X196.023 Y139.196
N1295 X196.12 Y138.02
N1300 X196.177 Y136.841
N1305 X196.195 Y135.662
N1310 X196.172 Y134.482
N1315 X196.11 Y133.304
N1320 X196.008 Y132.128
N1325 X195.867 Y130.957
N1330 X195.686 Y129.791
N1335 X195.466 Y128.632
N1340 X195.207 Y127.481
N1345 X194.91 Y126.339
N1350 X194.574 Y125.208
N1355 X194.2 Y124.089
N1360 X193.789 Y122.983
N1365 X193.34 Y121.892
N1370 X192.855 Y120.816
N1375 X192.334 Y119.757
N1380 X191.778 Y118.717
N1385 X191.187 Y117.696
N1390 X190.562 Y116.695
N1395 X189.904 Y115.716
N1400 X189.212 Y114.76
N1405 X188.489 Y113.827
N1410 X187.736 Y112.92
N1415 X186.951 Y112.038
N1420 X186.138 Y111.184
N1425 X185.296 Y110.357
N1430 X184.427 Y109.559
N1435 X183.532 Y108.791
N1440 X182.611 Y108.053
N1445 X181.666 Y107.347
N1450 X180.697 Y106.673
N1455 X179.706 Y106.032
N1460 X178.695 Y105.425
N1465 X177.663 Y104.853
N1470 X176.613 Y104.315
N1475 X175.545 Y103.813
N1480 X174.461 Y103.348
N1485 X173.362 Y102.919
N1490 X172.249 Y102.528
N1495 X171.123 Y102.174
N1500 X169.986 Y101.858
N1505 X168.839 Y101.581
N1510 X167.684 Y101.343
N1515 X166.521 Y101.144
N1520 X165.352 Y100.984
N1525 X164.178 Y100.864
N1530 X163.001 Y100.783
N1535 X161.822 Y100.742
N1540 X160.642 Y100.741
N1545 X159.463 Y100.779
N1550 X158.286 Y100.857
N1555 X157.112 Y100.975
N1560 X155.942 Y101.133
N1565 X154.779 Y101.329
N1570 X153.623 Y101.565
N1575 X152.476 Y101.84
N1580 X151.338 Y102.153
N1585 X150.212 Y102.504
N1590 X149.098 Y102.893
N1595 X147.998 Y103.32
N1600 X146.913 Y103.783
N1605 X145.844 Y104.282
N1610 X144.792 Y104.818
N1615 X143.759 Y105.388
N1620 X142.746 Y105.993
N1625 X141.754 Y106.632
N1630 X140.785 Y107.303
N1635 X139.838 Y108.008
N1640 X138.915 Y108.743
N1645 X138.018 Y109.509
N1650 X137.147 Y110.305
N1655 X134.152 Y108.576
N1660 Z45. F2000.
N1665 G00 Z55.

(2D CONTOUR3)
N1675 G00 X232.388 Y290.591
N1680 Z55.
N1685 Z45.
N1690 G01 Z41. F2000.
N1695 Z0.
N1700 X232.411 Y296.591
N1705 G03 X231.618 Y299.594 A119.789 R6.
N1710 X133.828 Y329.778 A205.904 R74.95 F3000.
N1715 X131.704 Y322.851 A300. R4.95
N1720 G01 X201.525 Y201.917
N1725 G03 X208.587 Y200.292 A34.091 R4.95
N1730 X231.618 Y299.594 A119.789 R74.95
N1735 X229.43 Y301.798 A149.789 R6. F2000.
N1740 G01 X224.245 Y304.817
N1745 G00 Z45.
N1750 X258.854 Y343.196
N1755 G01 Z41. F2000.
N1760 Z0.
N1765 X255.854 Y338.
N1770 G03 X255.05 Y335. A270. R6.
N1775 G01 Y35. F3000.
N1780 G02 X240. Y19.95 A180. R15.05
N1785 G01 X35.
N1790 G02 X19.95 Y35. A90. R15.05
N1795 G01 Y335.
N1800 G02 X35. Y350.05 A0. R15.05
N1805 G01 X240.
N1810 G02 X255.05 Y335. A270. R15.05
N1815 G03 X255.854 Y332. A300. R6. F2000.
N1820 G01 X258.854 Y326.804
N1825 G00 Z45.
N1830 X104.495 Y83.189
N1835 G01 Z41. F2000.
N1840 Z0.
N1845 Y89.189
N1850 G03 X103.691 Y92.189 A120. R6.
N1855 G01 X63.617 Y161.599 F3000.
N1860 G03 X45.05 Y156.624 A270. R9.95
N1865 G01 Y55.
N1870 G03 X55. Y45.05 A0. R9.95
N1875 G01 X113.673
N1880 G03 X122.29 Y59.975 A120.001 R9.95
N1885 G01 X103.691 Y92.189
N1890 G03 X101.495 Y94.385 A150. R6. F2000.
N1895 G01 X96.299 Y97.385
N1900 G00 Z55.

(TRACE4)
N1910 G00 X393.238 Y240.839
N1915 Z55.
N1920 Z45.
N1925 G01 Z0. F2000.
N1930 X386.309 Y236.839 F3000.
N1935 X368.809 Y267.15
N1940 X361.015 Y262.65
N1945 X351.015 Y279.97
N1950 X316.374 Y259.97
N1955 X326.374 Y242.65
N1960 X318.58 Y238.15
N1965 X336.08 Y207.839
N1970 X329.152 Y203.839
N1975 Z45. F2000.
N1980 G00 X329.146 Y203.849
N1985 G01 Z0. F2000.
N1990 X348.767 Y169.864 F3000.
N1995 X348.066 Y169.163
N2000 X347.394 Y168.434
N2005 X346.751 Y167.68
N2010 X346.139 Y166.9
N2015 X345.558 Y166.097
N2020 X345.009 Y165.272
N2025 X344.493 Y164.425
N2030 X344.011 Y163.559
N2035 X343.564 Y162.674
N2040 X343.153 Y161.772
N2045 X342.777 Y160.855
N2050 X342.439 Y159.923
N2055 X342.137 Y158.979
N2060 X341.873 Y158.023
N2065 X341.647 Y157.058
N2070 X341.46 Y156.085
N2075 X341.311 Y155.104
N2080 X341.201 Y154.119
N2085 X341.131 Y153.13
N2090 X341.1 Y152.14
N2095 X341.108 Y151.148
N2100 X341.155 Y150.158
N2105 X341.242 Y149.171
N2110 X341.367 Y148.187
N2115 X341.532 Y147.21
N2120 X341.735 Y146.24
N2125 X341.976 Y145.278
N2130 X342.256 Y144.327
N2135 X342.572 Y143.388
N2140 X342.926 Y142.462
N2145 X343.316 Y141.55
N2150 X343.743 Y140.655
N2155 X344.204 Y139.778
N2160 X344.699 Y138.919
N2165 X345.229 Y138.081
N2170 X345.791 Y137.265
N2175 X346.385 Y136.471
N2180 X347.01 Y135.702
N2185 X347.665 Y134.958
N2190 X348.349 Y134.24
N2195 X349.061 Y133.55
N2200 X349.8 Y132.889
N2205 X350.564 Y132.258
N2210 X351.353 Y131.658
N2215 X352.165 Y131.089
N2220 X352.998 Y130.553
N2225 X353.853 Y130.05
N2230 X354.727 Y129.582
N2235 X355.618 Y129.149
N2240 X356.526 Y128.751
N2245 X357.449 Y128.39
N2250 X358.386 Y128.065
N2255 X359.335 Y127.778
N2260 X360.294 Y127.529
N2265 X361.263 Y127.318
N2270 X362.239 Y127.146
N2275 X363.221 Y127.012
N2280 X364.208 Y126.918
N2285 X365.198 Y126.862
N2290 X366.189 Y126.846
N2295 X367.18 Y126.87
N2300 X368.17 Y126.932
N2305 X369.156 Y127.034
N2310 X370.137 Y127.175
N2315 X371.112 Y127.354
N2320 X372.079 Y127.572
N2325 X373.036 Y127.828
N2330 X419.152 Y47.954
N2335 X422.147 Y49.684
N2340 X423.018 Y48.888
N2345 X423.915 Y48.121
N2350 X424.838 Y47.386
N2355 X425.785 Y46.682
N2360 X426.754 Y46.01
N2365 X427.746 Y45.371
N2370 X428.759 Y44.766
N2375 X429.792 Y44.196
N2380 X430.844 Y43.661
N2385 X431.913 Y43.161
N2390 X432.998 Y42.698
N2395 X434.098 Y42.271
N2400 X435.212 Y41.882
N2405 X436.338 Y41.531
N2410 X437.476 Y41.218
N2415 X438.623 Y40.943
N2420 X439.779 Y40.708
N2425 X440.942 Y40.511
N2430 X442.112 Y40.353
N2435 X443.286 Y40.236
N2440 X444.463 Y40.157
N2445 X445.642 Y40.119
N2450 X446.822 Y40.12
N2455 X448.001 Y40.161
N2460 X449.178 Y40.242
N2465 X450.352 Y40.362
N2470 X451.521 Y40.522
N2475 X452.684 Y40.721
N2480 X453.839 Y40.959
N2485 X454.986 Y41.237
N2490 X456.123 Y41.552
N2495 X457.249 Y41.906
N2500 X458.362 Y42.297
N2505 X459.461 Y42.726
N2510 X460.545 Y43.192
N2515 X461.613 Y43.693
N2520 X462.663 Y44.231
N2525 X463.695 Y44.804
N2530 X464.706 Y45.411
N2535 X465.697 Y46.051
N2540 X466.666 Y46.725
N2545 X467.611 Y47.431
N2550 X468.532 Y48.169
N2555 X469.427 Y48.937
N2560 X470.296 Y49.735
N2565 X471.138 Y50.562
N2570 X471.951 Y51.417
N2575 X472.736 Y52.298
N2580 X473.489 Y53.206
N2585 X474.212 Y54.138
N2590 X474.904 Y55.094
N2595 X475.562 Y56.073
N2600 X476.187 Y57.074
N2605 X476.778 Y58.095
N2610 X477.334 Y59.136
N2615 X477.855 Y60.194
N2620 X478.34 Y61.27
N2625 X478.789 Y62.361
N2630 X479.2 Y63.467
N2635 X479.574 Y64.586
N2640 X479.91 Y65.717
N2645 X480.207 Y66.859
N2650 X480.466 Y68.01
N2655 X480.686 Y69.169
N2660 X480.867 Y70.335
N2665 X481.008 Y71.506
N2670 X481.11 Y72.682
N2675 X481.172 Y73.86
N2680 X481.195 Y75.04
N2685 X481.177 Y76.219
N2690 X481.12 Y77.398
N2695 X481.023 Y78.574
N2700 X480.887 Y79.746
N2705 X480.711 Y80.912
N2710 X480.496 Y82.073
N2715 X480.242 Y83.225
N2720 X483.238 Y84.954
N2725 X437.122 Y164.828
N2730 X437.823 Y165.53
N2735 X438.495 Y166.258
N2740 X439.138 Y167.013
N2745 X439.751 Y167.792
N2750 X440.332 Y168.595
N2755 X440.881 Y169.421
N2760 X441.396 Y170.267
N2765 X441.878 Y171.134
N2770 X442.325 Y172.018
N2775 X442.737 Y172.92
N2780 X443.112 Y173.838
N2785 X443.451 Y174.769
N2790 X443.752 Y175.714
N2795 X444.016 Y176.669
N2800 X444.242 Y177.634
N2805 X444.43 Y178.608
N2810 X444.578 Y179.588
N2815 X444.688 Y180.573
N2820 X444.758 Y181.562
N2825 X444.79 Y182.553
N2830 X444.782 Y183.544
N2835 X444.734 Y184.534
N2840 X444.648 Y185.522
N2845 X444.522 Y186.505
N2850 X444.358 Y187.483
N2855 X444.155 Y188.453
N2860 X443.913 Y189.414
N2865 X443.634 Y190.365
N2870 X443.317 Y191.305
N2875 X442.963 Y192.231
N2880 X442.573 Y193.142
N2885 X442.147 Y194.037
N2890 X441.686 Y194.914
N2895 X441.19 Y195.773
N2900 X440.661 Y196.611
N2905 X440.099 Y197.428
N2910 X439.505 Y198.221
N2915 X438.88 Y198.991
N2920 X438.225 Y199.735
N2925 X437.541 Y200.452
N2930 X436.829 Y201.142
N2935 X436.09 Y201.803
N2940 X435.326 Y202.434
N2945 X434.537 Y203.035
N2950 X433.725 Y203.603
N2955 X432.891 Y204.139
N2960 X432.036 Y204.642
N2965 X431.163 Y205.11
N2970 X430.271 Y205.544
N2975 X429.363 Y205.941
N2980 X428.44 Y206.303
N2985 X427.503 Y206.627
N2990 X426.554 Y206.914
N2995 X425.595 Y207.163
N3000 X424.626 Y207.374
N3005 X423.65 Y207.547
N3010 X422.668 Y207.68
N3015 X421.681 Y207.775
N3020 X420.691 Y207.83
N3025 X419.7 Y207.846
N3030 X418.709 Y207.823
N3035 X417.72 Y207.76
N3040 X416.734 Y207.658
N3045 X415.753 Y207.518
N3050 X414.778 Y207.338
N3055 X413.811 Y207.12
N3060 X412.853 Y206.864
N3065 X364.238 Y291.068
N3070 X357.309 Y287.068
N3075 X339.81 Y317.379
N3080 X332.015 Y312.879
N3085 X322.015 Y330.2
N3090 X287.374 Y310.2
N3095 X297.374 Y292.879
N3100 X289.58 Y288.379
N3105 X307.08 Y258.068
N3110 X300.152 Y254.068
N3115 X329.146 Y203.849
N3120 Z45. F2000.
N3125 G00 X448.238 Y145.576
N3130 G01 Z0. F2000.
N3135 X445.242 Y143.846 F3000.
N3140 X445.496 Y142.694
N3145 X445.711 Y141.534
N3150 X445.887 Y140.368
N3155 X446.023 Y139.196
N3160 X446.12 Y138.02
N3165 X446.177 Y136.841
N3170 X446.195 Y135.662
N3175 X446.172 Y134.482
N3180 X446.11 Y133.304
N3185 X446.008 Y132.128
N3190 X445.867 Y130.957
N3195 X445.686 Y129.791
N3200 X445.466 Y128.632
N3205 X445.207 Y127.481
N3210 X444.91 Y126.339
N3215 X444.574 Y125.208
N3220 X444.2 Y124.089
N3225 X443.789 Y122.983
N3230 X443.34 Y121.892
N3235 X442.855 Y120.816
N3240 X442.334 Y119.757
N3245 X441.778 Y118.717
N3250 X441.187 Y117.696
N3255 X440.562 Y116.695
N3260 X439.904 Y115.716
N3265 X439.212 Y114.76
N3270 X438.489 Y113.827
N3275 X437.736 Y112.92
N3280 X436.951 Y112.038
N3285 X436.138 Y111.184
N3290 X435.296 Y110.357
N3295 X434.427 Y109.559
N3300 X433.532 Y108.791
N3305 X432.611 Y108.053
N3310 X431.666 Y107.347
N3315 X430.697 Y106.673
N3320 X429.706 Y106.032
N3325 X428.695 Y105.425
N3330 X427.663 Y104.853
N3335 X426.613 Y104.315
N3340 X425.545 Y103.813
N3345 X424.461 Y103.348
N3350 X423.362 Y102.919
N3355 X422.249 Y102.528
N3360 X421.123 Y102.174
N3365 X419.986 Y101.858
N3370 X418.839 Y101.581
N3375 X417.684 Y101.343
N3380 X416.521 Y101.144
N3385 X415.352 Y100.984
N3390 X414.178 Y100.864
N3395 X413.001 Y100.783
N3400 X411.822 Y100.742
N3405 X410.642 Y100.741
N3410 X409.463 Y100.779
N3415 X408.286 Y100.857
N3420 X407.112 Y100.975
N3425 X405.942 Y101.133
N3430 X404.779 Y101.329
N3435 X403.623 Y101.565
N3440 X402.476 Y101.84
N3445 X401.338 Y102.153
N3450 X400.212 Y102.504
N3455 X399.098 Y102.893
N3460 X397.998 Y103.32
N3465 X396.913 Y103.783
N3470 X395.844 Y104.282
N3475 X394.792 Y104.818
N3480 X393.759 Y105.388
N3485 X392.746 Y105.993
N3490 X391.754 Y106.632
N3495 X390.785 Y107.303
N3500 X389.838 Y108.008
N3505 X388.915 Y108.743
N3510 X388.018 Y109.509
N3515 X387.147 Y110.305
N3520 X384.152 Y108.576
N3525 Z45. F2000.
N3530 G00 Z55.

(2D CONTOUR3)
N3540 G00 X482.388 Y290.591
N3545 Z55.
N3550 Z45.
N3555 G01 Z41. F2000.
N3560 Z0.
N3565 X482.411 Y296.591
N3570 G03 X481.618 Y299.594 A119.789 R6.
N3575 X383.828 Y329.778 A205.904 R74.95 F3000.
N3580 X381.704 Y322.851 A300. R4.95
N3585 G01 X451.525 Y201.917
N3590 G03 X458.587 Y200.292 A34.091 R4.95
N3595 X481.618 Y299.594 A119.789 R74.95
N3600 X479.43 Y301.798 A149.789 R6. F2000.
N3605 G01 X474.245 Y304.817
N3610 G00 Z45.
N3615 X508.854 Y343.196
N3620 G01 Z41. F2000.
N3625 Z0.
N3630 X505.854 Y338.
N3635 G03 X505.05 Y335. A270. R6.
N3640 G01 Y35. F3000.
N3645 G02 X490. Y19.95 A180. R15.05
N3650 G01 X285.
N3655 G02 X269.95 Y35. A90. R15.05
N3660 G01 Y335.
N3665 G02 X285. Y350.05 A0. R15.05
N3670 G01 X490.
N3675 G02 X505.05 Y335. A270. R15.05
N3680 G03 X505.854 Y332. A300. R6. F2000.
N3685 G01 X508.854 Y326.804
N3690 G00 Z45.
N3695 X354.495 Y83.189
N3700 G01 Z41. F2000.
N3705 Z0.
N3710 Y89.189
N3715 G03 X353.691 Y92.189 A120. R6.
N3720 G01 X313.617 Y161.599 F3000.
N3725 G03 X295.05 Y156.624 A270. R9.95
N3730 G01 Y55.
N3735 G03 X305. Y45.05 A0. R9.95
N3740 G01 X363.673
N3745 G03 X372.29 Y59.975 A120.001 R9.95
N3750 G01 X353.691 Y92.189
N3755 G03 X351.495 Y94.385 A150. R6. F2000.
N3760 G01 X346.299 Y97.385
N3765 G00 Z55.

(TRACE4)
N3775 G00 X643.238 Y240.839
N3780 Z55.
N3785 Z45.
N3790 G01 Z0. F2000.
N3795 X636.309 Y236.839 F3000.
N3800 X618.809 Y267.15
N3805 X611.015 Y262.65
N3810 X601.015 Y279.97
N3815 X566.374 Y259.97
N3820 X576.374 Y242.65
N3825 X568.58 Y238.15
N3830 X586.08 Y207.839
N3835 X579.152 Y203.839
N3840 Z45. F2000.
N3845 G00 X579.146 Y203.849
N3850 G01 Z0. F2000.
N3855 X598.767 Y169.864 F3000.
N3860 X598.066 Y169.163
N3865 X597.394 Y168.434
N3870 X596.751 Y167.68
N3875 X596.139 Y166.9
N3880 X595.558 Y166.097
N3885 X595.009 Y165.272
N3890 X594.493 Y164.425
N3895 X594.011 Y163.559
N3900 X593.564 Y162.674
N3905 X593.153 Y161.772
N3910 X592.777 Y160.855
N3915 X592.439 Y159.923
N3920 X592.137 Y158.979
N3925 X591.873 Y158.023
N3930 X591.647 Y157.058
N3935 X591.46 Y156.085
N3940 X591.311 Y155.104
N3945 X591.201 Y154.119
N3950 X591.131 Y153.13
N3955 X591.1 Y152.14
N3960 X591.108 Y151.148
N3965 X591.155 Y150.158
N3970 X591.242 Y149.171
N3975 X591.367 Y148.187
N3980 X591.532 Y147.21
N3985 X591.735 Y146.24
N3990 X591.976 Y145.278
N3995 X592.256 Y144.327
N4000 X592.572 Y143.388
N4005 X592.926 Y142.462
N4010 X593.316 Y141.55
N4015 X593.743 Y140.655
N4020 X594.204 Y139.778
N4025 X594.699 Y138.919
N4030 X595.229 Y138.081
N4035 X595.791 Y137.265
N4040 X596.385 Y136.471
N4045 X597.01 Y135.702
N4050 X597.665 Y134.958
N4055 X598.349 Y134.24
N4060 X599.061 Y133.55
N4065 X599.8 Y132.889
N4070 X600.564 Y132.258
N4075 X601.353 Y131.658
N4080 X602.165 Y131.089
N4085 X602.998 Y130.553
N4090 X603.853 Y130.05
N4095 X604.727 Y129.582
N4100 X605.618 Y129.149
N4105 X606.526 Y128.751
N4110 X607.449 Y128.39
N4115 X608.386 Y128.065
N4120 X609.335 Y127.778
N4125 X610.294 Y127.529
N4130 X611.263 Y127.318
N4135 X612.239 Y127.146
N4140 X613.221 Y127.012
N4145 X614.208 Y126.918
N4150 X615.198 Y126.862
N4155 X616.189 Y126.846
N4160 X617.18 Y126.87
N4165 X618.17 Y126.932
N4170 X619.156 Y127.034
N4175 X620.137 Y127.175
N4180 X621.112 Y127.354
N4185 X622.079 Y127.572
N4190 X623.036 Y127.828
N4195 X669.152 Y47.954
N4200 X672.147 Y49.684
N4205 X673.018 Y48.888
N4210 X673.915 Y48.121
N4215 X674.838 Y47.386
N4220 X675.785 Y46.682
N4225 X676.754 Y46.01
N4230 X677.746 Y45.371
N4235 X678.759 Y44.766
N4240 X679.792 Y44.196
N4245 X680.844 Y43.661
N4250 X681.913 Y43.161
N4255 X682.998 Y42.698
N4260 X684.098 Y42.271
N4265 X685.212 Y41.882
N4270 X686.338 Y41.531
N4275 X687.476 Y41.218
N4280 X688.623 Y40.943
N4285 X689.779 Y40.708
N4290 X690.942 Y40.511
N4295 X692.112 Y40.353
N4300 X693.286 Y40.236
N4305 X694.463 Y40.157
N4310 X695.642 Y40.119
N4315 X696.822 Y40.12
N4320 X698.001 Y40.161
N4325 X699.178 Y40.242
N4330 X700.352 Y40.362
N4335 X701.521 Y40.522
N4340 X702.684 Y40.721
N4345 X703.839 Y40.959
N4350 X704.986 Y41.237
N4355 X706.123 Y41.552
N4360 X707.249 Y41.906
N4365 X708.362 Y42.297
N4370 X709.461 Y42.726
N4375 X710.545 Y43.192
N4380 X711.613 Y43.693
N4385 X712.663 Y44.231
N4390 X713.695 Y44.804
N4395 X714.706 Y45.411
N4400 X715.697 Y46.051
N4405 X716.666 Y46.725
N4410 X717.611 Y47.431
N4415 X718.532 Y48.169
N4420 X719.427 Y48.937
N4425 X720.296 Y49.735
N4430 X721.138 Y50.562
N4435 X721.951 Y51.417
N4440 X722.736 Y52.298
N4445 X723.489 Y53.206
N4450 X724.212 Y54.138
N4455 X724.904 Y55.094
N4460 X725.562 Y56.073
N4465 X726.187 Y57.074
N4470 X726.778 Y58.095
N4475 X727.334 Y59.136
N4480 X727.855 Y60.194
N4485 X728.34 Y61.27
N4490 X728.789 Y62.361
N4495 X729.2 Y63.467
N4500 X729.574 Y64.586
N4505 X729.91 Y65.717
N4510 X730.207 Y66.859
N4515 X730.466 Y68.01
N4520 X730.686 Y69.169
N4525 X730.867 Y70.335
N4530 X731.008 Y71.506
N4535 X731.11 Y72.682
N4540 X731.172 Y73.86
N4545 X731.195 Y75.04
N4550 X731.177 Y76.219
N4555 X731.12 Y77.398
N4560 X731.023 Y78.574
N4565 X730.887 Y79.746
N4570 X730.711 Y80.912
N4575 X730.496 Y82.073
N4580 X730.242 Y83.225
N4585 X733.238 Y84.954
N4590 X687.122 Y164.828
N4595 X687.823 Y165.53
N4600 X688.495 Y166.258
N4605 X689.138 Y167.013
N4610 X689.751 Y167.792
N4615 X690.332 Y168.595
N4620 X690.881 Y169.421
N4625 X691.396 Y170.267
N4630 X691.878 Y171.134
N4635 X692.325 Y172.018
N4640 X692.737 Y172.92
N4645 X693.112 Y173.838
N4650 X693.451 Y174.769
N4655 X693.752 Y175.714
N4660 X694.016 Y176.669
N4665 X694.242 Y177.634
N4670 X694.43 Y178.608
N4675 X694.578 Y179.588
N4680 X694.688 Y180.573
N4685 X694.758 Y181.562
N4690 X694.79 Y182.553
N4695 X694.782 Y183.544
N4700 X694.734 Y184.534
N4705 X694.648 Y185.522
N4710 X694.522 Y186.505
N4715 X694.358 Y187.483
N4720 X694.155 Y188.453
N4725 X693.913 Y189.414
N4730 X693.634 Y190.365
N4735 X693.317 Y191.305
N4740 X692.963 Y192.231
N4745 X692.573 Y193.142
N4750 X692.147 Y194.037
N4755 X691.686 Y194.914
N4760 X691.19 Y195.773
N4765 X690.661 Y196.611
N4770 X690.099 Y197.428
N4775 X689.505 Y198.221
N4780 X688.88 Y198.991
N4785 X688.225 Y199.735
N4790 X687.541 Y200.452
N4795 X686.829 Y201.142
N4800 X686.09 Y201.803
N4805 X685.326 Y202.434
N4810 X684.537 Y203.035
N4815 X683.725 Y203.603
N4820 X682.891 Y204.139
N4825 X682.036 Y204.642
N4830 X681.163 Y205.11
N4835 X680.271 Y205.544
N4840 X679.363 Y205.941
N4845 X678.44 Y206.303
N4850 X677.503 Y206.627
N4855 X676.554 Y206.914
N4860 X675.595 Y207.163
N4865 X674.626 Y207.374
N4870 X673.65 Y207.547
N4875 X672.668 Y207.68
N4880 X671.681 Y207.775
N4885 X670.691 Y207.83
N4890 X669.7 Y207.846
N4895 X668.709 Y207.823
N4900 X667.72 Y207.76
N4905 X666.734 Y207.658
N4910 X665.753 Y207.518
N4915 X664.778 Y207.338
N4920 X663.811 Y207.12
N4925 X662.853 Y206.864
N4930 X614.238 Y291.068
N4935 X607.309 Y287.068
N4940 X589.81 Y317.379
N4945 X582.015 Y312.879
N4950 X572.015 Y330.2
N4955 X537.374 Y310.2
N4960 X547.374 Y292.879
N4965 X539.58 Y288.379
N4970 X557.08 Y258.068
N4975 X550.152 Y254.068
N4980 X579.146 Y203.849
N4985 Z45. F2000.
N4990 G00 X698.238 Y145.576
N4995 G01 Z0. F2000.
N5000 X695.242 Y143.846 F3000.
N5005 X695.496 Y142.694
N5010 X695.711 Y141.534
N5015 X695.887 Y140.368
N5020 X696.023 Y139.196
N5025 X696.12 Y138.02
N5030 X696.177 Y136.841
N5035 X696.195 Y135.662
N5040 X696.172 Y134.482
N5045 X696.11 Y133.304
N5050 X696.008 Y132.128
N5055 X695.867 Y130.957
N5060 X695.686 Y129.791
N5065 X695.466 Y128.632
N5070 X695.207 Y127.481
N5075 X694.91 Y126.339
N5080 X694.574 Y125.208
N5085 X694.2 Y124.089
N5090 X693.789 Y122.983
N5095 X693.34 Y121.892
N5100 X692.855 Y120.816
N5105 X692.334 Y119.757
N5110 X691.778 Y118.717
N5115 X691.187 Y117.696
N5120 X690.562 Y116.695
N5125 X689.904 Y115.716
N5130 X689.212 Y114.76
N5135 X688.489 Y113.827
N5140 X687.736 Y112.92
N5145 X686.951 Y112.038
N5150 X686.138 Y111.184
N5155 X685.296 Y110.357
N5160 X684.427 Y109.559
N5165 X683.532 Y108.791
N5170 X682.611 Y108.053
N5175 X681.666 Y107.347
N5180 X680.697 Y106.673
N5185 X679.706 Y106.032
N5190 X678.695 Y105.425
N5195 X677.663 Y104.853
N5200 X676.613 Y104.315
N5205 X675.545 Y103.813
N5210 X674.461 Y103.348
N5215 X673.362 Y102.919
N5220 X672.249 Y102.528
N5225 X671.123 Y102.174
N5230 X669.986 Y101.858
N5235 X668.839 Y101.581
N5240 X667.684 Y101.343
N5245 X666.521 Y101.144
N5250 X665.352 Y100.984
N5255 X664.178 Y100.864
N5260 X663.001 Y100.783
N5265 X661.822 Y100.742
N5270 X660.642 Y100.741
N5275 X659.463 Y100.779
N5280 X658.286 Y100.857
N5285 X657.112 Y100.975
N5290 X655.942 Y101.133
N5295 X654.779 Y101.329
N5300 X653.623 Y101.565
N5305 X652.476 Y101.84
N5310 X651.338 Y102.153
N5315 X650.212 Y102.504
N5320 X649.098 Y102.893
N5325 X647.998 Y103.32
N5330 X646.913 Y103.783
N5335 X645.844 Y104.282
N5340 X644.792 Y104.818
N5345 X643.759 Y105.388
N5350 X642.746 Y105.993
N5355 X641.754 Y106.632
N5360 X640.785 Y107.303
N5365 X639.838 Y108.008
N5370 X638.915 Y108.743
N5375 X638.018 Y109.509
N5380 X637.147 Y110.305
N5385 X634.152 Y108.576
N5390 Z45. F2000.
N5395 G00 Z55.

(2D CONTOUR3)
N5405 G00 X732.388 Y290.591
N5410 Z55.
N5415 Z45.
N5420 G01 Z41. F2000.
N5425 Z0.
N5430 X732.411 Y296.591
N5435 G03 X731.618 Y299.594 A119.789 R6.
N5440 X633.828 Y329.778 A205.904 R74.95 F3000.
N5445 X631.704 Y322.851 A300. R4.95
N5450 G01 X701.525 Y201.917
N5455 G03 X708.587 Y200.292 A34.091 R4.95
N5460 X731.618 Y299.594 A119.789 R74.95
N5465 X729.43 Y301.798 A149.789 R6. F2000.
N5470 G01 X724.245 Y304.817
N5475 G00 Z45.
N5480 X758.854 Y343.196
N5485 G01 Z41. F2000.
N5490 Z0.
N5495 X755.854 Y338.
N5500 G03 X755.05 Y335. A270. R6.
N5505 G01 Y35. F3000.
N5510 G02 X740. Y19.95 A180. R15.05
N5515 G01 X535.
N5520 G02 X519.95 Y35. A90. R15.05
N5525 G01 Y335.
N5530 G02 X535. Y350.05 A0. R15.05
N5535 G01 X740.
N5540 G02 X755.05 Y335. A270. R15.05
N5545 G03 X755.854 Y332. A300. R6. F2000.
N5550 G01 X758.854 Y326.804
N5555 G00 Z45.
N5560 X604.495 Y83.189
N5565 G01 Z41. F2000.
N5570 Z0.
N5575 Y89.189
N5580 G03 X603.691 Y92.189 A120. R6.
N5585 G01 X563.617 Y161.599 F3000.
N5590 G03 X545.05 Y156.624 A270. R9.95
N5595 G01 Y55.
N5600 G03 X555. Y45.05 A0. R9.95
N5605 G01 X613.673
N5610 G03 X622.29 Y59.975 A120.001 R9.95
N5615 G01 X603.691 Y92.189
N5620 G03 X601.495 Y94.385 A150. R6. F2000.
N5625 G01 X596.299 Y97.385
N5630 G00 Z55.

(TRACE4)
N5640 G00 X893.238 Y240.839
N5645 Z55.
N5650 Z45.
N5655 G01 Z0. F2000.
N5660 X886.309 Y236.839 F3000.
N5665 X868.809 Y267.15
N5670 X861.015 Y262.65
N5675 X851.015 Y279.97
N5680 X816.374 Y259.97
N5685 X826.374 Y242.65
N5690 X818.58 Y238.15
N5695 X836.08 Y207.839
N5700 X829.152 Y203.839
N5705 Z45. F2000.
N5710 G00 X829.146 Y203.849
N5715 G01 Z0. F2000.
N5720 X848.767 Y169.864 F3000.
N5725 X848.066 Y169.163
N5730 X847.394 Y168.434
N5735 X846.751 Y167.68
N5740 X846.139 Y166.9
N5745 X845.558 Y166.097
N5750 X845.009 Y165.272
N5755 X844.493 Y164.425
N5760 X844.011 Y163.559
N5765 X843.564 Y162.674
N5770 X843.153 Y161.772
N5775 X842.777 Y160.855
N5780 X842.439 Y159.923
N5785 X842.137 Y158.979
N5790 X841.873 Y158.023
N5795 X841.647 Y157.058
N5800 X841.46 Y156.085
N5805 X841.311 Y155.104
N5810 X841.201 Y154.119
N5815 X841.131 Y153.13
N5820 X841.1 Y152.14
N5825 X841.108 Y151.148
N5830 X841.155 Y150.158
N5835 X841.242 Y149.171
N5840 X841.367 Y148.187
N5845 X841.532 Y147.21
N5850 X841.735 Y146.24
N5855 X841.976 Y145.278
N5860 X842.256 Y144.327
N5865 X842.572 Y143.388
N5870 X842.926 Y142.462
N5875 X843.316 Y141.55
N5880 X843.743 Y140.655
N5885 X844.204 Y139.778
N5890 X844.699 Y138.919
N5895 X845.229 Y138.081
N5900 X845.791 Y137.265
N5905 X846.385 Y136.471
N5910 X847.01 Y135.702
N5915 X847.665 Y134.958
N5920 X848.349 Y134.24
N5925 X849.061 Y133.55
N5930 X849.8 Y132.889
N5935 X850.564 Y132.258
N5940 X851.353 Y131.658
N5945 X852.165 Y131.089
N5950 X852.998 Y130.553
N5955 X853.853 Y130.05
N5960 X854.727 Y129.582
N5965 X855.618 Y129.149
N5970 X856.526 Y128.751
N5975 X857.449 Y128.39
N5980 X858.386 Y128.065
N5985 X859.335 Y127.778
N5990 X860.294 Y127.529
N5995 X861.263 Y127.318
N6000 X862.239 Y127.146
N6005 X863.221 Y127.012
N6010 X864.208 Y126.918
N6015 X865.198 Y126.862
N6020 X866.189 Y126.846
N6025 X867.18 Y126.87
N6030 X868.17 Y126.932
N6035 X869.156 Y127.034
N6040 X870.137 Y127.175
N6045 X871.112 Y127.354
N6050 X872.079 Y127.572
N6055 X873.036 Y127.828
N6060 X919.152 Y47.954
N6065 X922.147 Y49.684
N6070 X923.018 Y48.888
N6075 X923.915 Y48.121
N6080 X924.838 Y47.386
N6085 X925.785 Y46.682
N6090 X926.754 Y46.01
N6095 X927.746 Y45.371
N6100 X928.759 Y44.766
N6105 X929.792 Y44.196
N6110 X930.844 Y43.661
N6115 X931.913 Y43.161
N6120 X932.998 Y42.698
N6125 X934.098 Y42.271
N6130 X935.212 Y41.882
N6135 X936.338 Y41.531
N6140 X937.476 Y41.218
N6145 X938.623 Y40.943
N6150 X939.779 Y40.708
N6155 X940.942 Y40.511
N6160 X942.112 Y40.353
N6165 X943.286 Y40.236
N6170 X944.463 Y40.157
N6175 X945.642 Y40.119
N6180 X946.822 Y40.12
N6185 X948.001 Y40.161
N6190 X949.178 Y40.242
N6195 X950.352 Y40.362
N6200 X951.521 Y40.522
N6205 X952.684 Y40.721
N6210 X953.839 Y40.959
N6215 X954.986 Y41.237
N6220 X956.123 Y41.552
N6225 X957.249 Y41.906
N6230 X958.362 Y42.297
N6235 X959.461 Y42.726
N6240 X960.545 Y43.192
N6245 X961.613 Y43.693
N6250 X962.663 Y44.231
N6255 X963.695 Y44.804
N6260 X964.706 Y45.411
N6265 X965.697 Y46.051
N6270 X966.666 Y46.725
N6275 X967.611 Y47.431
N6280 X968.532 Y48.169
N6285 X969.427 Y48.937
N6290 X970.296 Y49.735
N6295 X971.138 Y50.562
N6300 X971.951 Y51.417
N6305 X972.736 Y52.298
N6310 X973.489 Y53.206
N6315 X974.212 Y54.138
N6320 X974.904 Y55.094
N6325 X975.562 Y56.073
N6330 X976.187 Y57.074
N6335 X976.778 Y58.095
N6340 X977.334 Y59.136
N6345 X977.855 Y60.194
N6350 X978.34 Y61.27
N6355 X978.789 Y62.361
N6360 X979.2 Y63.467
N6365 X979.574 Y64.586
N6370 X979.91 Y65.717
N6375 X980.207 Y66.859
N6380 X980.466 Y68.01
N6385 X980.686 Y69.169
N6390 X980.867 Y70.335
N6395 X981.008 Y71.506
N6400 X981.11 Y72.682
N6405 X981.172 Y73.86
N6410 X981.195 Y75.04
N6415 X981.177 Y76.219
N6420 X981.12 Y77.398
N6425 X981.023 Y78.574
N6430 X980.887 Y79.746
N6435 X980.711 Y80.912
N6440 X980.496 Y82.073
N6445 X980.242 Y83.225
N6450 X983.238 Y84.954
N6455 X937.122 Y164.828
N6460 X937.823 Y165.53
N6465 X938.495 Y166.258
N6470 X939.138 Y167.013
N6475 X939.751 Y167.792
N6480 X940.332 Y168.595
N6485 X940.881 Y169.421
N6490 X941.396 Y170.267
N6495 X941.878 Y171.134
N6500 X942.325 Y172.018
N6505 X942.737 Y172.92
N6510 X943.112 Y173.838
N6515 X943.451 Y174.769
N6520 X943.752 Y175.714
N6525 X944.016 Y176.669
N6530 X944.242 Y177.634
N6535 X944.43 Y178.608
N6540 X944.578 Y179.588
N6545 X944.688 Y180.573
N6550 X944.758 Y181.562
N6555 X944.79 Y182.553
N6560 X944.782 Y183.544
N6565 X944.734 Y184.534
N6570 X944.648 Y185.522
N6575 X944.522 Y186.505
N6580 X944.358 Y187.483
N6585 X944.155 Y188.453
N6590 X943.913 Y189.414
N6595 X943.634 Y190.365
N6600 X943.317 Y191.305
N6605 X942.963 Y192.231
N6610 X942.573 Y193.142
N6615 X942.147 Y194.037
N6620 X941.686 Y194.914
N6625 X941.19 Y195.773
N6630 X940.661 Y196.611
N6635 X940.099 Y197.428
N6640 X939.505 Y198.221
N6645 X938.88 Y198.991
N6650 X938.225 Y199.735
N6655 X937.541 Y200.452
N6660 X936.829 Y201.142
N6665 X936.09 Y201.803
N6670 X935.326 Y202.434
N6675 X934.537 Y203.035
N6680 X933.725 Y203.603
N6685 X932.891 Y204.139
N6690 X932.036 Y204.642
N6695 X931.163 Y205.11
N6700 X930.271 Y205.544
N6705 X929.363 Y205.941
N6710 X928.44 Y206.303
N6715 X927.503 Y206.627
N6720 X926.554 Y206.914
N6725 X925.595 Y207.163
N6730 X924.626 Y207.374
N6735 X923.65 Y207.547
N6740 X922.668 Y207.68
N6745 X921.681 Y207.775
N6750 X920.691 Y207.83
N6755 X919.7 Y207.846
N6760 X918.709 Y207.823
N6765 X917.72 Y207.76
N6770 X916.734 Y207.658
N6775 X915.753 Y207.518
N6780 X914.778 Y207.338
N6785 X913.811 Y207.12
N6790 X912.853 Y206.864
N6795 X864.238 Y291.068
N6800 X857.309 Y287.068
N6805 X839.81 Y317.379
N6810 X832.015 Y312.879
N6815 X822.015 Y330.2
N6820 X787.374 Y310.2
N6825 X797.374 Y292.879
N6830 X789.58 Y288.379
N6835 X807.08 Y258.068
N6840 X800.152 Y254.068
N6845 X829.146 Y203.849
N6850 Z45. F2000.
N6855 G00 X948.238 Y145.576
N6860 G01 Z0. F2000.
N6865 X945.242 Y143.846 F3000.
N6870 X945.496 Y142.694
N6875 X945.711 Y141.534
N6880 X945.887 Y140.368
N6885 X946.023 Y139.196
N6890 X946.12 Y138.02
N6895 X946.177 Y136.841
N6900 X946.195 Y135.662
N6905 X946.172 Y134.482
N6910 X946.11 Y133.304
N6915 X946.008 Y132.128
N6920 X945.867 Y130.957
N6925 X945.686 Y129.791
N6930 X945.466 Y128.632
N6935 X945.207 Y127.481
N6940 X944.91 Y126.339
N6945 X944.574 Y125.208
N6950 X944.2 Y124.089
N6955 X943.789 Y122.983
N6960 X943.34 Y121.892
N6965 X942.855 Y120.816
N6970 X942.334 Y119.757
N6975 X941.778 Y118.717
N6980 X941.187 Y117.696
N6985 X940.562 Y116.695
N6990 X939.904 Y115.716
N6995 X939.212 Y114.76
N7000 X938.489 Y113.827
N7005 X937.736 Y112.92
N7010 X936.951 Y112.038
N7015 X936.138 Y111.184
N7020 X935.296 Y110.357
N7025 X934.427 Y109.559
N7030 X933.532 Y108.791
N7035 X932.611 Y108.053
N7040 X931.666 Y107.347
N7045 X930.697 Y106.673
N7050 X929.706 Y106.032
N7055 X928.695 Y105.425
N7060 X927.663 Y104.853
N7065 X926.613 Y104.315
N7070 X925.545 Y103.813
N7075 X924.461 Y103.348
N7080 X923.362 Y102.919
N7085 X922.249 Y102.528
N7090 X921.123 Y102.174
N7095 X919.986 Y101.858
N7100 X918.839 Y101.581
N7105 X917.684 Y101.343
N7110 X916.521 Y101.144
N7115 X915.352 Y100.984
N7120 X914.178 Y100.864
N7125 X913.001 Y100.783
N7130 X911.822 Y100.742
N7135 X910.642 Y100.741
N7140 X909.463 Y100.779
N7145 X908.286 Y100.857
N7150 X907.112 Y100.975
N7155 X905.942 Y101.133
N7160 X904.779 Y101.329
N7165 X903.623 Y101.565
N7170 X902.476 Y101.84
N7175 X901.338 Y102.153
N7180 X900.212 Y102.504
N7185 X899.098 Y102.893
N7190 X897.998 Y103.32
N7195 X896.913 Y103.783
N7200 X895.844 Y104.282
N7205 X894.792 Y104.818
N7210 X893.759 Y105.388
N7215 X892.746 Y105.993
N7220 X891.754 Y106.632
N7225 X890.785 Y107.303
N7230 X889.838 Y108.008
N7235 X888.915 Y108.743
N7240 X888.018 Y109.509
N7245 X887.147 Y110.305
N7250 X884.152 Y108.576
N7255 Z45. F2000.
N7260 G00 Z55.

(2D CONTOUR3)
N7270 G00 X982.388 Y290.591
N7275 Z55.
N7280 Z45.
N7285 G01 Z41. F2000.
N7290 Z0.
N7295 X982.411 Y296.591
N7300 G03 X981.618 Y299.594 A119.789 R6.
N7305 X883.828 Y329.778 A205.904 R74.95 F3000.
N7310 X881.704 Y322.851 A300. R4.95
N7315 G01 X951.525 Y201.917
N7320 G03 X958.587 Y200.292 A34.091 R4.95
N7325 X981.618 Y299.594 A119.789 R74.95
N7330 X979.43 Y301.798 A149.789 R6. F2000.
N7335 G01 X974.245 Y304.817
N7340 G00 Z45.
N7345 X1008.854 Y343.196
N7350 G01 Z41. F2000.
N7355 Z0.
N7360 X1005.854 Y338.
N7365 G03 X1005.05 Y335. A270. R6.
N7370 G01 Y35. F3000.
N7375 G02 X990. Y19.95 A180. R15.05
N7380 G01 X785.
N7385 G02 X769.95 Y35. A90. R15.05
N7390 G01 Y335.
N7395 G02 X785. Y350.05 A0. R15.05
N7400 G01 X990.
N7405 G02 X1005.05 Y335. A270. R15.05
N7410 G03 X1005.854 Y332. A300. R6. F2000.
N7415 G01 X1008.854 Y326.804
N7420 G00 Z45.
N7425 X854.495 Y83.189
N7430 G01 Z41. F2000.
N7435 Z0.
N7440 Y89.189
N7445 G03 X853.691 Y92.189 A120. R6.
N7450 G01 X813.617 Y161.599 F3000.
N7455 G03 X795.05 Y156.624 A270. R9.95
N7460 G01 Y55.
N7465 G03 X805. Y45.05 A0. R9.95
N7470 G01 X863.673
N7475 G03 X872.29 Y59.975 A120.001 R9.95
N7480 G01 X853.691 Y92.189
N7485 G03 X851.495 Y94.385 A150. R6. F2000.
N7490 G01 X846.299 Y97.385
N7495 G00 Z55.

(TRACE4)
N7505 G00 X143.238 Y590.839
N7510 Z55.
N7515 Z45.
N7520 G01 Z0. F2000.
N7525 X136.309 Y586.839 F3000.
N7530 X118.809 Y617.15
N7535 X111.015 Y612.65
N7540 X101.015 Y629.97
N7545 X66.374 Y609.97
N7550 X76.374 Y592.65
N7555 X68.58 Y588.15
N7560 X86.08 Y557.839
N7565 X79.152 Y553.839
N7570 Z45. F2000.
N7575 G00 X79.146 Y553.849
N7580 G01 Z0. F2000.
N7585 X98.767 Y519.864 F3000.
N7590 X98.066 Y519.163
N7595 X97.394 Y518.434
N7600 X96.751 Y517.68
N7605 X96.139 Y516.9
N7610 X95.558 Y516.097
N7615 X95.009 Y515.272
N7620 X94.493 Y514.425
N7625 X94.011 Y513.559
N7630 X93.564 Y512.674
N7635 X93.153 Y511.772
N7640 X92.777 Y510.855
N7645 X92.439 Y509.923
N7650 X92.137 Y508.979
N7655 X91.873 Y508.023
N7660 X91.647 Y507.058
N7665 X91.46 Y506.085
N7670 X91.311 Y505.104
N7675 X91.201 Y504.119
N7680 X91.131 Y503.13
N7685 X91.1 Y502.14
N7690 X91.108 Y501.148
N7695 X91.155 Y500.158
N7700 X91.242 Y499.171
N7705 X91.367 Y498.187
N7710 X91.532 Y497.21
N7715 X91.735 Y496.24
N7720 X91.976 Y495.278
N7725 X92.256 Y494.327
N7730 X92.572 Y493.388
N7735 X92.926 Y492.462
N7740 X93.316 Y491.55
N7745 X93.743 Y490.655
N7750 X94.204 Y489.778
N7755 X94.699 Y488.919
N7760 X95.229 Y488.081
N7765 X95.791 Y487.265
N7770 X96.385 Y486.471
N7775 X97.01 Y485.702
N7780 X97.665 Y484.958
N7785 X98.349 Y484.24
N7790 X99.061 Y483.55
N7795 X99.8 Y482.889
N7800 X100.564 Y482.258
N7805 X101.353 Y481.658
N7810 X102.165 Y481.089
N7815 X102.998 Y480.553
N7820 X103.853 Y480.05
N7825 X104.727 Y479.582
N7830 X105.618 Y479.149
N7835 X106.526 Y478.751
N7840 X107.449 Y478.39
N7845 X108.386 Y478.065
N7850 X109.335 Y477.778
N7855 X110.294 Y477.529
N7860 X111.263 Y477.318
N7865 X112.239 Y477.146
N7870 X113.221 Y477.012
N7875 X114.208 Y476.918
N7880 X115.198 Y476.862
N7885 X116.189 Y476.846
N7890 X117.18 Y476.87
N7895 X118.17 Y476.932
N7900 X119.156 Y477.034
N7905 X120.137 Y477.175
N7910 X121.112 Y477.354
N7915 X122.079 Y477.572
N7920 X123.036 Y477.828
N7925 X169.152 Y397.954
N7930 X172.147 Y399.684
N7935 X173.018 Y398.888
N7940 X173.915 Y398.121
N7945 X174.838 Y397.386
N7950 X175.785 Y396.682
N7955 X176.754 Y396.01
N7960 X177.746 Y395.371
N7965 X178.759 Y394.766
N7970 X179.792 Y394.196
N7975 X180.844 Y393.661
N7980 X181.913 Y393.161
N7985 X182.998 Y392.698
N7990 X184.098 Y392.271
N7995 X185.212 Y391.882
N8000 X186.338 Y391.531
N8005 X187.476 Y391.218
N8010 X188.623 Y390.943
N8015 X189.779 Y390.708
N8020 X190.942 Y390.511
N8025 X192.112 Y390.353
N8030 X193.286 Y390.236
N8035 X194.463 Y390.157
N8040 X195.642 Y390.119
N8045 X196.822 Y390.12
N8050 X198.001 Y390.161
N8055 X199.178 Y390.242
N8060 X200.352 Y390.362
N8065 X201.521 Y390.522
N8070 X202.684 Y390.721
N8075 X203.839 Y390.959
N8080 X204.986 Y391.237
N8085 X206.123 Y391.552
N8090 X207.249 Y391.906
N8095 X208.362 Y392.297
N8100 X209.461 Y392.726
N8105 X210.545 Y393.192
N8110 X211.613 Y393.693
N8115 X212.663 Y394.231
N8120 X213.695 Y394.804
N8125 X214.706 Y395.411
N8130 X215.697 Y396.051
N8135 X216.666 Y396.725
N8140 X217.611 Y397.431
N8145 X218.532 Y398.169
N8150 X219.427 Y398.937
N8155 X220.296 Y399.735
N8160 X221.138 Y400.562
N8165 X221.951 Y401.417
N8170 X222.736 Y402.298
N8175 X223.489 Y403.206
N8180 X224.212 Y404.138
N8185 X224.904 Y405.094
N8190 X225.562 Y406.073
N8195 X226.187 Y407.074
N8200 X226.778 Y408.095
N8205 X227.334 Y409.136
N8210 X227.855 Y410.194
N8215 X228.34 Y411.27
N8220 X228.789 Y412.361
N8225 X229.2 Y413.467
N8230 X229.574 Y414.586
N8235 X229.91 Y415.717
N8240 X230.207 Y416.859
N8245 X230.466 Y418.01
N8250 X230.686 Y419.169
N8255 X230.867 Y420.335
N8260 X231.008 Y421.506
N8265 X231.11 Y422.682
N8270 X231.172 Y423.86
N8275 X231.195 Y425.04
N8280 X231.177 Y426.219
N8285 X231.12 Y427.398
N8290 X231.023 Y428.574
N8295 X230.887 Y429.746
N8300 X230.711 Y430.912
N8305 X230.496 Y432.073
N8310 X230.242 Y433.225
N8315 X233.238 Y434.954
N8320 X187.122 Y514.828
N8325 X187.823 Y515.53
N8330 X188.495 Y516.258
N8335 X189.138 Y517.013
N8340 X189.751 Y517.792
N8345 X190.332 Y518.595
N8350 X190.881 Y519.421
N8355 X191.396 Y520.267
N8360 X191.878 Y521.134
N8365 X192.325 Y522.018
N8370 X192.737 Y522.92
N8375 X193.112 Y523.838
N8380 X193.451 Y524.769
N8385 X193.752 Y525.714
N8390 X194.016 Y526.669
N8395 X194.242 Y527.634
N8400 X194.43 Y528.608
N8405 X194.578 Y529.588
N8410 X194.688 Y530.573
N8415 X194.758 Y531.562
N8420 X194.79 Y532.553
N8425 X194.782 Y533.544
N8430 X194.734 Y534.534
N8435 X194.648 Y535.522
N8440 X194.522 Y536.505
N8445 X194.358 Y537.483
N8450 X194.155 Y538.453
N8455 X193.913 Y539.414
N8460 X193.634 Y540.365
N8465 X193.317 Y541.305
N8470 X192.963 Y542.231
N8475 X192.573 Y543.142
N8480 X192.147 Y544.037
N8485 X191.686 Y544.914
N8490 X191.19 Y545.773
N8495 X190.661 Y546.611
N8500 X190.099 Y547.428
N8505 X189.505 Y548.221
N8510 X188.88 Y548.991
N8515 X188.225 Y549.735
N8520 X187.541 Y550.452
N8525 X186.829 Y551.142
N8530 X186.09 Y551.803
N8535 X185.326 Y552.434
N8540 X184.537 Y553.035
N8545 X183.725 Y553.603
N8550 X182.891 Y554.139
N8555 X182.036 Y554.642
N8560 X181.163 Y555.11
N8565 X180.271 Y555.544
N8570 X179.363 Y555.941
N8575 X178.44 Y556.303
N8580 X177.503 Y556.627
N8585 X176.554 Y556.914
N8590 X175.595 Y557.163
N8595 X174.626 Y557.374
N8600 X173.65 Y557.547
N8605 X172.668 Y557.68
N8610 X171.681 Y557.775
N8615 X170.691 Y557.83
N8620 X169.7 Y557.846
N8625 X168.709 Y557.823
N8630 X167.72 Y557.76
N8635 X166.734 Y557.658
N8640 X165.753 Y557.518
N8645 X164.778 Y557.338
N8650 X163.811 Y557.12
N8655 X162.853 Y556.864
N8660 X114.238 Y641.068
N8665 X107.309 Y637.068
N8670 X89.81 Y667.379
N8675 X82.015 Y662.879
N8680 X72.015 Y680.2
N8685 X37.374 Y660.2
N8690 X47.374 Y642.879
N8695 X39.58 Y638.379
N8700 X57.08 Y608.068
N8705 X50.152 Y604.068
N8710 X79.146 Y553.849
N8715 Z45. F2000.
N8720 G00 X198.238 Y495.576
N8725 G01 Z0. F2000.
N8730 X195.242 Y493.846 F3000.
N8735 X195.496 Y492.694
N8740 X195.711 Y491.534
N8745 X195.887 Y490.368
N8750 X196.023 Y489.196
N8755 X196.12 Y488.02
N8760 X196.177 Y486.841
N8765 X196.195 Y485.662
N8770 X196.172 Y484.482
N8775 X196.11 Y483.304
N8780 X196.008 Y482.128
N8785 X195.867 Y480.957
N8790 X195.686 Y479.791
N8795 X195.466 Y478.632
N8800 X195.207 Y477.481
N8805 X194.91 Y476.339
N8810 X194.574 Y475.208
N8815 X194.2 Y474.089
N8820 X193.789 Y472.983
N8825 X193.34 Y471.892
N8830 X192.855 Y470.816
N8835 X192.334 Y469.757
N8840 X191.778 Y468.717
N8845 X191.187 Y467.696
N8850 X190.562 Y466.695
N8855 X189.904 Y465.716
N8860 X189.212 Y464.76
N8865 X188.489 Y463.827
N8870 X187.736 Y462.92
N8875 X186.951 Y462.038
N8880 X186.138 Y461.184
N8885 X185.296 Y460.357
N8890 X184.427 Y459.559
N8895 X183.532 Y458.791
N8900 X182.611 Y458.053
N8905 X181.666 Y457.347
N8910 X180.697 Y456.673
N8915 X179.706 Y456.032
N8920 X178.695 Y455.425
N8925 X177.663 Y454.853
N8930 X176.613 Y454.315
N8935 X175.545 Y453.813
N8940 X174.461 Y453.348
N8945 X173.362 Y452.919
N8950 X172.249 Y452.528
N8955 X171.123 Y452.174
N8960 X169.986 Y451.858
N8965 X168.839 Y451.581
N8970 X167.684 Y451.343
N8975 X166.521 Y451.144
N8980 X165.352 Y450.984
N8985 X164.178 Y450.864
N8990 X163.001 Y450.783
N8995 X161.822 Y450.742
N9000 X160.642 Y450.741
N9005 X159.463 Y450.779
N9010 X158.286 Y450.857
N9015 X157.112 Y450.975
N9020 X155.942 Y451.133
N9025 X154.779 Y451.329
N9030 X153.623 Y451.565
N9035 X152.476 Y451.84
N9040 X151.338 Y452.153
N9045 X150.212 Y452.504
N9050 X149.098 Y452.893
N9055 X147.998 Y453.32
N9060 X146.913 Y453.783
N9065 X145.844 Y454.282
N9070 X144.792 Y454.818
N9075 X143.759 Y455.388
N9080 X142.746 Y455.993
N9085 X141.754 Y456.632
N9090 X140.785 Y457.303
N9095 X139.838 Y458.008
N9100 X138.915 Y458.743
N9105 X138.018 Y459.509
N9110 X137.147 Y460.305
N9115 X134.152 Y458.576
N9120 Z45. F2000.
N9125 G00 Z55.

(2D CONTOUR3)
N9135 G00 X232.388 Y640.591
N9140 Z55.
N9145 Z45.
N9150 G01 Z41. F2000.
N9155 Z0.
N9160 X232.411 Y646.591
N9165 G03 X231.618 Y649.594 A119.789 R6.
N9170 X133.828 Y679.778 A205.904 R74.95 F3000.
N9175 X131.704 Y672.851 A300. R4.95
N9180 G01 X201.525 Y551.917
N9185 G03 X208.587 Y550.292 A34.091 R4.95
N9190 X231.618 Y649.594 A119.789 R74.95
N9195 X229.43 Y651.798 A149.789 R6. F2000.
N9200 G01 X224.245 Y654.817
N9205 G00 Z45.
N9210 X258.854 Y693.196
N9215 G01 Z41. F2000.
N9220 Z0.
N9225 X255.854 Y688.
N9230 G03 X255.05 Y685. A270. R6.
N9235 G01 Y385. F3000.
N9240 G02 X240. Y369.95 A180. R15.05
N9245 G01 X35.
N9250 G02 X19.95 Y385. A90. R15.05
N9255 G01 Y685.
N9260 G02 X35. Y700.05 A0. R15.05
N9265 G01 X240.
N9270 G02 X255.05 Y685. A270. R15.05
N9275 G03 X255.854 Y682. A300. R6. F2000.
N9280 G01 X258.854 Y676.804
N9285 G00 Z45.
N9290 X104.495 Y433.189
N9295 G01 Z41. F2000.
N9300 Z0.
N9305 Y439.189
N9310 G03 X103.691 Y442.189 A120. R6.
N9315 G01 X63.617 Y511.599 F3000.
N9320 G03 X45.05 Y506.624 A270. R9.95
N9325 G01 Y405.
N9330 G03 X55. Y395.05 A0. R9.95
N9335 G01 X113.673
N9340 G03 X122.29 Y409.975 A120.001 R9.95
N9345 G01 X103.691 Y442.189
N9350 G03 X101.495 Y444.385 A150. R6. F2000.
N9355 G01 X96.299 Y447.385
N9360 G00 Z55.

(TRACE4)
N9370 G00 X393.238 Y590.839
N9375 Z55.
N9380 Z45.
N9385 G01 Z0. F2000.
N9390 X386.309 Y586.839 F3000.
N9395 X368.809 Y617.15
N9400 X361.015 Y612.65
N9405 X351.015 Y629.97
N9410 X316.374 Y609.97
N9415 X326.374 Y592.65
N9420 X318.58 Y588.15
N9425 X336.08 Y557.839
N9430 X329.152 Y553.839
N9435 Z45. F2000.
N9440 G00 X329.146 Y553.849
N9445 G01 Z0. F2000.
N9450 X348.767 Y519.864 F3000.
N9455 X348.066 Y519.163
N9460 X347.394 Y518.434
N9465 X346.751 Y517.68
N9470 X346.139 Y516.9
N9475 X345.558 Y516.097
N9480 X345.009 Y515.272
N9485 X344.493 Y514.425
N9490 X344.011 Y513.559
N9495 X343.564 Y512.674
N9500 X343.153 Y511.772
N9505 X342.777 Y510.855
N9510 X342.439 Y509.923
N9515 X342.137 Y508.979
N9520 X341.873 Y508.023
N9525 X341.647 Y507.058
N9530 X341.46 Y506.085
N9535 X341.311 Y505.104
N9540 X341.201 Y504.119
N9545 X341.131 Y503.13
N9550 X341.1 Y502.14
N9555 X341.108 Y501.148
N9560 X341.155 Y500.158
N9565 X341.242 Y499.171
N9570 X341.367 Y498.187
N9575 X341.532 Y497.21
N9580 X341.735 Y496.24
N9585 X341.976 Y495.278
N9590 X342.256 Y494.327
N9595 X342.572 Y493.388
N9600 X342.926 Y492.462
N9605 X343.316 Y491.55
N9610 X343.743 Y490.655
N9615 X344.204 Y489.778
N9620 X344.699 Y488.919
N9625 X345.229 Y488.081
N9630 X345.791 Y487.265
N9635 X346.385 Y486.471
N9640 X347.01 Y485.702
N9645 X347.665 Y484.958
N9650 X348.349 Y484.24
N9655 X349.061 Y483.55
N9660 X349.8 Y482.889
N9665 X350.564 Y482.258
N9670 X351.353 Y481.658
N9675 X352.165 Y481.089
N9680 X352.998 Y480.553
N9685 X353.853 Y480.05
N9690 X354.727 Y479.582
N9695 X355.618 Y479.149
N9700 X356.526 Y478.751
N9705 X357.449 Y478.39
N9710 X358.386 Y478.065
N9715 X359.335 Y477.778
N9720 X360.294 Y477.529
N9725 X361.263 Y477.318
N9730 X362.239 Y477.146
N9735 X363.221 Y477.012
N9740 X364.208 Y476.918
N9745 X365.198 Y476.862
N9750 X366.189 Y476.846
N9755 X367.18 Y476.87
N9760 X368.17 Y476.932
N9765 X369.156 Y477.034
N9770 X370.137 Y477.175
N9775 X371.112 Y477.354
N9780 X372.079 Y477.572
N9785 X373.036 Y477.828
N9790 X419.152 Y397.954
N9795 X422.147 Y399.684
N9800 X423.018 Y398.888
N9805 X423.915 Y398.121
N9810 X424.838 Y397.386
N9815 X425.785 Y396.682
N9820 X426.754 Y396.01
N9825 X427.746 Y395.371
N9830 X428.759 Y394.766
N9835 X429.792 Y394.196
N9840 X430.844 Y393.661
N9845 X431.913 Y393.161
N9850 X432.998 Y392.698
N9855 X434.098 Y392.271
N9860 X435.212 Y391.882
N9865 X436.338 Y391.531
N9870 X437.476 Y391.218
N9875 X438.623 Y390.943
N9880 X439.779 Y390.708
N9885 X440.942 Y390.511
N9890 X442.112 Y390.353
N9895 X443.286 Y390.236
N9900 X444.463 Y390.157
N9905 X445.642 Y390.119
N9910 X446.822 Y390.12
N9915 X448.001 Y390.161
N9920 X449.178 Y390.242
N9925 X450.352 Y390.362
N9930 X451.521 Y390.522
N9935 X452.684 Y390.721
N9940 X453.839 Y390.959
N9945 X454.986 Y391.237
N9950 X456.123 Y391.552
N9955 X457.249 Y391.906
N9960 X458.362 Y392.297
N9965 X459.461 Y392.726
N9970 X460.545 Y393.192
N9975 X461.613 Y393.693
N9980 X462.663 Y394.231
N9985 X463.695 Y394.804
N9990 X464.706 Y395.411
N9995 X465.697 Y396.051
N10000 X466.666 Y396.725
N10005 X467.611 Y397.431
N10010 X468.532 Y398.169
N10015 X469.427 Y398.937
N10020 X470.296 Y399.735
N10025 X471.138 Y400.562
N10030 X471.951 Y401.417
N10035 X472.736 Y402.298
N10040 X473.489 Y403.206
N10045 X474.212 Y404.138
N10050 X474.904 Y405.094
N10055 X475.562 Y406.073
N10060 X476.187 Y407.074
N10065 X476.778 Y408.095
N10070 X477.334 Y409.136
N10075 X477.855 Y410.194
N10080 X478.34 Y411.27
N10085 X478.789 Y412.361
N10090 X479.2 Y413.467
N10095 X479.574 Y414.586
N10100 X479.91 Y415.717
N10105 X480.207 Y416.859
N10110 X480.466 Y418.01
N10115 X480.686 Y419.169
N10120 X480.867 Y420.335
N10125 X481.008 Y421.506
N10130 X481.11 Y422.682
N10135 X481.172 Y423.86
N10140 X481.195 Y425.04
N10145 X481.177 Y426.219
N10150 X481.12 Y427.398
N10155 X481.023 Y428.574
N10160 X480.887 Y429.746
N10165 X480.711 Y430.912
N10170 X480.496 Y432.073
N10175 X480.242 Y433.225
N10180 X483.238 Y434.954
N10185 X437.122 Y514.828
N10190 X437.823 Y515.53
N10195 X438.495 Y516.258
N10200 X439.138 Y517.013
N10205 X439.751 Y517.792
N10210 X440.332 Y518.595
N10215 X440.881 Y519.421
N10220 X441.396 Y520.267
N10225 X441.878 Y521.134
N10230 X442.325 Y522.018
N10235 X442.737 Y522.92
N10240 X443.112 Y523.838
N10245 X443.451 Y524.769
N10250 X443.752 Y525.714
N10255 X444.016 Y526.669
N10260 X444.242 Y527.634
N10265 X444.43 Y528.608
N10270 X444.578 Y529.588
N10275 X444.688 Y530.573
N10280 X444.758 Y531.562
N10285 X444.79 Y532.553
N10290 X444.782 Y533.544
N10295 X444.734 Y534.534
N10300 X444.648 Y535.522
N10305 X444.522 Y536.505
N10310 X444.358 Y537.483
N10315 X444.155 Y538.453
N10320 X443.913 Y539.414
N10325 X443.634 Y540.365
N10330 X443.317 Y541.305
N10335 X442.963 Y542.231
N10340 X442.573 Y543.142
N10345 X442.147 Y544.037
N10350 X441.686 Y544.914
N10355 X441.19 Y545.773
N10360 X440.661 Y546.611
N10365 X440.099 Y547.428
N10370 X439.505 Y548.221
N10375 X438.88 Y548.991
N10380 X438.225 Y549.735
N10385 X437.541 Y550.452
N10390 X436.829 Y551.142
N10395 X436.09 Y551.803
N10400 X435.326 Y552.434
N10405 X434.537 Y553.035
N10410 X433.725 Y553.603
N10415 X432.891 Y554.139
N10420 X432.036 Y554.642
N10425 X431.163 Y555.11
N10430 X430.271 Y555.544
N10435 X429.363 Y555.941
N10440 X428.44 Y556.303
N10445 X427.503 Y556.627
N10450 X426.554 Y556.914
N10455 X425.595 Y557.163
N10460 X424.626 Y557.374
N10465 X423.65 Y557.547
N10470 X422.668 Y557.68
N10475 X421.681 Y557.775
N10480 X420.691 Y557.83
N10485 X419.7 Y557.846
N10490 X418.709 Y557.823
N10495 X417.72 Y557.76
N10500 X416.734 Y557.658
N10505 X415.753 Y557.518
N10510 X414.778 Y557.338
N10515 X413.811 Y557.12
N10520 X412.853 Y556.864
N10525 X364.238 Y641.068
N10530 X357.309 Y637.068
N10535 X339.81 Y667.379
N10540 X332.015 Y662.879
N10545 X322.015 Y680.2
N10550 X287.374 Y660.2
N10555 X297.374 Y642.879
N10560 X289.58 Y638.379
N10565 X307.08 Y608.068
N10570 X300.152 Y604.068
N10575 X329.146 Y553.849
N10580 Z45. F2000.
N10585 G00 X448.238 Y495.576
N10590 G01 Z0. F2000.
N10595 X445.242 Y493.846 F3000.
N10600 X445.496 Y492.694
N10605 X445.711 Y491.534
N10610 X445.887 Y490.368
N10615 X446.023 Y489.196
N10620 X446.12 Y488.02
N10625 X446.177 Y486.841
N10630 X446.195 Y485.662
N10635 X446.172 Y484.482
N10640 X446.11 Y483.304
N10645 X446.008 Y482.128
N10650 X445.867 Y480.957
N10655 X445.686 Y479.791
N10660 X445.466 Y478.632
N10665 X445.207 Y477.481
N10670 X444.91 Y476.339
N10675 X444.574 Y475.208
N10680 X444.2 Y474.089
N10685 X443.789 Y472.983
N10690 X443.34 Y471.892
N10695 X442.855 Y470.816
N10700 X442.334 Y469.757
N10705 X441.778 Y468.717
N10710 X441.187 Y467.696
N10715 X440.562 Y466.695
N10720 X439.904 Y465.716
N10725 X439.212 Y464.76
N10730 X438.489 Y463.827
N10735 X437.736 Y462.92
N10740 X436.951 Y462.038
N10745 X436.138 Y461.184
N10750 X435.296 Y460.357
N10755 X434.427 Y459.559
N10760 X433.532 Y458.791
N10765 X432.611 Y458.053
N10770 X431.666 Y457.347
N10775 X430.697 Y456.673
N10780 X429.706 Y456.032
N10785 X428.695 Y455.425
N10790 X427.663 Y454.853
N10795 X426.613 Y454.315
N10800 X425.545 Y453.813
N10805 X424.461 Y453.348
N10810 X423.362 Y452.919
N10815 X422.249 Y452.528
N10820 X421.123 Y452.174
N10825 X419.986 Y451.858
N10830 X418.839 Y451.581
N10835 X417.684 Y451.343
N10840 X416.521 Y451.144
N10845 X415.352 Y450.984
N10850 X414.178 Y450.864
N10855 X413.001 Y450.783
N10860 X411.822 Y450.742
N10865 X410.642 Y450.741
N10870 X409.463 Y450.779
N10875 X408.286 Y450.857
N10880 X407.112 Y450.975
N10885 X405.942 Y451.133
N10890 X404.779 Y451.329
N10895 X403.623 Y451.565
N10900 X402.476 Y451.84
N10905 X401.338 Y452.153
N10910 X400.212 Y452.504
N10915 X399.098 Y452.893
N10920 X397.998 Y453.32
N10925 X396.913 Y453.783
N10930 X395.844 Y454.282
N10935 X394.792 Y454.818
N10940 X393.759 Y455.388
N10945 X392.746 Y455.993
N10950 X391.754 Y456.632
N10955 X390.785 Y457.303
N10960 X389.838 Y458.008
N10965 X388.915 Y458.743
N10970 X388.018 Y459.509
N10975 X387.147 Y460.305
N10980 X384.152 Y458.576
N10985 Z45. F2000.
N10990 G00 Z55.

(2D CONTOUR3)
N11000 G00 X482.388 Y640.591
N11005 Z55.
N11010 Z45.
N11015 G01 Z41. F2000.
N11020 Z0.
N11025 X482.411 Y646.591
N11030 G03 X481.618 Y649.594 A119.789 R6.
N11035 X383.828 Y679.778 A205.904 R74.95 F3000.
N11040 X381.704 Y672.851 A300. R4.95
N11045 G01 X451.525 Y551.917
N11050 G03 X458.587 Y550.292 A34.091 R4.95
N11055 X481.618 Y649.594 A119.789 R74.95
N11060 X479.43 Y651.798 A149.789 R6. F2000.
N11065 G01 X474.245 Y654.817
N11070 G00 Z45.
N11075 X508.854 Y693.196
N11080 G01 Z41. F2000.
N11085 Z0.
N11090 X505.854 Y688.
N11095 G03 X505.05 Y685. A270. R6.
N11100 G01 Y385. F3000.
N11105 G02 X490. Y369.95 A180. R15.05
N11110 G01 X285.
N11115 G02 X269.95 Y385. A90. R15.05
N11120 G01 Y685.
N11125 G02 X285. Y700.05 A0. R15.05
N11130 G01 X490.
N11135 G02 X505.05 Y685. A270. R15.05
N11140 G03 X505.854 Y682. A300. R6. F2000.
N11145 G01 X508.854 Y676.804
N11150 G00 Z45.
N11155 X354.495 Y433.189
N11160 G01 Z41. F2000.
N11165 Z0.
N11170 Y439.189
N11175 G03 X353.691 Y442.189 A120. R6.
N11180 G01 X313.617 Y511.599 F3000.
N11185 G03 X295.05 Y506.624 A270. R9.95
N11190 G01 Y405.
N11195 G03 X305. Y395.05 A0. R9.95
N11200 G01 X363.673
N11205 G03 X372.29 Y409.975 A120.001 R9.95
N11210 G01 X353.691 Y442.189
N11215 G03 X351.495 Y444.385 A150. R6. F2000.
N11220 G01 X346.299 Y447.385
N11225 G00 Z55.

(TRACE4)
N11235 G00 X643.238 Y590.839
N11240 Z55.
N11245 Z45.
N11250 G01 Z0. F2000.
N11255 X636.309 Y586.839 F3000.
N11260 X618.809 Y617.15
N11265 X611.015 Y612.65
N11270 X601.015 Y629.97
N11275 X566.374 Y609.97
N11280 X576.374 Y592.65
N11285 X568.58 Y588.15
N11290 X586.08 Y557.839
N11295 X579.152 Y553.839
N11300 Z45. F2000.
N11305 G00 X579.146 Y553.849
N11310 G01 Z0. F2000.
N11315 X598.767 Y519.864 F3000.
N11320 X598.066 Y519.163
N11325 X597.394 Y518.434
N11330 X596.751 Y517.68
N11335 X596.139 Y516.9
N11340 X595.558 Y516.097
N11345 X595.009 Y515.272
N11350 X594.493 Y514.425
N11355 X594.011 Y513.559
N11360 X593.564 Y512.674
N11365 X593.153 Y511.772
N11370 X592.777 Y510.855
N11375 X592.439 Y509.923
N11380 X592.137 Y508.979
N11385 X591.873 Y508.023
N11390 X591.647 Y507.058
N11395 X591.46 Y506.085
N11400 X591.311 Y505.104
N11405 X591.201 Y504.119
N11410 X591.131 Y503.13
N11415 X591.1 Y502.14
N11420 X591.108 Y501.148
N11425 X591.155 Y500.158
N11430 X591.242 Y499.171
N11435 X591.367 Y498.187
N11440 X591.532 Y497.21
N11445 X591.735 Y496.24
N11450 X591.976 Y495.278
N11455 X592.256 Y494.327
N11460 X592.572 Y493.388
N11465 X592.926 Y492.462
N11470 X593.316 Y491.55
N11475 X593.743 Y490.655
N11480 X594.204 Y489.778
N11485 X594.699 Y488.919
N11490 X595.229 Y488.081
N11495 X595.791 Y487.265
N11500 X596.385 Y486.471
N11505 X597.01 Y485.702
N11510 X597.665 Y484.958
N11515 X598.349 Y484.24
N11520 X599.061 Y483.55
N11525 X599.8 Y482.889
N11530 X600.564 Y482.258
N11535 X601.353 Y481.658
N11540 X602.165 Y481.089
N11545 X602.998 Y480.553
N11550 X603.853 Y480.05
N11555 X604.727 Y479.582
N11560 X605.618 Y479.149
N11565 X606.526 Y478.751
N11570 X607.449 Y478.39
N11575 X608.386 Y478.065
N11580 X609.335 Y477.778
N11585 X610.294 Y477.529
N11590 X611.263 Y477.318
N11595 X612.239 Y477.146
N11600 X613.221 Y477.012
N11605 X614.208 Y476.918
N11610 X615.198 Y476.862
N11615 X616.189 Y476.846
N11620 X617.18 Y476.87
N11625 X618.17 Y476.932
N11630 X619.156 Y477.034
N11635 X620.137 Y477.175
N11640 X621.112 Y477.354
N11645 X622.079 Y477.572
N11650 X623.036 Y477.828
N11655 X669.152 Y397.954
N11660 X672.147 Y399.684
N11665 X673.018 Y398.888
N11670 X673.915 Y398.121
N11675 X674.838 Y397.386
N11680 X675.785 Y396.682
N11685 X676.754 Y396.01
N11690 X677.746 Y395.371
N11695 X678.759 Y394.766
N11700 X679.792 Y394.196
N11705 X680.844 Y393.661
N11710 X681.913 Y393.161
N11715 X682.998 Y392.698
N11720 X684.098 Y392.271
N11725 X685.212 Y391.882
N11730 X686.338 Y391.531
N11735 X687.476 Y391.218
N11740 X688.623 Y390.943
N11745 X689.779 Y390.708
N11750 X690.942 Y390.511
N11755 X692.112 Y390.353
N11760 X693.286 Y390.236
N11765 X694.463 Y390.157
N11770 X695.642 Y390.119
N11775 X696.822 Y390.12
N11780 X698.001 Y390.161
N11785 X699.178 Y390.242
N11790 X700.352 Y390.362
N11795 X701.521 Y390.522
N11800 X702.684 Y390.721
N11805 X703.839 Y390.959
N11810 X704.986 Y391.237
N11815 X706.123 Y391.552
N11820 X707.249 Y391.906
N11825 X708.362 Y392.297
N11830 X709.461 Y392.726
N11835 X710.545 Y393.192
N11840 X711.613 Y393.693
N11845 X712.663 Y394.231
N11850 X713.695 Y394.804
N11855 X714.706 Y395.411
N11860 X715.697 Y396.051
N11865 X716.666 Y396.725
N11870 X717.611 Y397.431
N11875 X718.532 Y398.169
N11880 X719.427 Y398.937
N11885 X720.296 Y399.735
N11890 X721.138 Y400.562
N11895 X721.951 Y401.417
N11900 X722.736 Y402.298
N11905 X723.489 Y403.206
N11910 X724.212 Y404.138
N11915 X724.904 Y405.094
N11920 X725.562 Y406.073
N11925 X726.187 Y407.074
N11930 X726.778 Y408.095
N11935 X727.334 Y409.136
N11940 X727.855 Y410.194
N11945 X728.34 Y411.27
N11950 X728.789 Y412.361
N11955 X729.2 Y413.467
N11960 X729.574 Y414.586
N11965 X729.91 Y415.717
N11970 X730.207 Y416.859
N11975 X730.466 Y418.01
N11980 X730.686 Y419.169
N11985 X730.867 Y420.335
N11990 X731.008 Y421.506
N11995 X731.11 Y422.682
N12000 X731.172 Y423.86
N12005 X731.195 Y425.04
N12010 X731.177 Y426.219
N12015 X731.12 Y427.398
N12020 X731.023 Y428.574
N12025 X730.887 Y429.746
N12030 X730.711 Y430.912
N12035 X730.496 Y432.073
N12040 X730.242 Y433.225
N12045 X733.238 Y434.954
N12050 X687.122 Y514.828
N12055 X687.823 Y515.53
N12060 X688.495 Y516.258
N12065 X689.138 Y517.013
N12070 X689.751 Y517.792
N12075 X690.332 Y518.595
N12080 X690.881 Y519.421
N12085 X691.396 Y520.267
N12090 X691.878 Y521.134
N12095 X692.325 Y522.018
N12100 X692.737 Y522.92
N12105 X693.112 Y523.838
N12110 X693.451 Y524.769
N12115 X693.752 Y525.714
N12120 X694.016 Y526.669
N12125 X694.242 Y527.634
N12130 X694.43 Y528.608
N12135 X694.578 Y529.588
N12140 X694.688 Y530.573
N12145 X694.758 Y531.562
N12150 X694.79 Y532.553
N12155 X694.782 Y533.544
N12160 X694.734 Y534.534
N12165 X694.648 Y535.522
N12170 X694.522 Y536.505
N12175 X694.358 Y537.483
N12180 X694.155 Y538.453
N12185 X693.913 Y539.414
N12190 X693.634 Y540.365
N12195 X693.317 Y541.305
N12200 X692.963 Y542.231
N12205 X692.573 Y543.142
N12210 X692.147 Y544.037
N12215 X691.686 Y544.914
N12220 X691.19 Y545.773
N12225 X690.661 Y546.611
N12230 X690.099 Y547.428
N12235 X689.505 Y548.221
N12240 X688.88 Y548.991
N12245 X688.225 Y549.735
N12250 X687.541 Y550.452
N12255 X686.829 Y551.142
N12260 X686.09 Y551.803
N12265 X685.326 Y552.434
N12270 X684.537 Y553.035
N12275 X683.725 Y553.603
N12280 X682.891 Y554.139
N12285 X682.036 Y554.642
N12290 X681.163 Y555.11
N12295 X680.271 Y555.544
N12300 X679.363 Y555.941
N12305 X678.44 Y556.303
N12310 X677.503 Y556.627
N12315 X676.554 Y556.914
N12320 X675.595 Y557.163
N12325 X674.626 Y557.374
N12330 X673.65 Y557.547
N12335 X672.668 Y557.68
N12340 X671.681 Y557.775
N12345 X670.691 Y557.83
N12350 X669.7 Y557.846
N12355 X668.709 Y557.823
N12360 X667.72 Y557.76
N12365 X666.734 Y557.658
N12370 X665.753 Y557.518
N12375 X664.778 Y557.338
N12380 X663.811 Y557.12
N12385 X662.853 Y556.864
N12390 X614.238 Y641.068
N12395 X607.309 Y637.068
N12400 X589.81 Y667.379
N12405 X582.015 Y662.879
N12410 X572.015 Y680.2
N12415 X537.374 Y660.2
N12420 X547.374 Y642.879
N12425 X539.58 Y638.379
N12430 X557.08 Y608.068
N12435 X550.152 Y604.068
N12440 X579.146 Y553.849
N12445 Z45. F2000.
N12450 G00 X698.238 Y495.576
N12455 G01 Z0. F2000.
N12460 X695.242 Y493.846 F3000.
N12465 X695.496 Y492.694
N12470 X695.711 Y491.534
N12475 X695.887 Y490.368
N12480 X696.023 Y489.196
N12485 X696.12 Y488.02
N12490 X696.177 Y486.841
N12495 X696.195 Y485.662
N12500 X696.172 Y484.482
N12505 X696.11 Y483.304
N12510 X696.008 Y482.128
N12515 X695.867 Y480.957
N12520 X695.686 Y479.791
N12525 X695.466 Y478.632
N12530 X695.207 Y477.481
N12535 X694.91 Y476.339
N12540 X694.574 Y475.208
N12545 X694.2 Y474.089
N12550 X693.789 Y472.983
N12555 X693.34 Y471.892
N12560 X692.855 Y470.816
N12565 X692.334 Y469.757
N12570 X691.778 Y468.717
N12575 X691.187 Y467.696
N12580 X690.562 Y466.695
N12585 X689.904 Y465.716
N12590 X689.212 Y464.76
N12595 X688.489 Y463.827
N12600 X687.736 Y462.92
N12605 X686.951 Y462.038
N12610 X686.138 Y461.184
N12615 X685.296 Y460.357
N12620 X684.427 Y459.559
N12625 X683.532 Y458.791
N12630 X682.611 Y458.053
N12635 X681.666 Y457.347
N12640 X680.697 Y456.673
N12645 X679.706 Y456.032
N12650 X678.695 Y455.425
N12655 X677.663 Y454.853
N12660 X676.613 Y454.315
N12665 X675.545 Y453.813
N12670 X674.461 Y453.348
N12675 X673.362 Y452.919
N12680 X672.249 Y452.528
N12685 X671.123 Y452.174
N12690 X669.986 Y451.858
N12695 X668.839 Y451.581
N12700 X667.684 Y451.343
N12705 X666.521 Y451.144
N12710 X665.352 Y450.984
N12715 X664.178 Y450.864
N12720 X663.001 Y450.783
N12725 X661.822 Y450.742
N12730 X660.642 Y450.741
N12735 X659.463 Y450.779
N12740 X658.286 Y450.857
N12745 X657.112 Y450.975
N12750 X655.942 Y451.133
N12755 X654.779 Y451.329
N12760 X653.623 Y451.565
N12765 X652.476 Y451.84
N12770 X651.338 Y452.153
N12775 X650.212 Y452.504
N12780 X649.098 Y452.893
N12785 X647.998 Y453.32
N12790 X646.913 Y453.783
N12795 X645.844 Y454.282
N12800 X644.792 Y454.818
N12805 X643.759 Y455.388
N12810 X642.746 Y455.993
N12815 X641.754 Y456.632
N12820 X640.785 Y457.303
N12825 X639.838 Y458.008
N12830 X638.915 Y458.743
N12835 X638.018 Y459.509
N12840 X637.147 Y460.305
N12845 X634.152 Y458.576
N12850 Z45. F2000.
N12855 G00 Z55.

(2D CONTOUR3)
N12865 G00 X732.388 Y640.591
N12870 Z55.
N12875 Z45.
N12880 G01 Z41. F2000.
N12885 Z0.
N12890 X732.411 Y646.591
N12895 G03 X731.618 Y649.594 A119.789 R6.
N12900 X633.828 Y679.778 A205.904 R74.95 F3000.
N12905 X631.704 Y672.851 A300. R4.95
N12910 G01 X701.525 Y551.917
N12915 G03 X708.587 Y550.292 A34.091 R4.95
N12920 X731.618 Y649.594 A119.789 R74.95
N12925 X729.43 Y651.798 A149.789 R6. F2000.
N12930 G01 X724.245 Y654.817
N12935 G00 Z45.
N12940 X758.854 Y693.196
N12945 G01 Z41. F2000.
N12950 Z0.
N12955 X755.854 Y688.
N12960 G03 X755.05 Y685. A270. R6.
N12965 G01 Y385. F3000.
N12970 G02 X740. Y369.95 A180. R15.05
N12975 G01 X535.
N12980 G02 X519.95 Y385. A90. R15.05
N12985 G01 Y685.
N12990 G02 X535. Y700.05 A0. R15.05
N12995 G01 X740.
N13000 G02 X755.05 Y685. A270. R15.05
N13005 G03 X755.854 Y682. A300. R6. F2000.
N13010 G01 X758.854 Y676.804
N13015 G00 Z45.
N13020 X604.495 Y433.189
N13025 G01 Z41. F2000.
N13030 Z0.
N13035 Y439.189
N13040 G03 X603.691 Y442.189 A120. R6.
N13045 G01 X563.617 Y511.599 F3000.
N13050 G03 X545.05 Y506.624 A270. R9.95
N13055 G01 Y405.
N13060 G03 X555. Y395.05 A0. R9.95
N13065 G01 X613.673
N13070 G03 X622.29 Y409.975 A120.001 R9.95
N13075 G01 X603.691 Y442.189
N13080 G03 X601.495 Y444.385 A150. R6. F2000.
N13085 G01 X596.299 Y447.385
N13090 G00 Z55.

(TRACE4)
N13100 G00 X893.238 Y590.839
N13105 Z55.
N13110 Z45.
N13115 G01 Z0. F2000.
N13120 X886.309 Y586.839 F3000.
N13125 X868.809 Y617.15
N13130 X861.015 Y612.65
N13135 X851.015 Y629.97
N13140 X816.374 Y609.97
N13145 X826.374 Y592.65
N13150 X818.58 Y588.15
N13155 X836.08 Y557.839
N13160 X829.152 Y553.839
N13165 Z45. F2000.
N13170 G00 X829.146 Y553.849
N13175 G01 Z0. F2000.
N13180 X848.767 Y519.864 F3000.
N13185 X848.066 Y519.163
N13190 X847.394 Y518.434
N13195 X846.751 Y517.68
N13200 X846.139 Y516.9
N13205 X845.558 Y516.097
N13210 X845.009 Y515.272
N13215 X844.493 Y514.425
N13220 X844.011 Y513.559
N13225 X843.564 Y512.674
N13230 X843.153 Y511.772
N13235 X842.777 Y510.855
N13240 X842.439 Y509.923
N13245 X842.137 Y508.979
N13250 X841.873 Y508.023
N13255 X841.647 Y507.058
N13260 X841.46 Y506.085
N13265 X841.311 Y505.104
N13270 X841.201 Y504.119
N13275 X841.131 Y503.13
N13280 X841.1 Y502.14
N13285 X841.108 Y501.148
N13290 X841.155 Y500.158
N13295 X841.242 Y499.171
N13300 X841.367 Y498.187
N13305 X841.532 Y497.21
N13310 X841.735 Y496.24
N13315 X841.976 Y495.278
N13320 X842.256 Y494.327
N13325 X842.572 Y493.388
N13330 X842.926 Y492.462
N13335 X843.316 Y491.55
N13340 X843.743 Y490.655
N13345 X844.204 Y489.778
N13350 X844.699 Y488.919
N13355 X845.229 Y488.081
N13360 X845.791 Y487.265
N13365 X846.385 Y486.471
N13370 X847.01 Y485.702
N13375 X847.665 Y484.958
N13380 X848.349 Y484.24
N13385 X849.061 Y483.55
N13390 X849.8 Y482.889
N13395 X850.564 Y482.258
N13400 X851.353 Y481.658
N13405 X852.165 Y481.089
N13410 X852.998 Y480.553
N13415 X853.853 Y480.05
N13420 X854.727 Y479.582
N13425 X855.618 Y479.149
N13430 X856.526 Y478.751
N13435 X857.449 Y478.39
N13440 X858.386 Y478.065
N13445 X859.335 Y477.778
N13450 X860.294 Y477.529
N13455 X861.263 Y477.318
N13460 X862.239 Y477.146
N13465 X863.221 Y477.012
N13470 X864.208 Y476.918
N13475 X865.198 Y476.862
N13480 X866.189 Y476.846
N13485 X867.18 Y476.87
N13490 X868.17 Y476.932
N13495 X869.156 Y477.034
N13500 X870.137 Y477.175
N13505 X871.112 Y477.354
N13510 X872.079 Y477.572
N13515 X873.036 Y477.828
N13520 X919.152 Y397.954
N13525 X922.147 Y399.684
N13530 X923.018 Y398.888
N13535 X923.915 Y398.121
N13540 X924.838 Y397.386
N13545 X925.785 Y396.682
N13550 X926.754 Y396.01
N13555 X927.746 Y395.371
N13560 X928.759 Y394.766
N13565 X929.792 Y394.196
N13570 X930.844 Y393.661
N13575 X931.913 Y393.161
N13580 X932.998 Y392.698
N13585 X934.098 Y392.271
N13590 X935.212 Y391.882
N13595 X936.338 Y391.531
N13600 X937.476 Y391.218
N13605 X938.623 Y390.943
N13610 X939.779 Y390.708
N13615 X940.942 Y390.511
N13620 X942.112 Y390.353
N13625 X943.286 Y390.236
N13630 X944.463 Y390.157
N13635 X945.642 Y390.119
N13640 X946.822 Y390.12
N13645 X948.001 Y390.161
N13650 X949.178 Y390.242
N13655 X950.352 Y390.362
N13660 X951.521 Y390.522
N13665 X952.684 Y390.721
N13670 X953.839 Y390.959
N13675 X954.986 Y391.237
N13680 X956.123 Y391.552
N13685 X957.249 Y391.906
N13690 X958.362 Y392.297
N13695 X959.461 Y392.726
N13700 X960.545 Y393.192
N13705 X961.613 Y393.693
N13710 X962.663 Y394.231
N13715 X963.695 Y394.804
N13720 X964.706 Y395.411
N13725 X965.697 Y396.051
N13730 X966.666 Y396.725
N13735 X967.611 Y397.431
N13740 X968.532 Y398.169
N13745 X969.427 Y398.937
N13750 X970.296 Y399.735
N13755 X971.138 Y400.562
N13760 X971.951 Y401.417
N13765 X972.736 Y402.298
N13770 X973.489 Y403.206
N13775 X974.212 Y404.138
N13780 X974.904 Y405.094
N13785 X975.562 Y406.073
N13790 X976.187 Y407.074
N13795 X976.778 Y408.095
N13800 X977.334 Y409.136
N13805 X977.855 Y410.194
N13810 X978.34 Y411.27
N13815 X978.789 Y412.361
N13820 X979.2 Y413.467
N13825 X979.574 Y414.586
N13830 X979.91 Y415.717
N13835 X980.207 Y416.859
N13840 X980.466 Y418.01
N13845 X980.686 Y419.169
N13850 X980.867 Y420.335
N13855 X981.008 Y421.506
N13860 X981.11 Y422.682
N13865 X981.172 Y423.86
N13870 X981.195 Y425.04
N13875 X981.177 Y426.219
N13880 X981.12 Y427.398
N13885 X981.023 Y428.574
N13890 X980.887 Y429.746
N13895 X980.711 Y430.912
N13900 X980.496 Y432.073
N13905 X980.242 Y433.225
N13910 X983.238 Y434.954
N13915 X937.122 Y514.828
N13920 X937.823 Y515.53
N13925 X938.495 Y516.258
N13930 X939.138 Y517.013
N13935 X939.751 Y517.792
N13940 X940.332 Y518.595
N13945 X940.881 Y519.421
N13950 X941.396 Y520.267
N13955 X941.878 Y521.134
N13960 X942.325 Y522.018
N13965 X942.737 Y522.92
N13970 X943.112 Y523.838
N13975 X943.451 Y524.769
N13980 X943.752 Y525.714
N13985 X944.016 Y526.669
N13990 X944.242 Y527.634
N13995 X944.43 Y528.608
N14000 X944.578 Y529.588
N14005 X944.688 Y530.573
N14010 X944.758 Y531.562
N14015 X944.79 Y532.553
N14020 X944.782 Y533.544
N14025 X944.734 Y534.534
N14030 X944.648 Y535.522
N14035 X944.522 Y536.505
N14040 X944.358 Y537.483
N14045 X944.155 Y538.453
N14050 X943.913 Y539.414
N14055 X943.634 Y540.365
N14060 X943.317 Y541.305
N14065 X942.963 Y542.231
N14070 X942.573 Y543.142
N14075 X942.147 Y544.037
N14080 X941.686 Y544.914
N14085 X941.19 Y545.773
N14090 X940.661 Y546.611
N14095 X940.099 Y547.428
N14100 X939.505 Y548.221
N14105 X938.88 Y548.991
N14110 X938.225 Y549.735
N14115 X937.541 Y550.452
N14120 X936.829 Y551.142
N14125 X936.09 Y551.803
N14130 X935.326 Y552.434
N14135 X934.537 Y553.035
N14140 X933.725 Y553.603
N14145 X932.891 Y554.139
N14150 X932.036 Y554.642
N14155 X931.163 Y555.11
N14160 X930.271 Y555.544
N14165 X929.363 Y555.941
N14170 X928.44 Y556.303
N14175 X927.503 Y556.627
N14180 X926.554 Y556.914
N14185 X925.595 Y557.163
N14190 X924.626 Y557.374
N14195 X923.65 Y557.547
N14200 X922.668 Y557.68
N14205 X921.681 Y557.775
N14210 X920.691 Y557.83
N14215 X919.7 Y557.846
N14220 X918.709 Y557.823
N14225 X917.72 Y557.76
N14230 X916.734 Y557.658
N14235 X915.753 Y557.518
N14240 X914.778 Y557.338
N14245 X913.811 Y557.12
N14250 X912.853 Y556.864
N14255 X864.238 Y641.068
N14260 X857.309 Y637.068
N14265 X839.81 Y667.379
N14270 X832.015 Y662.879
N14275 X822.015 Y680.2
N14280 X787.374 Y660.2
N14285 X797.374 Y642.879
N14290 X789.58 Y638.379
N14295 X807.08 Y608.068
N14300 X800.152 Y604.068
N14305 X829.146 Y553.849
N14310 Z45. F2000.
N14315 G00 X948.238 Y495.576
N14320 G01 Z0. F2000.
N14325 X945.242 Y493.846 F3000.
N14330 X945.496 Y492.694
N14335 X945.711 Y491.534
N14340 X945.887 Y490.368
N14345 X946.023 Y489.196
N14350 X946.12 Y488.02
N14355 X946.177 Y486.841
N14360 X946.195 Y485.662
N14365 X946.172 Y484.482
N14370 X946.11 Y483.304
N14375 X946.008 Y482.128
N14380 X945.867 Y480.957
N14385 X945.686 Y479.791
N14390 X945.466 Y478.632
N14395 X945.207 Y477.481
N14400 X944.91 Y476.339
N14405 X944.574 Y475.208
N14410 X944.2 Y474.089
N14415 X943.789 Y472.983
N14420 X943.34 Y471.892
N14425 X942.855 Y470.816
N14430 X942.334 Y469.757
N14435 X941.778 Y468.717
N14440 X941.187 Y467.696
N14445 X940.562 Y466.695
N14450 X939.904 Y465.716
N14455 X939.212 Y464.76
N14460 X938.489 Y463.827
N14465 X937.736 Y462.92
N14470 X936.951 Y462.038
N14475 X936.138 Y461.184
N14480 X935.296 Y460.357
N14485 X934.427 Y459.559
N14490 X933.532 Y458.791
N14495 X932.611 Y458.053
N14500 X931.666 Y457.347
N14505 X930.697 Y456.673
N14510 X929.706 Y456.032
N14515 X928.695 Y455.425
N14520 X927.663 Y454.853
N14525 X926.613 Y454.315
N14530 X925.545 Y453.813
N14535 X924.461 Y453.348
N14540 X923.362 Y452.919
N14545 X922.249 Y452.528
N14550 X921.123 Y452.174
N14555 X919.986 Y451.858
N14560 X918.839 Y451.581
N14565 X917.684 Y451.343
N14570 X916.521 Y451.144
N14575 X915.352 Y450.984
N14580 X914.178 Y450.864
N14585 X913.001 Y450.783
N14590 X911.822 Y450.742
N14595 X910.642 Y450.741
N14600 X909.463 Y450.779
N14605 X908.286 Y450.857
N14610 X907.112 Y450.975
N14615 X905.942 Y451.133
N14620 X904.779 Y451.329
N14625 X903.623 Y451.565
N14630 X902.476 Y451.84
N14635 X901.338 Y452.153
N14640 X900.212 Y452.504
N14645 X899.098 Y452.893
N14650 X897.998 Y453.32
N14655 X896.913 Y453.783
N14660 X895.844 Y454.282
N14665 X894.792 Y454.818
N14670 X893.759 Y455.388
N14675 X892.746 Y455.993
N14680 X891.754 Y456.632
N14685 X890.785 Y457.303
N14690 X889.838 Y458.008
N14695 X888.915 Y458.743
N14700 X888.018 Y459.509
N14705 X887.147 Y460.305
N14710 X884.152 Y458.576
N14715 Z45. F2000.
N14720 G00 Z55.

(2D CONTOUR3)
N14730 G00 X982.388 Y640.591
N14735 Z55.
N14740 Z45.
N14745 G01 Z41. F2000.
N14750 Z0.
N14755 X982.411 Y646.591
N14760 G03 X981.618 Y649.594 A119.789 R6.
N14765 X883.828 Y679.778 A205.904 R74.95 F3000.
N14770 X881.704 Y672.851 A300. R4.95
N14775 G01 X951.525 Y551.917
N14780 G03 X958.587 Y550.292 A34.091 R4.95
N14785 X981.618 Y649.594 A119.789 R74.95
N14790 X979.43 Y651.798 A149.789 R6. F2000.
N14795 G01 X974.245 Y654.817
N14800 G00 Z45.
N14805 X1008.854 Y693.196
N14810 G01 Z41. F2000.
N14815 Z0.
N14820 X1005.854 Y688.
N14825 G03 X1005.05 Y685. A270. R6.
N14830 G01 Y385. F3000.
N14835 G02 X990. Y369.95 A180. R15.05
N14840 G01 X785.
N14845 G02 X769.95 Y385. A90. R15.05
N14850 G01 Y685.
N14855 G02 X785. Y700.05 A0. R15.05
N14860 G01 X990.
N14865 G02 X1005.05 Y685. A270. R15.05
N14870 G03 X1005.854 Y682. A300. R6. F2000.
N14875 G01 X1008.854 Y676.804
N14880 G00 Z45.
N14885 X854.495 Y433.189
N14890 G01 Z41. F2000.
N14895 Z0.
N14900 Y439.189
N14905 G03 X853.691 Y442.189 A120. R6.
N14910 G01 X813.617 Y511.599 F3000.
N14915 G03 X795.05 Y506.624 A270. R9.95
N14920 G01 Y405.
N14925 G03 X805. Y395.05 A0. R9.95
N14930 G01 X863.673
N14935 G03 X872.29 Y409.975 A120.001 R9.95
N14940 G01 X853.691 Y442.189
N14945 G03 X851.495 Y444.385 A150. R6. F2000.
N14950 G01 X846.299 Y447.385
N14955 G00 Z55.

(TRACE4)
N14965 G00 X143.238 Y940.839
N14970 Z55.
N14975 Z45.
N14980 G01 Z0. F2000.
N14985 X136.309 Y936.839 F3000.
N14990 X118.809 Y967.15
N14995 X111.015 Y962.65
N15000 X101.015 Y979.97
N15005 X66.374 Y959.97
N15010 X76.374 Y942.65
N15015 X68.58 Y938.15
N15020 X86.08 Y907.839
N15025 X79.152 Y903.839
N15030 Z45. F2000.
N15035 G00 X79.146 Y903.849
N15040 G01 Z0. F2000.
N15045 X98.767 Y869.864 F3000.
N15050 X98.066 Y869.163
N15055 X97.394 Y868.434
N15060 X96.751 Y867.68
N15065 X96.139 Y866.9
N15070 X95.558 Y866.097
N15075 X95.009 Y865.272
N15080 X94.493 Y864.425
N15085 X94.011 Y863.559
N15090 X93.564 Y862.674
N15095 X93.153 Y861.772
N15100 X92.777 Y860.855
N15105 X92.439 Y859.923
N15110 X92.137 Y858.979
N15115 X91.873 Y858.023
N15120 X91.647 Y857.058
N15125 X91.46 Y856.085
N15130 X91.311 Y855.104
N15135 X91.201 Y854.119
N15140 X91.131 Y853.13
N15145 X91.1 Y852.14
N15150 X91.108 Y851.148
N15155 X91.155 Y850.158
N15160 X91.242 Y849.171
N15165 X91.367 Y848.187
N15170 X91.532 Y847.21
N15175 X91.735 Y846.24
N15180 X91.976 Y845.278
N15185 X92.256 Y844.327
N15190 X92.572 Y843.388
N15195 X92.926 Y842.462
N15200 X93.316 Y841.55
N15205 X93.743 Y840.655
N15210 X94.204 Y839.778
N15215 X94.699 Y838.919
N15220 X95.229 Y838.081
N15225 X95.791 Y837.265
N15230 X96.385 Y836.471
N15235 X97.01 Y835.702
N15240 X97.665 Y834.958
N15245 X98.349 Y834.24
N15250 X99.061 Y833.55
N15255 X99.8 Y832.889
N15260 X100.564 Y832.258
N15265 X101.353 Y831.658
N15270 X102.165 Y831.089
N15275 X102.998 Y830.553
N15280 X103.853 Y830.05
N15285 X104.727 Y829.582
N15290 X105.618 Y829.149
N15295 X106.526 Y828.751
N15300 X107.449 Y828.39
N15305 X108.386 Y828.065
N15310 X109.335 Y827.778
N15315 X110.294 Y827.529
N15320 X111.263 Y827.318
N15325 X112.239 Y827.146
N15330 X113.221 Y827.012
N15335 X114.208 Y826.918
N15340 X115.198 Y826.862
N15345 X116.189 Y826.846
N15350 X117.18 Y826.87
N15355 X118.17 Y826.932
N15360 X119.156 Y827.034
N15365 X120.137 Y827.175
N15370 X121.112 Y827.354
N15375 X122.079 Y827.572
N15380 X123.036 Y827.828
N15385 X169.152 Y747.954
N15390 X172.147 Y749.684
N15395 X173.018 Y748.888
N15400 X173.915 Y748.121
N15405 X174.838 Y747.386
N15410 X175.785 Y746.682
N15415 X176.754 Y746.01
N15420 X177.746 Y745.371
N15425 X178.759 Y744.766
N15430 X179.792 Y744.196
N15435 X180.844 Y743.661
N15440 X181.913 Y743.161
N15445 X182.998 Y742.698
N15450 X184.098 Y742.271
N15455 X185.212 Y741.882
N15460 X186.338 Y741.531
N15465 X187.476 Y741.218
N15470 X188.623 Y740.943
N15475 X189.779 Y740.708
N15480 X190.942 Y740.511
N15485 X192.112 Y740.353
N15490 X193.286 Y740.236
N15495 X194.463 Y740.157
N15500 X195.642 Y740.119
N15505 X196.822 Y740.12
N15510 X198.001 Y740.161
N15515 X199.178 Y740.242
N15520 X200.352 Y740.362
N15525 X201.521 Y740.522
N15530 X202.684 Y740.721
N15535 X203.839 Y740.959
N15540 X204.986 Y741.237
N15545 X206.123 Y741.552
N15550 X207.249 Y741.906
N15555 X208.362 Y742.297
N15560 X209.461 Y742.726
N15565 X210.545 Y743.192
N15570 X211.613 Y743.693
N15575 X212.663 Y744.231
N15580 X213.695 Y744.804
N15585 X214.706 Y745.411
N15590 X215.697 Y746.051
N15595 X216.666 Y746.725
N15600 X217.611 Y747.431
N15605 X218.532 Y748.169
N15610 X219.427 Y748.937
N15615 X220.296 Y749.735
N15620 X221.138 Y750.562
N15625 X221.951 Y751.417
N15630 X222.736 Y752.298
N15635 X223.489 Y753.206
N15640 X224.212 Y754.138
N15645 X224.904 Y755.094
N15650 X225.562 Y756.073
N15655 X226.187 Y757.074
N15660 X226.778 Y758.095
N15665 X227.334 Y759.136
N15670 X227.855 Y760.194
N15675 X228.34 Y761.27
N15680 X228.789 Y762.361
N15685 X229.2 Y763.467
N15690 X229.574 Y764.586
N15695 X229.91 Y765.717
N15700 X230.207 Y766.859
N15705 X230.466 Y768.01
N15710 X230.686 Y769.169
N15715 X230.867 Y770.335
N15720 X231.008 Y771.506
N15725 X231.11 Y772.682
N15730 X231.172 Y773.86
N15735 X231.195 Y775.04
N15740 X231.177 Y776.219
N15745 X231.12 Y777.398
N15750 X231.023 Y778.574
N15755 X230.887 Y779.746
N15760 X230.711 Y780.912
N15765 X230.496 Y782.073
N15770 X230.242 Y783.225
N15775 X233.238 Y784.954
N15780 X187.122 Y864.828
N15785 X187.823 Y865.53
N15790 X188.495 Y866.258
N15795 X189.138 Y867.013
N15800 X189.751 Y867.792
N15805 X190.332 Y868.595
N15810 X190.881 Y869.421
N15815 X191.396 Y870.267
N15820 X191.878 Y871.134
N15825 X192.325 Y872.018
N15830 X192.737 Y872.92
N15835 X193.112 Y873.838
N15840 X193.451 Y874.769
N15845 X193.752 Y875.714
N15850 X194.016 Y876.669
N15855 X194.242 Y877.634
N15860 X194.43 Y878.608
N15865 X194.578 Y879.588
N15870 X194.688 Y880.573
N15875 X194.758 Y881.562
N15880 X194.79 Y882.553
N15885 X194.782 Y883.544
N15890 X194.734 Y884.534
N15895 X194.648 Y885.522
N15900 X194.522 Y886.505
N15905 X194.358 Y887.483
N15910 X194.155 Y888.453
N15915 X193.913 Y889.414
N15920 X193.634 Y890.365
N15925 X193.317 Y891.305
N15930 X192.963 Y892.231
N15935 X192.573 Y893.142
N15940 X192.147 Y894.037
N15945 X191.686 Y894.914
N15950 X191.19 Y895.773
N15955 X190.661 Y896.611
N15960 X190.099 Y897.428
N15965 X189.505 Y898.221
N15970 X188.88 Y898.991
N15975 X188.225 Y899.735
N15980 X187.541 Y900.452
N15985 X186.829 Y901.142
N15990 X186.09 Y901.803
N15995 X185.326 Y902.434
N16000 X184.537 Y903.035
N16005 X183.725 Y903.603
N16010 X182.891 Y904.139
N16015 X182.036 Y904.642
N16020 X181.163 Y905.11
N16025 X180.271 Y905.544
N16030 X179.363 Y905.941
N16035 X178.44 Y906.303
N16040 X177.503 Y906.627
N16045 X176.554 Y906.914
N16050 X175.595 Y907.163
N16055 X174.626 Y907.374
N16060 X173.65 Y907.547
N16065 X172.668 Y907.68
N16070 X171.681 Y907.775
N16075 X170.691 Y907.83
N16080 X169.7 Y907.846
N16085 X168.709 Y907.823
N16090 X167.72 Y907.76
N16095 X166.734 Y907.658
N16100 X165.753 Y907.518
N16105 X164.778 Y907.338
N16110 X163.811 Y907.12
N16115 X162.853 Y906.864
N16120 X114.238 Y991.068
N16125 X107.309 Y987.068
N16130 X89.81 Y1017.379
N16135 X82.015 Y1012.879
N16140 X72.015 Y1030.2
N16145 X37.374 Y1010.2
N16150 X47.374 Y992.879
N16155 X39.58 Y988.379
N16160 X57.08 Y958.068
N16165 X50.152 Y954.068
N16170 X79.146 Y903.849
N16175 Z45. F2000.
N16180 G00 X198.238 Y845.576
N16185 G01 Z0. F2000.
N16190 X195.242 Y843.846 F3000.
N16195 X195.496 Y842.694
N16200 X195.711 Y841.534
N16205 X195.887 Y840.368
N16210 X196.023 Y839.196
N16215 X196.12 Y838.02
N16220 X196.177 Y836.841
N16225 X196.195 Y835.662
N16230 X196.172 Y834.482
N16235 X196.11 Y833.304
N16240 X196.008 Y832.128
N16245 X195.867 Y830.957
N16250 X195.686 Y829.791
N16255 X195.466 Y828.632
N16260 X195.207 Y827.481
N16265 X194.91 Y826.339
N16270 X194.574 Y825.208
N16275 X194.2 Y824.089
N16280 X193.789 Y822.983
N16285 X193.34 Y821.892
N16290 X192.855 Y820.816
N16295 X192.334 Y819.757
N16300 X191.778 Y818.717
N16305 X191.187 Y817.696
N16310 X190.562 Y816.695
N16315 X189.904 Y815.716
N16320 X189.212 Y814.76
N16325 X188.489 Y813.827
N16330 X187.736 Y812.92
N16335 X186.951 Y812.038
N16340 X186.138 Y811.184
N16345 X185.296 Y810.357
N16350 X184.427 Y809.559
N16355 X183.532 Y808.791
N16360 X182.611 Y808.053
N16365 X181.666 Y807.347
N16370 X180.697 Y806.673
N16375 X179.706 Y806.032
N16380 X178.695 Y805.425
N16385 X177.663 Y804.853
N16390 X176.613 Y804.315
N16395 X175.545 Y803.813
N16400 X174.461 Y803.348
N16405 X173.362 Y802.919
N16410 X172.249 Y802.528
N16415 X171.123 Y802.174
N16420 X169.986 Y801.858
N16425 X168.839 Y801.581
N16430 X167.684 Y801.343
N16435 X166.521 Y801.144
N16440 X165.352 Y800.984
N16445 X164.178 Y800.864
N16450 X163.001 Y800.783
N16455 X161.822 Y800.742
N16460 X160.642 Y800.741
N16465 X159.463 Y800.779
N16470 X158.286 Y800.857
N16475 X157.112 Y800.975
N16480 X155.942 Y801.133
N16485 X154.779 Y801.329
N16490 X153.623 Y801.565
N16495 X152.476 Y801.84
N16500 X151.338 Y802.153
N16505 X150.212 Y802.504
N16510 X149.098 Y802.893
N16515 X147.998 Y803.32
N16520 X146.913 Y803.783
N16525 X145.844 Y804.282
N16530 X144.792 Y804.818
N16535 X143.759 Y805.388
N16540 X142.746 Y805.993
N16545 X141.754 Y806.632
N16550 X140.785 Y807.303
N16555 X139.838 Y808.008
N16560 X138.915 Y808.743
N16565 X138.018 Y809.509
N16570 X137.147 Y810.305
N16575 X134.152 Y808.576
N16580 Z45. F2000.
N16585 G00 Z55.

(2D CONTOUR3)
N16595 G00 X232.388 Y990.591
N16600 Z55.
N16605 Z45.
N16610 G01 Z41. F2000.
N16615 Z0.
N16620 X232.411 Y996.591
N16625 G03 X231.618 Y999.594 A119.789 R6.
N16630 X133.828 Y1029.778 A205.904 R74.95 F3000.
N16635 X131.704 Y1022.851 A300. R4.95
N16640 G01 X201.525 Y901.917
N16645 G03 X208.587 Y900.292 A34.091 R4.95
N16650 X231.618 Y999.594 A119.789 R74.95
N16655 X229.43 Y1001.798 A149.789 R6. F2000.
N16660 G01 X224.245 Y1004.817
N16665 G00 Z45.
N16670 X258.854 Y1043.196
N16675 G01 Z41. F2000.
N16680 Z0.
N16685 X255.854 Y1038.
N16690 G03 X255.05 Y1035. A270. R6.
N16695 G01 Y735. F3000.
N16700 G02 X240. Y719.95 A180. R15.05
N16705 G01 X35.
N16710 G02 X19.95 Y735. A90. R15.05
N16715 G01 Y1035.
N16720 G02 X35. Y1050.05 A0. R15.05
N16725 G01 X240.
N16730 G02 X255.05 Y1035. A270. R15.05
N16735 G03 X255.854 Y1032. A300. R6. F2000.
N16740 G01 X258.854 Y1026.804
N16745 G00 Z45.
N16750 X104.495 Y783.189
N16755 G01 Z41. F2000.
N16760 Z0.
N16765 Y789.189
N16770 G03 X103.691 Y792.189 A120. R6.
N16775 G01 X63.617 Y861.599 F3000.
N16780 G03 X45.05 Y856.624 A270. R9.95
N16785 G01 Y755.
N16790 G03 X55. Y745.05 A0. R9.95
N16795 G01 X113.673
N16800 G03 X122.29 Y759.975 A120.001 R9.95
N16805 G01 X103.691 Y792.189
N16810 G03 X101.495 Y794.385 A150. R6. F2000.
N16815 G01 X96.299 Y797.385
N16820 G00 Z55.

(TRACE4)
N16830 G00 X393.238 Y940.839
N16835 Z55.
N16840 Z45.
N16845 G01 Z0. F2000.
N16850 X386.309 Y936.839 F3000.
N16855 X368.809 Y967.15
N16860 X361.015 Y962.65
N16865 X351.015 Y979.97
N16870 X316.374 Y959.97
N16875 X326.374 Y942.65
N16880 X318.58 Y938.15
N16885 X336.08 Y907.839
N16890 X329.152 Y903.839
N16895 Z45. F2000.
N16900 G00 X329.146 Y903.849
N16905 G01 Z0. F2000.
N16910 X348.767 Y869.864 F3000.
N16915 X348.066 Y869.163
N16920 X347.394 Y868.434
N16925 X346.751 Y867.68
N16930 X346.139 Y866.9
N16935 X345.558 Y866.097
N16940 X345.009 Y865.272
N16945 X344.493 Y864.425
N16950 X344.011 Y863.559
N16955 X343.564 Y862.674
N16960 X343.153 Y861.772
N16965 X342.777 Y860.855
N16970 X342.439 Y859.923
N16975 X342.137 Y858.979
N16980 X341.873 Y858.023
N16985 X341.647 Y857.058
N16990 X341.46 Y856.085
N16995 X341.311 Y855.104
N17000 X341.201 Y854.119
N17005 X341.131 Y853.13
N17010 X341.1 Y852.14
N17015 X341.108 Y851.148
N17020 X341.155 Y850.158
N17025 X341.242 Y849.171
N17030 X341.367 Y848.187
N17035 X341.532 Y847.21
N17040 X341.735 Y846.24
N17045 X341.976 Y845.278
N17050 X342.256 Y844.327
N17055 X342.572 Y843.388
N17060 X342.926 Y842.462
N17065 X343.316 Y841.55
N17070 X343.743 Y840.655
N17075 X344.204 Y839.778
N17080 X344.699 Y838.919
N17085 X345.229 Y838.081
N17090 X345.791 Y837.265
N17095 X346.385 Y836.471
N17100 X347.01 Y835.702
N17105 X347.665 Y834.958
N17110 X348.349 Y834.24
N17115 X349.061 Y833.55
N17120 X349.8 Y832.889
N17125 X350.564 Y832.258
N17130 X351.353 Y831.658
N17135 X352.165 Y831.089
N17140 X352.998 Y830.553
N17145 X353.853 Y830.05
N17150 X354.727 Y829.582
N17155 X355.618 Y829.149
N17160 X356.526 Y828.751
N17165 X357.449 Y828.39
N17170 X358.386 Y828.065
N17175 X359.335 Y827.778
N17180 X360.294 Y827.529
N17185 X361.263 Y827.318
N17190 X362.239 Y827.146
N17195 X363.221 Y827.012
N17200 X364.208 Y826.918
N17205 X365.198 Y826.862
N17210 X366.189 Y826.846
N17215 X367.18 Y826.87
N17220 X368.17 Y826.932
N17225 X369.156 Y827.034
N17230 X370.137 Y827.175
N17235 X371.112 Y827.354
N17240 X372.079 Y827.572
N17245 X373.036 Y827.828
N17250 X419.152 Y747.954
N17255 X422.147 Y749.684
N17260 X423.018 Y748.888
N17265 X423.915 Y748.121
N17270 X424.838 Y747.386
N17275 X425.785 Y746.682
N17280 X426.754 Y746.01
N17285 X427.746 Y745.371
N17290 X428.759 Y744.766
N17295 X429.792 Y744.196
N17300 X430.844 Y743.661
N17305 X431.913 Y743.161
N17310 X432.998 Y742.698
N17315 X434.098 Y742.271
N17320 X435.212 Y741.882
N17325 X436.338 Y741.531
N17330 X437.476 Y741.218
N17335 X438.623 Y740.943
N17340 X439.779 Y740.708
N17345 X440.942 Y740.511
N17350 X442.112 Y740.353
N17355 X443.286 Y740.236
N17360 X444.463 Y740.157
N17365 X445.642 Y740.119
N17370 X446.822 Y740.12
N17375 X448.001 Y740.161
N17380 X449.178 Y740.242
N17385 X450.352 Y740.362
N17390 X451.521 Y740.522
N17395 X452.684 Y740.721
N17400 X453.839 Y740.959
N17405 X454.986 Y741.237
N17410 X456.123 Y741.552
N17415 X457.249 Y741.906
N17420 X458.362 Y742.297
N17425 X459.461 Y742.726
N17430 X460.545 Y743.192
N17435 X461.613 Y743.693
N17440 X462.663 Y744.231
N17445 X463.695 Y744.804
N17450 X464.706 Y745.411
N17455 X465.697 Y746.051
N17460 X466.666 Y746.725
N17465 X467.611 Y747.431
N17470 X468.532 Y748.169
N17475 X469.427 Y748.937
N17480 X470.296 Y749.735
N17485 X471.138 Y750.562
N17490 X471.951 Y751.417
N17495 X472.736 Y752.298
N17500 X473.489 Y753.206
N17505 X474.212 Y754.138
N17510 X474.904 Y755.094
N17515 X475.562 Y756.073
N17520 X476.187 Y757.074
N17525 X476.778 Y758.095
N17530 X477.334 Y759.136
N17535 X477.855 Y760.194
N17540 X478.34 Y761.27
N17545 X478.789 Y762.361
N17550 X479.2 Y763.467
N17555 X479.574 Y764.586
N17560 X479.91 Y765.717
N17565 X480.207 Y766.859
N17570 X480.466 Y768.01
N17575 X480.686 Y769.169
N17580 X480.867 Y770.335
N17585 X481.008 Y771.506
N17590 X481.11 Y772.682
N17595 X481.172 Y773.86
N17600 X481.195 Y775.04
N17605 X481.177 Y776.219
N17610 X481.12 Y777.398
N17615 X481.023 Y778.574
N17620 X480.887 Y779.746
N17625 X480.711 Y780.912
N17630 X480.496 Y782.073
N17635 X480.242 Y783.225
N17640 X483.238 Y784.954
N17645 X437.122 Y864.828
N17650 X437.823 Y865.53
N17655 X438.495 Y866.258
N17660 X439.138 Y867.013
N17665 X439.751 Y867.792
N17670 X440.332 Y868.595
N17675 X440.881 Y869.421
N17680 X441.396 Y870.267
N17685 X441.878 Y871.134
N17690 X442.325 Y872.018
N17695 X442.737 Y872.92
N17700 X443.112 Y873.838
N17705 X443.451 Y874.769
N17710 X443.752 Y875.714
N17715 X444.016 Y876.669
N17720 X444.242 Y877.634
N17725 X444.43 Y878.608
N17730 X444.578 Y879.588
N17735 X444.688 Y880.573
N17740 X444.758 Y881.562
N17745 X444.79 Y882.553
N17750 X444.782 Y883.544
N17755 X444.734 Y884.534
N17760 X444.648 Y885.522
N17765 X444.522 Y886.505
N17770 X444.358 Y887.483
N17775 X444.155 Y888.453
N17780 X443.913 Y889.414
N17785 X443.634 Y890.365
N17790 X443.317 Y891.305
N17795 X442.963 Y892.231
N17800 X442.573 Y893.142
N17805 X442.147 Y894.037
N17810 X441.686 Y894.914
N17815 X441.19 Y895.773
N17820 X440.661 Y896.611
N17825 X440.099 Y897.428
N17830 X439.505 Y898.221
N17835 X438.88 Y898.991
N17840 X438.225 Y899.735
N17845 X437.541 Y900.452
N17850 X436.829 Y901.142
N17855 X436.09 Y901.803
N17860 X435.326 Y902.434
N17865 X434.537 Y903.035
N17870 X433.725 Y903.603
N17875 X432.891 Y904.139
N17880 X432.036 Y904.642
N17885 X431.163 Y905.11
N17890 X430.271 Y905.544
N17895 X429.363 Y905.941
N17900 X428.44 Y906.303
N17905 X427.503 Y906.627
N17910 X426.554 Y906.914
N17915 X425.595 Y907.163
N17920 X424.626 Y907.374
N17925 X423.65 Y907.547
N17930 X422.668 Y907.68
N17935 X421.681 Y907.775
N17940 X420.691 Y907.83
N17945 X419.7 Y907.846
N17950 X418.709 Y907.823
N17955 X417.72 Y907.76
N17960 X416.734 Y907.658
N17965 X415.753 Y907.518
N17970 X414.778 Y907.338
N17975 X413.811 Y907.12
N17980 X412.853 Y906.864
N17985 X364.238 Y991.068
N17990 X357.309 Y987.068
N17995 X339.81 Y1017.379
N18000 X332.015 Y1012.879
N18005 X322.015 Y1030.2
N18010 X287.374 Y1010.2
N18015 X297.374 Y992.879
N18020 X289.58 Y988.379
N18025 X307.08 Y958.068
N18030 X300.152 Y954.068
N18035 X329.146 Y903.849
N18040 Z45. F2000.
N18045 G00 X448.238 Y845.576
N18050 G01 Z0. F2000.
N18055 X445.242 Y843.846 F3000.
N18060 X445.496 Y842.694
N18065 X445.711 Y841.534
N18070 X445.887 Y840.368
N18075 X446.023 Y839.196
N18080 X446.12 Y838.02
N18085 X446.177 Y836.841
N18090 X446.195 Y835.662
N18095 X446.172 Y834.482
N18100 X446.11 Y833.304
N18105 X446.008 Y832.128
N18110 X445.867 Y830.957
N18115 X445.686 Y829.791
N18120 X445.466 Y828.632
N18125 X445.207 Y827.481
N18130 X444.91 Y826.339
N18135 X444.574 Y825.208
N18140 X444.2 Y824.089
N18145 X443.789 Y822.983
N18150 X443.34 Y821.892
N18155 X442.855 Y820.816
N18160 X442.334 Y819.757
N18165 X441.778 Y818.717
N18170 X441.187 Y817.696
N18175 X440.562 Y816.695
N18180 X439.904 Y815.716
N18185 X439.212 Y814.76
N18190 X438.489 Y813.827
N18195 X437.736 Y812.92
N18200 X436.951 Y812.038
N18205 X436.138 Y811.184
N18210 X435.296 Y810.357
N18215 X434.427 Y809.559
N18220 X433.532 Y808.791
N18225 X432.611 Y808.053
N18230 X431.666 Y807.347
N18235 X430.697 Y806.673
N18240 X429.706 Y806.032
N18245 X428.695 Y805.425
N18250 X427.663 Y804.853
N18255 X426.613 Y804.315
N18260 X425.545 Y803.813
N18265 X424.461 Y803.348
N18270 X423.362 Y802.919
N18275 X422.249 Y802.528
N18280 X421.123 Y802.174
N18285 X419.986 Y801.858
N18290 X418.839 Y801.581
N18295 X417.684 Y801.343
N18300 X416.521 Y801.144
N18305 X415.352 Y800.984
N18310 X414.178 Y800.864
N18315 X413.001 Y800.783
N18320 X411.822 Y800.742
N18325 X410.642 Y800.741
N18330 X409.463 Y800.779
N18335 X408.286 Y800.857
N18340 X407.112 Y800.975
N18345 X405.942 Y801.133
N18350 X404.779 Y801.329
N18355 X403.623 Y801.565
N18360 X402.476 Y801.84
N18365 X401.338 Y802.153
N18370 X400.212 Y802.504
N18375 X399.098 Y802.893
N18380 X397.998 Y803.32
N18385 X396.913 Y803.783
N18390 X395.844 Y804.282
N18395 X394.792 Y804.818
N18400 X393.759 Y805.388
N18405 X392.746 Y805.993
N18410 X391.754 Y806.632
N18415 X390.785 Y807.303
N18420 X389.838 Y808.008
N18425 X388.915 Y808.743
N18430 X388.018 Y809.509
N18435 X387.147 Y810.305
N18440 X384.152 Y808.576
N18445 Z45. F2000.
N18450 G00 Z55.

(2D CONTOUR3)
N18460 G00 X482.388 Y990.591
N18465 Z55.
N18470 Z45.
N18475 G01 Z41. F2000.
N18480 Z0.
N18485 X482.411 Y996.591
N18490 G03 X481.618 Y999.594 A119.789 R6.
N18495 X383.828 Y1029.778 A205.904 R74.95 F3000.
N18500 X381.704 Y1022.851 A300. R4.95
N18505 G01 X451.525 Y901.917
N18510 G03 X458.587 Y900.292 A34.091 R4.95
N18515 X481.618 Y999.594 A119.789 R74.95
N18520 X479.43 Y1001.798 A149.789 R6. F2000.
N18525 G01 X474.245 Y1004.817
N18530 G00 Z45.
N18535 X508.854 Y1043.196
N18540 G01 Z41. F2000.
N18545 Z0.
N18550 X505.854 Y1038.
N18555 G03 X505.05 Y1035. A270. R6.
N18560 G01 Y735. F3000.
N18565 G02 X490. Y719.95 A180. R15.05
N18570 G01 X285.
N18575 G02 X269.95 Y735. A90. R15.05
N18580 G01 Y1035.
N18585 G02 X285. Y1050.05 A0. R15.05
N18590 G01 X490.
N18595 G02 X505.05 Y1035. A270. R15.05
N18600 G03 X505.854 Y1032. A300. R6. F2000.
N18605 G01 X508.854 Y1026.804
N18610 G00 Z45.
N18615 X354.495 Y783.189
N18620 G01 Z41. F2000.
N18625 Z0.
N18630 Y789.189
N18635 G03 X353.691 Y792.189 A120. R6.
N18640 G01 X313.617 Y861.599 F3000.
N18645 G03 X295.05 Y856.624 A270. R9.95
N18650 G01 Y755.
N18655 G03 X305. Y745.05 A0. R9.95
N18660 G01 X363.673
N18665 G03 X372.29 Y759.975 A120.001 R9.95
N18670 G01 X353.691 Y792.189
N18675 G03 X351.495 Y794.385 A150. R6. F2000.
N18680 G01 X346.299 Y797.385
N18685 G00 Z55.

(TRACE4)
N18695 G00 X643.238 Y940.839
N18700 Z55.
N18705 Z45.
N18710 G01 Z0. F2000.
N18715 X636.309 Y936.839 F3000.
N18720 X618.809 Y967.15
N18725 X611.015 Y962.65
N18730 X601.015 Y979.97
N18735 X566.374 Y959.97
N18740 X576.374 Y942.65
N18745 X568.58 Y938.15
N18750 X586.08 Y907.839
N18755 X579.152 Y903.839
N18760 Z45. F2000.
N18765 G00 X579.146 Y903.849
N18770 G01 Z0. F2000.
N18775 X598.767 Y869.864 F3000.
N18780 X598.066 Y869.163
N18785 X597.394 Y868.434
N18790 X596.751 Y867.68
N18795 X596.139 Y866.9
N18800 X595.558 Y866.097
N18805 X595.009 Y865.272
N18810 X594.493 Y864.425
N18815 X594.011 Y863.559
N18820 X593.564 Y862.674
N18825 X593.153 Y861.772
N18830 X592.777 Y860.855
N18835 X592.439 Y859.923
N18840 X592.137 Y858.979
N18845 X591.873 Y858.023
N18850 X591.647 Y857.058
N18855 X591.46 Y856.085
N18860 X591.311 Y855.104
N18865 X591.201 Y854.119
N18870 X591.131 Y853.13
N18875 X591.1 Y852.14
N18880 X591.108 Y851.148
N18885 X591.155 Y850.158
N18890 X591.242 Y849.171
N18895 X591.367 Y848.187
N18900 X591.532 Y847.21
N18905 X591.735 Y846.24
N18910 X591.976 Y845.278
N18915 X592.256 Y844.327
N18920 X592.572 Y843.388
N18925 X592.926 Y842.462
N18930 X593.316 Y841.55
N18935 X593.743 Y840.655
N18940 X594.204 Y839.778
N18945 X594.699 Y838.919
N18950 X595.229 Y838.081
N18955 X595.791 Y837.265
N18960 X596.385 Y836.471
N18965 X597.01 Y835.702
N18970 X597.665 Y834.958
N18975 X598.349 Y834.24
N18980 X599.061 Y833.55
N18985 X599.8 Y832.889
N18990 X600.564 Y832.258
N18995 X601.353 Y831.658
N19000 X602.165 Y831.089
N19005 X602.998 Y830.553
N19010 X603.853 Y830.05
N19015 X604.727 Y829.582
N19020 X605.618 Y829.149
N19025 X606.526 Y828.751
N19030 X607.449 Y828.39
N19035 X608.386 Y828.065
N19040 X609.335 Y827.778
N19045 X610.294 Y827.529
N19050 X611.263 Y827.318
N19055 X612.239 Y827.146
N19060 X613.221 Y827.012
N19065 X614.208 Y826.918
N19070 X615.198 Y826.862
N19075 X616.189 Y826.846
N19080 X617.18 Y826.87
N19085 X618.17 Y826.932
N19090 X619.156 Y827.034
N19095 X620.137 Y827.175
N19100 X621.112 Y827.354
N19105 X622.079 Y827.572
N19110 X623.036 Y827.828
N19115 X669.152 Y747.954
N19120 X672.147 Y749.684
N19125 X673.018 Y748.888
N19130 X673.915 Y748.121
N19135 X674.838 Y747.386
N19140 X675.785 Y746.682
N19145 X676.754 Y746.01
N19150 X677.746 Y745.371
N19155 X678.759 Y744.766
N19160 X679.792 Y744.196
N19165 X680.844 Y743.661
N19170 X681.913 Y743.161
N19175 X682.998 Y742.698
N19180 X684.098 Y742.271
N19185 X685.212 Y741.882
N19190 X686.338 Y741.531
N19195 X687.476 Y741.218
N19200 X688.623 Y740.943
N19205 X689.779 Y740.708
N19210 X690.942 Y740.511
N19215 X692.112 Y740.353
N19220 X693.286 Y740.236
N19225 X694.463 Y740.157
N19230 X695.642 Y740.119
N19235 X696.822 Y740.12
N19240 X698.001 Y740.161
N19245 X699.178 Y740.242
N19250 X700.352 Y740.362
N19255 X701.521 Y740.522
N19260 X702.684 Y740.721
N19265 X703.839 Y740.959
N19270 X704.986 Y741.237
N19275 X706.123 Y741.552
N19280 X707.249 Y741.906
N19285 X708.362 Y742.297
N19290 X709.461 Y742.726
N19295 X710.545 Y743.192
N19300 X711.613 Y743.693
N19305 X712.663 Y744.231
N19310 X713.695 Y744.804
N19315 X714.706 Y745.411
N19320 X715.697 Y746.051
N19325 X716.666 Y746.725
N19330 X717.611 Y747.431
N19335 X718.532 Y748.169
N19340 X719.427 Y748.937
N19345 X720.296 Y749.735
N19350 X721.138 Y750.562
N19355 X721.951 Y751.417
N19360 X722.736 Y752.298
N19365 X723.489 Y753.206
N19370 X724.212 Y754.138
N19375 X724.904 Y755.094
N19380 X725.562 Y756.073
N19385 X726.187 Y757.074
N19390 X726.778 Y758.095
N19395 X727.334 Y759.136
N19400 X727.855 Y760.194
N19405 X728.34 Y761.27
N19410 X728.789 Y762.361
N19415 X729.2 Y763.467
N19420 X729.574 Y764.586
N19425 X729.91 Y765.717
N19430 X730.207 Y766.859
N19435 X730.466 Y768.01
N19440 X730.686 Y769.169
N19445 X730.867 Y770.335
N19450 X731.008 Y771.506
N19455 X731.11 Y772.682
N19460 X731.172 Y773.86
N19465 X731.195 Y775.04
N19470 X731.177 Y776.219
N19475 X731.12 Y777.398
N19480 X731.023 Y778.574
N19485 X730.887 Y779.746
N19490 X730.711 Y780.912
N19495 X730.496 Y782.073
N19500 X730.242 Y783.225
N19505 X733.238 Y784.954
N19510 X687.122 Y864.828
N19515 X687.823 Y865.53
N19520 X688.495 Y866.258
N19525 X689.138 Y867.013
N19530 X689.751 Y867.792
N19535 X690.332 Y868.595
N19540 X690.881 Y869.421
N19545 X691.396 Y870.267
N19550 X691.878 Y871.134
N19555 X692.325 Y872.018
N19560 X692.737 Y872.92
N19565 X693.112 Y873.838
N19570 X693.451 Y874.769
N19575 X693.752 Y875.714
N19580 X694.016 Y876.669
N19585 X694.242 Y877.634
N19590 X694.43 Y878.608
N19595 X694.578 Y879.588
N19600 X694.688 Y880.573
N19605 X694.758 Y881.562
N19610 X694.79 Y882.553
N19615 X694.782 Y883.544
N19620 X694.734 Y884.534
N19625 X694.648 Y885.522
N19630 X694.522 Y886.505
N19635 X694.358 Y887.483
N19640 X694.155 Y888.453
N19645 X693.913 Y889.414
N19650 X693.634 Y890.365
N19655 X693.317 Y891.305
N19660 X692.963 Y892.231
N19665 X692.573 Y893.142
N19670 X692.147 Y894.037
N19675 X691.686 Y894.914
N19680 X691.19 Y895.773
N19685 X690.661 Y896.611
N19690 X690.099 Y897.428
N19695 X689.505 Y898.221
N19700 X688.88 Y898.991
N19705 X688.225 Y899.735
N19710 X687.541 Y900.452
N19715 X686.829 Y901.142
N19720 X686.09 Y901.803
N19725 X685.326 Y902.434
N19730 X684.537 Y903.035
N19735 X683.725 Y903.603
N19740 X682.891 Y904.139
N19745 X682.036 Y904.642
N19750 X681.163 Y905.11
N19755 X680.271 Y905.544
N19760 X679.363 Y905.941
N19765 X678.44 Y906.303
N19770 X677.503 Y906.627
N19775 X676.554 Y906.914
N19780 X675.595 Y907.163
N19785 X674.626 Y907.374
N19790 X673.65 Y907.547
N19795 X672.668 Y907.68
N19800 X671.681 Y907.775
N19805 X670.691 Y907.83
N19810 X669.7 Y907.846
N19815 X668.709 Y907.823
N19820 X667.72 Y907.76
N19825 X666.734 Y907.658
N19830 X665.753 Y907.518
N19835 X664.778 Y907.338
N19840 X663.811 Y907.12
N19845 X662.853 Y906.864
N19850 X614.238 Y991.068
N19855 X607.309 Y987.068
N19860 X589.81 Y1017.379
N19865 X582.015 Y1012.879
N19870 X572.015 Y1030.2
N19875 X537.374 Y1010.2
N19880 X547.374 Y992.879
N19885 X539.58 Y988.379
N19890 X557.08 Y958.068
N19895 X550.152 Y954.068
N19900 X579.146 Y903.849
N19905 Z45. F2000.
N19910 G00 X698.238 Y845.576
N19915 G01 Z0. F2000.
N19920 X695.242 Y843.846 F3000.
N19925 X695.496 Y842.694
N19930 X695.711 Y841.534
N19935 X695.887 Y840.368
N19940 X696.023 Y839.196
N19945 X696.12 Y838.02
N19950 X696.177 Y836.841
N19955 X696.195 Y835.662
N19960 X696.172 Y834.482
N19965 X696.11 Y833.304
N19970 X696.008 Y832.128
N19975 X695.867 Y830.957
N19980 X695.686 Y829.791
N19985 X695.466 Y828.632
N19990 X695.207 Y827.481
N19995 X694.91 Y826.339
N20000 X694.574 Y825.208
N20005 X694.2 Y824.089
N20010 X693.789 Y822.983
N20015 X693.34 Y821.892
N20020 X692.855 Y820.816
N20025 X692.334 Y819.757
N20030 X691.778 Y818.717
N20035 X691.187 Y817.696
N20040 X690.562 Y816.695
N20045 X689.904 Y815.716
N20050 X689.212 Y814.76
N20055 X688.489 Y813.827
N20060 X687.736 Y812.92
N20065 X686.951 Y812.038
N20070 X686.138 Y811.184
N20075 X685.296 Y810.357
N20080 X684.427 Y809.559
N20085 X683.532 Y808.791
N20090 X682.611 Y808.053
N20095 X681.666 Y807.347
N20100 X680.697 Y806.673
N20105 X679.706 Y806.032
N20110 X678.695 Y805.425
N20115 X677.663 Y804.853
N20120 X676.613 Y804.315
N20125 X675.545 Y803.813
N20130 X674.461 Y803.348
N20135 X673.362 Y802.919
N20140 X672.249 Y802.528
N20145 X671.123 Y802.174
N20150 X669.986 Y801.858
N20155 X668.839 Y801.581
N20160 X667.684 Y801.343
N20165 X666.521 Y801.144
N20170 X665.352 Y800.984
N20175 X664.178 Y800.864
N20180 X663.001 Y800.783
N20185 X661.822 Y800.742
N20190 X660.642 Y800.741
N20195 X659.463 Y800.779
N20200 X658.286 Y800.857
N20205 X657.112 Y800.975
N20210 X655.942 Y801.133
N20215 X654.779 Y801.329
N20220 X653.623 Y801.565
N20225 X652.476 Y801.84
N20230 X651.338 Y802.153
N20235 X650.212 Y802.504
N20240 X649.098 Y802.893
N20245 X647.998 Y803.32
N20250 X646.913 Y803.783
N20255 X645.844 Y804.282
N20260 X644.792 Y804.818
N20265 X643.759 Y805.388
N20270 X642.746 Y805.993
N20275 X641.754 Y806.632
N20280 X640.785 Y807.303
N20285 X639.838 Y808.008
N20290 X638.915 Y808.743
N20295 X638.018 Y809.509
N20300 X637.147 Y810.305
N20305 X634.152 Y808.576
N20310 Z45. F2000.
N20315 G00 Z55.

(2D CONTOUR3)
N20325 G00 X732.388 Y990.591
N20330 Z55.
N20335 Z45.
N20340 G01 Z41. F2000.
N20345 Z0.
N20350 X732.411 Y996.591
N20355 G03 X731.618 Y999.594 A119.789 R6.
N20360 X633.828 Y1029.778 A205.904 R74.95 F3000.
N20365 X631.704 Y1022.851 A300. R4.95
N20370 G01 X701.525 Y901.917
N20375 G03 X708.587 Y900.292 A34.091 R4.95
N20380 X731.618 Y999.594 A119.789 R74.95
N20385 X729.43 Y1001.798 A149.789 R6. F2000.
N20390 G01 X724.245 Y1004.817
N20395 G00 Z45.
N20400 X758.854 Y1043.196
N20405 G01 Z41. F2000.
N20410 Z0.
N20415 X755.854 Y1038.
N20420 G03 X755.05 Y1035. A270. R6.
N20425 G01 Y735. F3000.
N20430 G02 X740. Y719.95 A180. R15.05
N20435 G01 X535.
N20440 G02 X519.95 Y735. A90. R15.05
N20445 G01 Y1035.
N20450 G02 X535. Y1050.05 A0. R15.05
N20455 G01 X740.
N20460 G02 X755.05 Y1035. A270. R15.05
N20465 G03 X755.854 Y1032. A300. R6. F2000.
N20470 G01 X758.854 Y1026.804
N20475 G00 Z45.
N20480 X604.495 Y783.189
N20485 G01 Z41. F2000.
N20490 Z0.
N20495 Y789.189
N20500 G03 X603.691 Y792.189 A120. R6.
N20505 G01 X563.617 Y861.599 F3000.
