(bunn lokk imenco)
O1001
(T2 D=12. CR=0. - ZMIN=30. - FLAT END MILL)
(T25 D=0.1 CR=0. - ZMIN=0. - FLAT END MILL)
N10 G90 G94 G17 G49 G40 G80
N15 G28 G91 Z0.
N20 G90

(2D CONTOUR1)
N25 T2 M06
(SKUMFRESSKRUBB)
N30 S24000 M03
N35 G54
N45 G00 X532.9 Y1066.2
N50 G43 Z55. H02
N55 G00 Z45.
N60 G01 Z41. F3000.
N65 Z31.2
N70 G18 G02 X534.1 Z30. R1.2
N75 G01 X535.3
N80 G17 G02 X536.5 Y1065. R1.2
N85 G01 Y765. F12000.
N90 G03 X547.5 Y754. R11.
N95 G01 X752.5
N100 G03 X763.5 Y765. R11.
N105 G01 Y1065.
N110 G03 X752.5 Y1076. R11.
N115 G01 X547.5
N120 G03 X536.5 Y1065. R11.
N125 G02 X535.3 Y1063.8 R1.2 F3000.
N130 G01 X534.1
N135 G18 G03 X532.9 Z31.2 R1.2
N140 G00 Z45.
N145 X517.1
N150 G01 Z41. F3000.
N155 Z31.2
N160 G03 X515.9 Z30. R1.2
N165 G01 X514.7
N170 G17 G02 X513.5 Y1065. R1.2
N175 G03 X502.5 Y1076. R11. F12000.
N180 G01 X297.5
N185 G03 X286.5 Y1065. R11.
N190 G01 Y765.
N195 G03 X297.5 Y754. R11.
N200 G01 X502.5
N205 G03 X513.5 Y765. R11.
N210 G01 Y1065.
N215 G02 X514.7 Y1066.2 R1.2 F3000.
N220 G01 X515.9
N225 G18 G02 X517.1 Z31.2 R1.2
N230 G00 Z45.
N235 X511.375 Y1103.345
N240 G01 Z41. F3000.
N245 Z31.2
N250 X511.37 Y1103.351 Z31.066
N255 X511.355 Y1103.367 Z30.933
N260 X511.33 Y1103.395 Z30.804
N265 X511.295 Y1103.433 Z30.679
N270 X511.252 Y1103.482 Z30.562
N275 X511.2 Y1103.54 Z30.452
N280 X511.14 Y1103.606 Z30.351
N285 X511.073 Y1103.681 Z30.262
N290 X510.999 Y1103.763 Z30.184
N295 X510.92 Y1103.85 Z30.119
N300 X510.837 Y1103.942 Z30.067
N305 X510.751 Y1104.039 Z30.03
N310 X510.662 Y1104.137 Z30.008
N315 X510.572 Y1104.237 Z30.
N320 X509.769 Y1105.129
N325 G17 G02 X509.859 Y1106.824 R1.2
N330 G03 X513.5 Y1115. R11. F12000.
N335 G01 Y1415.
N340 G03 X502.5 Y1426. R11.
N345 G01 X297.5
N350 G03 X286.5 Y1415. R11.
N355 G01 Y1115.
N360 G03 X297.5 Y1104. R11.
N365 G01 X502.5
N370 G03 X509.859 Y1106.824 R11.
N375 G02 X511.553 Y1106.735 R1.2 F3000.
N380 G01 X512.356 Y1105.843
N385 X512.446 Y1105.743 Z30.008
N390 X512.535 Y1105.644 Z30.03
N395 X512.621 Y1105.548 Z30.067
N400 X512.704 Y1105.456 Z30.119
N405 X512.783 Y1105.368 Z30.184
N410 X512.857 Y1105.287 Z30.262
N415 X512.924 Y1105.212 Z30.351
N420 X512.984 Y1105.145 Z30.452
N425 X513.036 Y1105.087 Z30.562
N430 X513.079 Y1105.039 Z30.679
N435 X513.114 Y1105.001 Z30.804
N440 X513.139 Y1104.973 Z30.933
N445 X513.154 Y1104.956 Z31.066
N450 X513.159 Y1104.951 Z31.2
N455 G00 Z45.
N460 X532.9 Y1116.2
N465 G01 Z41. F3000.
N470 Z31.2
N475 G18 G02 X534.1 Z30. R1.2
N480 G01 X535.3
N485 G17 G02 X536.5 Y1115. R1.2
N490 G03 X547.5 Y1104. R11. F12000.
N495 G01 X752.5
N500 G03 X763.5 Y1115. R11.
N505 G01 Y1415.
N510 G03 X752.5 Y1426. R11.
N515 G01 X547.5
N520 G03 X536.5 Y1415. R11.
N525 G01 Y1115.
N530 G02 X535.3 Y1113.8 R1.2 F3000.
N535 G01 X534.1
N540 G18 G03 X532.9 Z31.2 R1.2
N545 G00 Z45.
N550 X782.9 Y1116.2
N555 G01 Z41. F3000.
N560 Z31.2
N565 G02 X784.1 Z30. R1.2
N570 G01 X785.3
N575 G17 G02 X786.5 Y1115. R1.2
N580 G03 X797.5 Y1104. R11. F12000.
N585 G01 X1002.5
N590 G03 X1013.5 Y1115. R11.
N595 G01 Y1415.
N600 G03 X1002.5 Y1426. R11.
N605 G01 X797.5
N610 G03 X786.5 Y1415. R11.
N615 G01 Y1115.
N620 G02 X785.3 Y1113.8 R1.2 F3000.
N625 G01 X784.1
N630 G18 G03 X782.9 Z31.2 R1.2
N635 G00 Z45.
N640 X788.625 Y1076.655
N645 G01 Z41. F3000.
N650 Z31.2
N655 X788.63 Y1076.649 Z31.066
N660 X788.645 Y1076.633 Z30.933
N665 X788.67 Y1076.605 Z30.804
N670 X788.705 Y1076.567 Z30.679
N675 X788.748 Y1076.518 Z30.562
N680 X788.8 Y1076.46 Z30.452
N685 X788.86 Y1076.394 Z30.351
N690 X788.927 Y1076.319 Z30.262
N695 X789.001 Y1076.237 Z30.184
N700 X789.079 Y1076.15 Z30.119
N705 X789.163 Y1076.058 Z30.067
N710 X789.249 Y1075.961 Z30.03
N715 X789.338 Y1075.863 Z30.008
N720 X789.428 Y1075.763 Z30.
N725 X790.231 Y1074.871
N730 G17 G02 X790.141 Y1073.176 R1.2
N735 G03 X786.5 Y1065. R11. F12000.
N740 G01 Y765.
N745 G03 X797.5 Y754. R11.
N750 G01 X1002.5
N755 G03 X1013.5 Y765. R11.
N760 G01 Y1065.
N765 G03 X1002.5 Y1076. R11.
N770 G01 X797.5
N775 G03 X790.141 Y1073.176 R11.
N780 G02 X788.447 Y1073.265 R1.2 F3000.
N785 G01 X787.644 Y1074.157
N790 X787.554 Y1074.257 Z30.008
N795 X787.465 Y1074.356 Z30.03
N800 X787.379 Y1074.452 Z30.067
N805 X787.296 Y1074.544 Z30.119
N810 X787.217 Y1074.632 Z30.184
N815 X787.143 Y1074.713 Z30.262
N820 X787.076 Y1074.788 Z30.351
N825 X787.016 Y1074.855 Z30.452
N830 X786.964 Y1074.913 Z30.562
N835 X786.921 Y1074.961 Z30.679
N840 X786.886 Y1074.999 Z30.804
N845 X786.861 Y1075.027 Z30.933
N850 X786.846 Y1075.044 Z31.066
N855 X786.841 Y1075.049 Z31.2
N860 G00 Z45.
N865 X798.7 Y729.6
N870 G01 Z41. F3000.
N875 Z31.2
N880 G19 G02 Y728.4 Z30. R1.2
N885 G01 Y727.2
N890 G17 G02 X797.5 Y726. R1.2
N895 G03 X786.5 Y715. R11. F12000.
N900 G01 Y415.
N905 G03 X797.5 Y404. R11.
N910 G01 X1002.5
N915 G03 X1013.5 Y415. R11.
N920 G01 Y715.
N925 G03 X1002.5 Y726. R11.
N930 G01 X797.5
N935 G02 X796.3 Y727.2 R1.2 F3000.
N940 G01 Y728.4
N945 G19 G03 Y729.6 Z31.2 R1.2
N950 G00 Z45.
N955 X763.159 Y725.049
N960 G01 Z41. F3000.
N965 Z31.2
N970 X763.154 Y725.044 Z31.066
N975 X763.139 Y725.027 Z30.933
N980 X763.114 Y724.999 Z30.804
N985 X763.079 Y724.961 Z30.679
N990 X763.036 Y724.913 Z30.562
N995 X762.984 Y724.855 Z30.452
N1000 X762.924 Y724.788 Z30.351
N1005 X762.857 Y724.714 Z30.262
N1010 X762.783 Y724.632 Z30.184
N1015 X762.704 Y724.544 Z30.119
N1020 X762.621 Y724.452 Z30.067
N1025 X762.535 Y724.356 Z30.03
N1030 X762.446 Y724.257 Z30.008
N1035 X762.356 Y724.157 Z30.
N1040 X761.553 Y723.265
N1045 G17 G02 X759.859 Y723.176 R1.2
N1050 G03 X752.5 Y726. R11. F12000.
N1055 G01 X547.5
N1060 G03 X536.5 Y715. R11.
N1065 G01 Y415.
N1070 G03 X547.5 Y404. R11.
N1075 G01 X752.5
N1080 G03 X763.5 Y415. R11.
N1085 G01 Y715.
N1090 G03 X759.859 Y723.176 R11.
N1095 G02 X759.769 Y724.871 R1.2 F3000.
N1100 G01 X760.572 Y725.763
N1105 X760.662 Y725.863 Z30.008
N1110 X760.751 Y725.961 Z30.03
N1115 X760.837 Y726.057 Z30.067
N1120 X760.921 Y726.15 Z30.119
N1125 X760.999 Y726.237 Z30.184
N1130 X761.073 Y726.319 Z30.262
N1135 X761.14 Y726.394 Z30.351
N1140 X761.2 Y726.46 Z30.452
N1145 X761.252 Y726.518 Z30.562
N1150 X761.295 Y726.567 Z30.679
N1155 X761.33 Y726.605 Z30.804
N1160 X761.355 Y726.632 Z30.933
N1165 X761.37 Y726.649 Z31.066
N1170 X761.375 Y726.655 Z31.2
N1175 G00 Z45.
N1180 X517.1 Y713.8
N1185 G01 Z41. F3000.
N1190 Z31.2
N1195 G18 G03 X515.9 Z30. R1.2
N1200 G01 X514.7
N1205 G17 G02 X513.5 Y715. R1.2
N1210 G03 X502.5 Y726. R11. F12000.
N1215 G01 X297.5
N1220 G03 X286.5 Y715. R11.
N1225 G01 Y415.
N1230 G03 X297.5 Y404. R11.
N1235 G01 X502.5
N1240 G03 X513.5 Y415. R11.
N1245 G01 Y715.
N1250 G02 X514.7 Y716.2 R1.2 F3000.
N1255 G01 X515.9
N1260 G18 G02 X517.1 Z31.2 R1.2
N1265 G00 Z45.
N1270 X267.1 Y713.8
N1275 G01 Z41. F3000.
N1280 Z31.2
N1285 G03 X265.9 Z30. R1.2
N1290 G01 X264.7
N1295 G17 G02 X263.5 Y715. R1.2
N1300 G03 X252.5 Y726. R11. F12000.
N1305 G01 X47.5
N1310 G03 X36.5 Y715. R11.
N1315 G01 Y415.
N1320 G03 X47.5 Y404. R11.
N1325 G01 X252.5
N1330 G03 X263.5 Y415. R11.
N1335 G01 Y715.
N1340 G02 X264.7 Y716.2 R1.2 F3000.
N1345 G01 X265.9
N1350 G18 G02 X267.1 Z31.2 R1.2
N1355 G00 Z45.
N1360 X261.375 Y753.345
N1365 G01 Z41. F3000.
N1370 Z31.2
N1375 X261.37 Y753.351 Z31.066
N1380 X261.355 Y753.368 Z30.933
N1385 X261.33 Y753.395 Z30.804
N1390 X261.295 Y753.433 Z30.679
N1395 X261.252 Y753.482 Z30.562
N1400 X261.2 Y753.54 Z30.452
N1405 X261.14 Y753.606 Z30.351
N1410 X261.073 Y753.681 Z30.262
N1415 X260.999 Y753.763 Z30.184
N1420 X260.92 Y753.85 Z30.119
N1425 X260.837 Y753.943 Z30.067
N1430 X260.751 Y754.039 Z30.03
N1435 X260.662 Y754.137 Z30.008
N1440 X260.572 Y754.237 Z30.
N1445 X259.769 Y755.129
N1450 G17 G02 X259.859 Y756.824 R1.2
N1455 G03 X263.5 Y765. R11. F12000.
N1460 G01 Y1065.
N1465 G03 X252.5 Y1076. R11.
N1470 G01 X47.5
N1475 G03 X36.5 Y1065. R11.
N1480 G01 Y765.
N1485 G03 X47.5 Y754. R11.
N1490 G01 X252.5
N1495 G03 X259.859 Y756.824 R11.
N1500 G02 X261.553 Y756.735 R1.2 F3000.
N1505 G01 X262.356 Y755.843
N1510 X262.446 Y755.743 Z30.008
N1515 X262.535 Y755.644 Z30.03
N1520 X262.621 Y755.548 Z30.067
N1525 X262.704 Y755.456 Z30.119
N1530 X262.783 Y755.368 Z30.184
N1535 X262.857 Y755.286 Z30.262
N1540 X262.924 Y755.212 Z30.351
N1545 X262.984 Y755.145 Z30.452
N1550 X263.036 Y755.087 Z30.562
N1555 X263.079 Y755.039 Z30.679
N1560 X263.114 Y755.001 Z30.804
N1565 X263.139 Y754.973 Z30.933
N1570 X263.154 Y754.956 Z31.066
N1575 X263.159 Y754.951 Z31.2
N1580 G00 Z45.
N1585 X251.3 Y1100.4
N1590 G01 Z41. F3000.
N1595 Z31.2
N1600 G19 G03 Y1101.6 Z30. R1.2
N1605 G01 Y1102.8
N1610 G17 G02 X252.5 Y1104. R1.2
N1615 G03 X263.5 Y1115. R11. F12000.
N1620 G01 Y1415.
N1625 G03 X252.5 Y1426. R11.
N1630 G01 X47.5
N1635 G03 X36.5 Y1415. R11.
N1640 G01 Y1115.
N1645 G03 X47.5 Y1104. R11.
N1650 G01 X252.5
N1655 G02 X253.7 Y1102.8 R1.2 F3000.
N1660 G01 Y1101.6
N1665 G19 G02 Y1100.4 Z31.2 R1.2
N1670 G00 Z45.
N1675 X251.3 Y1450.4
N1680 G01 Z41. F3000.
N1685 Z31.2
N1690 G03 Y1451.6 Z30. R1.2
N1695 G01 Y1452.8
N1700 G17 G02 X252.5 Y1454. R1.2
N1705 G03 X263.5 Y1465. R11. F12000.
N1710 G01 Y1765.
N1715 G03 X252.5 Y1776. R11.
N1720 G01 X47.5
N1725 G03 X36.5 Y1765. R11.
N1730 G01 Y1465.
N1735 G03 X47.5 Y1454. R11.
N1740 G01 X252.5
N1745 G02 X253.7 Y1452.8 R1.2 F3000.
N1750 G01 Y1451.6
N1755 G19 G02 Y1450.4 Z31.2 R1.2
N1760 G00 Z45.
N1765 X286.841 Y1454.951
N1770 G01 Z41. F3000.
N1775 Z31.2
N1780 X286.846 Y1454.956 Z31.066
N1785 X286.861 Y1454.973 Z30.933
N1790 X286.886 Y1455.001 Z30.804
N1795 X286.921 Y1455.039 Z30.679
N1800 X286.964 Y1455.087 Z30.562
N1805 X287.016 Y1455.145 Z30.452
N1810 X287.076 Y1455.212 Z30.351
N1815 X287.143 Y1455.287 Z30.262
N1820 X287.217 Y1455.368 Z30.184
N1825 X287.296 Y1455.456 Z30.119
N1830 X287.379 Y1455.548 Z30.067
N1835 X287.465 Y1455.644 Z30.03
N1840 X287.554 Y1455.743 Z30.008
N1845 X287.644 Y1455.843 Z30.
N1850 X288.447 Y1456.735
N1855 G17 G02 X290.141 Y1456.824 R1.2
N1860 G03 X297.5 Y1454. R11. F12000.
N1865 G01 X502.5
N1870 G03 X513.5 Y1465. R11.
N1875 G01 Y1765.
N1880 G03 X502.5 Y1776. R11.
N1885 G01 X297.5
N1890 G03 X286.5 Y1765. R11.
N1895 G01 Y1465.
N1900 G03 X290.141 Y1456.824 R11.
N1905 G02 X290.231 Y1455.129 R1.2 F3000.
N1910 G01 X289.428 Y1454.237
N1915 X289.338 Y1454.137 Z30.008
N1920 X289.249 Y1454.039 Z30.03
N1925 X289.163 Y1453.942 Z30.067
N1930 X289.08 Y1453.85 Z30.119
N1935 X289.001 Y1453.763 Z30.184
N1940 X288.927 Y1453.681 Z30.262
N1945 X288.86 Y1453.606 Z30.351
N1950 X288.8 Y1453.54 Z30.452
N1955 X288.748 Y1453.482 Z30.562
N1960 X288.705 Y1453.433 Z30.679
N1965 X288.67 Y1453.395 Z30.804
N1970 X288.645 Y1453.367 Z30.933
N1975 X288.63 Y1453.351 Z31.066
N1980 X288.625 Y1453.345 Z31.2
N1985 G00 Z45.
N1990 X532.9 Y1466.2
N1995 G01 Z41. F3000.
N2000 Z31.2
N2005 G18 G02 X534.1 Z30. R1.2
N2010 G01 X535.3
N2015 G17 G02 X536.5 Y1465. R1.2
N2020 G03 X547.5 Y1454. R11. F12000.
N2025 G01 X752.5
N2030 G03 X763.5 Y1465. R11.
N2035 G01 Y1765.
N2040 G03 X752.5 Y1776. R11.
N2045 G01 X547.5
N2050 G03 X536.5 Y1765. R11.
N2055 G01 Y1465.
N2060 G02 X535.3 Y1463.8 R1.2 F3000.
N2065 G01 X534.1
N2070 G18 G03 X532.9 Z31.2 R1.2
N2075 G00 Z45.
N2080 X782.9 Y1466.2
N2085 G01 Z41. F3000.
N2090 Z31.2
N2095 G02 X784.1 Z30. R1.2
N2100 G01 X785.3
N2105 G17 G02 X786.5 Y1465. R1.2
N2110 G03 X797.5 Y1454. R11. F12000.
N2115 G01 X1002.5
N2120 G03 X1013.5 Y1465. R11.
N2125 G01 Y1765.
N2130 G03 X1002.5 Y1776. R11.
N2135 G01 X797.5
N2140 G03 X786.5 Y1765. R11.
N2145 G01 Y1465.
N2150 G02 X785.3 Y1463.8 R1.2 F3000.
N2155 G01 X784.1
N2160 G18 G03 X782.9 Z31.2 R1.2
N2165 G00 Z45.
N2170 X788.625 Y376.655
N2175 G01 Z41. F3000.
N2180 Z31.2
N2185 X788.63 Y376.649 Z31.066
N2190 X788.645 Y376.632 Z30.933
N2195 X788.67 Y376.605 Z30.804
N2200 X788.705 Y376.567 Z30.679
N2205 X788.748 Y376.518 Z30.562
N2210 X788.8 Y376.46 Z30.452
N2215 X788.86 Y376.394 Z30.351
N2220 X788.927 Y376.319 Z30.262
N2225 X789.001 Y376.237 Z30.184
N2230 X789.079 Y376.15 Z30.119
N2235 X789.163 Y376.058 Z30.067
N2240 X789.249 Y375.961 Z30.03
N2245 X789.338 Y375.863 Z30.008
N2250 X789.428 Y375.763 Z30.
N2255 X790.231 Y374.871
N2260 G17 G02 X790.141 Y373.176 R1.2
N2265 G03 X786.5 Y365. R11. F12000.
N2270 G01 Y65.
N2275 G03 X797.5 Y54. R11.
N2280 G01 X1002.5
N2285 G03 X1013.5 Y65. R11.
N2290 G01 Y365.
N2295 G03 X1002.5 Y376. R11.
N2300 G01 X797.5
N2305 G03 X790.141 Y373.176 R11.
N2310 G02 X788.447 Y373.265 R1.2 F3000.
N2315 G01 X787.644 Y374.157
N2320 X787.554 Y374.257 Z30.008
N2325 X787.465 Y374.356 Z30.03
N2330 X787.379 Y374.452 Z30.067
N2335 X787.296 Y374.544 Z30.119
N2340 X787.217 Y374.632 Z30.184
N2345 X787.143 Y374.714 Z30.262
N2350 X787.076 Y374.788 Z30.351
N2355 X787.016 Y374.855 Z30.452
N2360 X786.964 Y374.913 Z30.562
N2365 X786.921 Y374.961 Z30.679
N2370 X786.886 Y374.999 Z30.804
N2375 X786.861 Y375.027 Z30.933
N2380 X786.846 Y375.044 Z31.066
N2385 X786.841 Y375.049 Z31.2
N2390 G00 Z45.
N2395 X767.1 Y363.8
N2400 G01 Z41. F3000.
N2405 Z31.2
N2410 G18 G03 X765.9 Z30. R1.2
N2415 G01 X764.7
N2420 G17 G02 X763.5 Y365. R1.2
N2425 G03 X752.5 Y376. R11. F12000.
N2430 G01 X547.5
N2435 G03 X536.5 Y365. R11.
N2440 G01 Y65.
N2445 G03 X547.5 Y54. R11.
N2450 G01 X752.5
N2455 G03 X763.5 Y65. R11.
N2460 G01 Y365.
N2465 G02 X764.7 Y366.2 R1.2 F3000.
N2470 G01 X765.9
N2475 G18 G02 X767.1 Z31.2 R1.2
N2480 G00 Z45.
N2485 X517.1 Y363.8
N2490 G01 Z41. F3000.
N2495 Z31.2
N2500 G03 X515.9 Z30. R1.2
N2505 G01 X514.7
N2510 G17 G02 X513.5 Y365. R1.2
N2515 G03 X502.5 Y376. R11. F12000.
N2520 G01 X297.5
N2525 G03 X286.5 Y365. R11.
N2530 G01 Y65.
N2535 G03 X297.5 Y54. R11.
N2540 G01 X502.5
N2545 G03 X513.5 Y65. R11.
N2550 G01 Y365.
N2555 G02 X514.7 Y366.2 R1.2 F3000.
N2560 G01 X515.9
N2565 G18 G02 X517.1 Z31.2 R1.2
N2570 G00 Z45.
N2575 X267.1 Y363.8
N2580 G01 Z41. F3000.
N2585 Z31.2
N2590 G03 X265.9 Z30. R1.2
N2595 G01 X264.7
N2600 G17 G02 X263.5 Y365. R1.2
N2605 G03 X252.5 Y376. R11. F12000.
N2610 G01 X47.5
N2615 G03 X36.5 Y365. R11.
N2620 G01 Y65.
N2625 G03 X47.5 Y54. R11.
N2630 G01 X252.5
N2635 G03 X263.5 Y65. R11.
N2640 G01 Y365.
N2645 G02 X264.7 Y366.2 R1.2 F3000.
N2650 G01 X265.9
N2655 G18 G02 X267.1 Z31.2 R1.2
N2660 G00 Z55.
N2665 G17
N2670 M05
N2675 G28 G91 Z0.
N2680 G90
N2685 G49

(2D CONTOUR2)
N2690 T25 M06
N2695 S5000 M03
N2700 G56
N2710 G00 X526.11 Y751.34
N2715 G43 Z55. H25
N2720 G00 Z45.
N2725 G01 Z41. F2000.
N2730 Z0.
N2735 X531.11 Y760.
N2740 G03 X532.45 Y765. A90. R10.
N2745 G01 Y1065. F3000.
N2750 G02 X547.5 Y1080.05 A0. R15.05
N2755 G01 X752.5
N2760 G02 X767.55 Y1065. A270. R15.05
N2765 G01 Y765.
N2770 G02 X752.5 Y749.95 A180. R15.05
N2775 G01 X547.5
N2780 G02 X532.45 Y765. A90. R15.05
N2785 G03 X531.11 Y770. A120. R10. F2000.
N2790 G01 X526.11 Y778.66
N2795 G00 Z45.
N2800 X523.89
N2805 G01 Z41. F2000.
N2810 Z0.
N2815 X518.89 Y770.
N2820 G03 X517.55 Y765. A270. R10.
N2825 G02 X502.5 Y749.95 A180. R15.05 F3000.
N2830 G01 X297.5
N2835 G02 X282.45 Y765. A90. R15.05
N2840 G01 Y1065.
N2845 G02 X297.5 Y1080.05 A0. R15.05
N2850 G01 X502.5
N2855 G02 X517.55 Y1065. A270. R15.05
N2860 G01 Y765.
N2865 G03 X518.89 Y760. A300. R10. F2000.
N2870 G01 X523.89 Y751.34
N2875 G00 Z45.
N2880 X506.655 Y740.037
N2885 G01 Z41. F2000.
N2890 Z0.
N2895 X509.748 Y730.527
N2900 G03 X512.568 Y726.187 A318.013 R10.
N2905 G02 X517.55 Y715. A270. R15.05 F3000.
N2910 G01 Y415.
N2915 G02 X502.5 Y399.95 A180. R15.05
N2920 G01 X297.5
N2925 G02 X282.45 Y415. A90. R15.05
N2930 G01 Y715.
N2935 G02 X297.5 Y730.05 A0. R15.05
N2940 G01 X502.5
N2945 G02 X512.568 Y726.187 A318.013 R15.05
N2950 G03 X517.181 Y723.838 A348.013 R10. F2000.
N2955 G01 X526.963 Y721.761
N2960 G00 Z45.
N2965 X526.11 Y701.34
N2970 G01 Z41. F2000.
N2975 Z0.
N2980 X531.11 Y710.
N2985 G03 X532.45 Y715. A90. R10.
N2990 G02 X547.5 Y730.05 A0. R15.05 F3000.
N2995 G01 X752.5
N3000 G02 X767.55 Y715. A270. R15.05
N3005 G01 Y415.
N3010 G02 X752.5 Y399.95 A180. R15.05
N3015 G01 X547.5
N3020 G02 X532.45 Y415. A90. R15.05
N3025 G01 Y715.
N3030 G03 X531.11 Y720. A120. R10. F2000.
N3035 G01 X526.11 Y728.66
N3040 G00 Z45.
N3045 X773.037 Y721.761
N3050 G01 Z41. F2000.
N3055 Z0.
N3060 X782.819 Y723.838
N3065 G03 X787.432 Y726.187 A41.987 R10.
N3070 G02 X797.5 Y730.05 A0. R15.05 F3000.
N3075 G01 X1002.5
N3080 G02 X1017.55 Y715. A270. R15.05
N3085 G01 Y415.
N3090 G02 X1002.5 Y399.95 A180. R15.05
N3095 G01 X797.5
N3100 G02 X782.45 Y415. A90. R15.05
N3105 G01 Y715.
N3110 G02 X787.432 Y726.187 A41.987 R15.05
N3115 G03 X790.252 Y730.527 A71.987 R10. F2000.
N3120 G01 X793.345 Y740.037
N3125 G00 Z45.
N3130 X811.16 Y743.61
N3135 G01 Z41. F2000.
N3140 Z0.
N3145 X802.5 Y748.61
N3150 G03 X797.5 Y749.95 A180. R10.
N3155 G02 X782.45 Y765. A90. R15.05 F3000.
N3160 G01 Y1065.
N3165 G02 X797.5 Y1080.05 A0. R15.05
N3170 G01 X1002.5
N3175 G02 X1017.55 Y1065. A270. R15.05
N3180 G01 Y765.
N3185 G02 X1002.5 Y749.95 A180. R15.05
N3190 G01 X797.5
N3195 G03 X792.5 Y748.61 A210. R10. F2000.
N3200 G01 X783.84 Y743.61
N3205 G00 Z45.
N3210 X793.345 Y1089.963
N3215 G01 Z41. F2000.
N3220 Z0.
N3225 X790.252 Y1099.473
N3230 G03 X787.432 Y1103.813 A138.013 R10.
N3235 G02 X782.45 Y1115. A90. R15.05 F3000.
N3240 G01 Y1415.
N3245 G02 X797.5 Y1430.05 A0. R15.05
N3250 G01 X1002.5
N3255 G02 X1017.55 Y1415. A270. R15.05
N3260 G01 Y1115.
N3265 G02 X1002.5 Y1099.95 A180. R15.05
N3270 G01 X797.5
N3275 G02 X787.432 Y1103.813 A138.013 R15.05
N3280 G03 X782.819 Y1106.162 A168.013 R10. F2000.
N3285 G01 X773.037 Y1108.239
N3290 G00 Z45.
N3295 X773.89 Y1128.66
N3300 G01 Z41. F2000.
N3305 Z0.
N3310 X768.89 Y1120.
N3315 G03 X767.55 Y1115. A270. R10.
N3320 G02 X752.5 Y1099.95 A180. R15.05 F3000.
N3325 G01 X547.5
N3330 G02 X532.45 Y1115. A90. R15.05
N3335 G01 Y1415.
N3340 G02 X547.5 Y1430.05 A0. R15.05
N3345 G01 X752.5
N3350 G02 X767.55 Y1415. A270. R15.05
N3355 G01 Y1115.
N3360 G03 X768.89 Y1110. A300. R10. F2000.
N3365 G01 X773.89 Y1101.34
N3370 G00 Z45.
N3375 X526.963 Y1108.239
N3380 G01 Z41. F2000.
N3385 Z0.
N3390 X517.181 Y1106.162
N3395 G03 X512.568 Y1103.813 A221.987 R10.
N3400 G02 X502.5 Y1099.95 A180. R15.05 F3000.
N3405 G01 X297.5
N3410 G02 X282.45 Y1115. A90. R15.05
N3415 G01 Y1415.
N3420 G02 X297.5 Y1430.05 A0. R15.05
N3425 G01 X502.5
N3430 G02 X517.55 Y1415. A270. R15.05
N3435 G01 Y1115.
N3440 G02 X512.568 Y1103.813 A221.987 R15.05
N3445 G03 X509.748 Y1099.473 A251.987 R10. F2000.
N3450 G01 X506.655 Y1089.963
N3455 G00 Z45.
N3460 X256.655 Y1090.037
N3465 G01 Z41. F2000.
N3470 Z0.
N3475 X259.748 Y1080.527
N3480 G03 X262.568 Y1076.187 A318.013 R10.
N3485 G02 X267.55 Y1065. A270. R15.05 F3000.
N3490 G01 Y765.
N3495 G02 X252.5 Y749.95 A180. R15.05
N3500 G01 X47.5
N3505 G02 X32.45 Y765. A90. R15.05
N3510 G01 Y1065.
N3515 G02 X47.5 Y1080.05 A0. R15.05
N3520 G01 X252.5
N3525 G02 X262.568 Y1076.187 A318.013 R15.05
N3530 G03 X267.181 Y1073.838 A348.013 R10. F2000.
N3535 G01 X276.963 Y1071.761
N3540 G00 Z45.
N3545 Y1108.239
N3550 G01 Z41. F2000.
N3555 Z0.
N3560 X267.181 Y1106.162
N3565 G03 X262.568 Y1103.813 A221.987 R10.
N3570 G02 X252.5 Y1099.95 A180. R15.05 F3000.
N3575 G01 X47.5
N3580 G02 X32.45 Y1115. A90. R15.05
N3585 G01 Y1415.
N3590 G02 X47.5 Y1430.05 A0. R15.05
N3595 G01 X252.5
N3600 G02 X267.55 Y1415. A270. R15.05
N3605 G01 Y1115.
N3610 G02 X262.568 Y1103.813 A221.987 R15.05
N3615 G03 X259.748 Y1099.473 A251.987 R10. F2000.
N3620 G01 X256.655 Y1089.963
N3625 G00 Z45.
N3630 X238.84 Y736.39
N3635 G01 Z41. F2000.
N3640 Z0.
N3645 X247.5 Y731.39
N3650 G03 X252.5 Y730.05 A0. R10.
N3655 G02 X267.55 Y715. A270. R15.05 F3000.
N3660 G01 Y415.
N3665 G02 X252.5 Y399.95 A180. R15.05
N3670 G01 X47.5
N3675 G02 X32.45 Y415. A90. R15.05
N3680 G01 Y715.
N3685 G02 X47.5 Y730.05 A0. R15.05
N3690 G01 X252.5
N3695 G03 X257.5 Y731.39 A30. R10. F2000.
N3700 G01 X266.16 Y736.39
N3705 G00 Z45.
N3710 X256.655 Y390.037
N3715 G01 Z41. F2000.
N3720 Z0.
N3725 X259.748 Y380.527
N3730 G03 X262.568 Y376.187 A318.013 R10.
N3735 G02 X267.55 Y365. A270. R15.05 F3000.
N3740 G01 Y65.
N3745 G02 X252.5 Y49.95 A180. R15.05
N3750 G01 X47.5
N3755 G02 X32.45 Y65. A90. R15.05
N3760 G01 Y365.
N3765 G02 X47.5 Y380.05 A0. R15.05
N3770 G01 X252.5
N3775 G02 X262.568 Y376.187 A318.013 R15.05
N3780 G03 X267.181 Y373.838 A348.013 R10. F2000.
N3785 G01 X276.963 Y371.761
N3790 G00 Z45.
N3795 X276.11 Y351.34
N3800 G01 Z41. F2000.
N3805 Z0.
N3810 X281.11 Y360.
N3815 G03 X282.45 Y365. A90. R10.
N3820 G02 X297.5 Y380.05 A0. R15.05 F3000.
N3825 G01 X502.5
N3830 G02 X517.55 Y365. A270. R15.05
N3835 G01 Y65.
N3840 G02 X502.5 Y49.95 A180. R15.05
N3845 G01 X297.5
N3850 G02 X282.45 Y65. A90. R15.05
N3855 G01 Y365.
N3860 G03 X281.11 Y370. A120. R10. F2000.
N3865 G01 X276.11 Y378.66
N3870 G00 Z45.
N3875 X523.037 Y371.761
N3880 G01 Z41. F2000.
N3885 Z0.
N3890 X532.819 Y373.838
N3895 G03 X537.432 Y376.187 A41.987 R10.
N3900 G02 X547.5 Y380.05 A0. R15.05 F3000.
N3905 G01 X752.5
N3910 G02 X767.55 Y365. A270. R15.05
N3915 G01 Y65.
N3920 G02 X752.5 Y49.95 A180. R15.05
N3925 G01 X547.5
N3930 G02 X532.45 Y65. A90. R15.05
N3935 G01 Y365.
N3940 G02 X537.432 Y376.187 A41.987 R15.05
N3945 G03 X540.252 Y380.527 A71.987 R10. F2000.
N3950 G01 X543.345 Y390.037
N3955 G00 Z45.
N3960 X773.037 Y371.761
N3965 G01 Z41. F2000.
N3970 Z0.
N3975 X782.819 Y373.838
N3980 G03 X787.432 Y376.187 A41.987 R10.
N3985 G02 X797.5 Y380.05 A0. R15.05 F3000.
N3990 G01 X1002.5
N3995 G02 X1017.55 Y365. A270. R15.05
N4000 G01 Y65.
N4005 G02 X1002.5 Y49.95 A180. R15.05
N4010 G01 X797.5
N4015 G02 X782.45 Y65. A90. R15.05
N4020 G01 Y365.
N4025 G02 X787.432 Y376.187 A41.987 R15.05
N4030 G03 X790.252 Y380.527 A71.987 R10. F2000.
N4035 G01 X793.345 Y390.037
N4040 G00 Z45.
N4045 X811.16 Y1443.61
N4050 G01 Z41. F2000.
N4055 Z0.
N4060 X802.5 Y1448.61
N4065 G03 X797.5 Y1449.95 A180. R10.
N4070 G02 X782.45 Y1465. A90. R15.05 F3000.
N4075 G01 Y1765.
N4080 G02 X797.5 Y1780.05 A0. R15.05
N4085 G01 X1002.5
N4090 G02 X1017.55 Y1765. A270. R15.05
N4095 G01 Y1465.
N4100 G02 X1002.5 Y1449.95 A180. R15.05
N4105 G01 X797.5
N4110 G03 X792.5 Y1448.61 A210. R10. F2000.
N4115 G01 X783.84 Y1443.61
N4120 G00 Z45.
N4125 X776.963 Y1458.239
N4130 G01 Z41. F2000.
N4135 Z0.
N4140 X767.181 Y1456.162
N4145 G03 X762.568 Y1453.813 A221.987 R10.
N4150 G02 X752.5 Y1449.95 A180. R15.05 F3000.
N4155 G01 X547.5
N4160 G02 X532.45 Y1465. A90. R15.05
N4165 G01 Y1765.
N4170 G02 X547.5 Y1780.05 A0. R15.05
N4175 G01 X752.5
N4180 G02 X767.55 Y1765. A270. R15.05
N4185 G01 Y1465.
N4190 G02 X762.568 Y1453.813 A221.987 R15.05
N4195 G03 X759.748 Y1449.473 A251.987 R10. F2000.
N4200 G01 X756.655 Y1439.963
N4205 G00 Z45.
N4210 X526.963 Y1458.239
N4215 G01 Z41. F2000.
N4220 Z0.
N4225 X517.181 Y1456.162
N4230 G03 X512.568 Y1453.813 A221.987 R10.
N4235 G02 X502.5 Y1449.95 A180. R15.05 F3000.
N4240 G01 X297.5
N4245 G02 X282.45 Y1465. A90. R15.05
N4250 G01 Y1765.
N4255 G02 X297.5 Y1780.05 A0. R15.05
N4260 G01 X502.5
N4265 G02 X517.55 Y1765. A270. R15.05
N4270 G01 Y1465.
N4275 G02 X512.568 Y1453.813 A221.987 R15.05
N4280 G03 X509.748 Y1449.473 A251.987 R10. F2000.
N4285 G01 X506.655 Y1439.963
N4290 G00 Z45.
N4295 X276.963 Y1458.239
N4300 G01 Z41. F2000.
N4305 Z0.
N4310 X267.181 Y1456.162
N4315 G03 X262.568 Y1453.813 A221.987 R10.
N4320 G02 X252.5 Y1449.95 A180. R15.05 F3000.
N4325 G01 X47.5
N4330 G02 X32.45 Y1465. A90. R15.05
N4335 G01 Y1765.
N4340 G02 X47.5 Y1780.05 A0. R15.05
N4345 G01 X252.5
N4350 G02 X267.55 Y1765. A270. R15.05
N4355 G01 Y1465.
N4360 G02 X262.568 Y1453.813 A221.987 R15.05
N4365 G03 X259.748 Y1449.473 A251.987 R10. F2000.
N4370 G01 X256.655 Y1439.963
N4375 G00 Z55.

N4385 G28 G91 Z0.
N4390 G49
N4395 M05
%
