%
O1003 (TEST)
(T1 D=20. CR=0. - ZMIN=35. - FLAT END MILL)
(T2 D=12. CR=0. - ZMIN=12. - FLAT END MILL)
(T25 D=0.1 CR=0. - ZMIN=0. - FLAT END MILL)
N10 G90 G94 G17 G49 G40 G80
N15 G28 G91 Z0.
N20 G90

(2D POCKET1)
N25 T1 M06
(SKUMFRESSKRUBB)
N30 S24000 M03
N35 G54
N45 G00 X175.676 Y171.817
N50 G43 Z70. H01
N55 G00 Z60.
N60 G01 Z57.5 F3000.
N65 Z42.
N70 G03 X175.708 Y171.838 Z41.61 R2.
N75 X175.8 Y171.904 Z41.235 R2.
N80 X175.943 Y172.022 Z40.889 R2.
N85 X176.115 Y172.201 Z40.586 R2.
N90 X176.294 Y172.445 Z40.337 R2.
N95 X176.45 Y172.753 Z40.152 R2.
N100 X176.557 Y173.112 Z40.038 R2.
N105 X176.595 Y173.5 Z40. R2.
N110 G01 Y407.776 F18000.
N115 G03 X176.276 Y408.095 R0.319
N120 G01 X157.724
N125 G03 X157.405 Y407.776 R0.319
N130 G01 Y164.224
N135 G03 X157.724 Y163.905 R0.319
N140 G01 X176.276
N145 G03 X176.595 Y164.224 R0.319
N150 G01 Y173.5
N155 G02 X181.545 Y180.925 R8.044
N160 G03 X186.495 Y188.35 R8.044
N165 G01 Y417.676
N170 G03 X186.176 Y417.995 R0.319
N175 G01 X147.824
N180 G03 X147.505 Y417.676 R0.319
N185 G01 Y154.324
N190 G03 X147.824 Y154.005 R0.319
N195 G01 X186.176
N200 G03 X186.495 Y154.324 R0.319
N205 G01 Y188.35
N210 G02 X191.445 Y195.775 R8.044
N215 G03 X196.395 Y203.2 R8.044
N220 G01 Y427.576
N225 G03 X196.076 Y427.895 R0.319
N230 G01 X137.924
N235 G03 X137.605 Y427.576 R0.319
N240 G01 Y144.424
N245 G03 X137.924 Y144.105 R0.319
N250 G01 X196.076
N255 G03 X196.395 Y144.424 R0.319
N260 G01 Y203.2
N265 G02 X201.345 Y210.625 R8.044
N270 G03 X206.295 Y218.05 R8.044
N275 G01 Y437.476
N280 G03 X205.976 Y437.795 R0.319
N285 G01 X128.024
N290 G03 X127.705 Y437.476 R0.319
N295 G01 Y134.524
N300 G03 X128.024 Y134.205 R0.319
N305 G01 X205.976
N310 G03 X206.295 Y134.524 R0.319
N315 G01 Y218.05
N320 G02 X211.245 Y225.475 R8.044
N325 G03 X216.195 Y232.9 R8.044
N330 G01 Y447.376
N335 G03 X215.876 Y447.695 R0.319
N340 G01 X118.124
N345 G03 X117.805 Y447.376 R0.319
N350 G01 Y124.624
N355 G03 X118.124 Y124.305 R0.319
N360 G01 X215.876
N365 G03 X216.195 Y124.624 R0.319
N370 G01 Y232.9
N375 G02 X221.145 Y240.325 R8.044
N380 G03 X226.095 Y247.75 R8.044
N385 G01 Y457.276
N390 G03 X225.776 Y457.595 R0.319
N395 G01 X108.224
N400 G03 X107.905 Y457.276 R0.319
N405 G01 Y114.724
N410 G03 X108.224 Y114.405 R0.319
N415 G01 X225.776
N420 G03 X226.095 Y114.724 R0.319
N425 G01 Y247.75
N430 G02 X231.045 Y255.175 R8.044
N435 G03 X235.995 Y262.6 R8.044
N440 G01 Y467.176
N445 G03 X235.676 Y467.495 R0.319
N450 G01 X98.324
N455 G03 X98.005 Y467.176 R0.319
N460 G01 Y104.824
N465 G03 X98.324 Y104.505 R0.319
N470 G01 X235.676
N475 G03 X235.995 Y104.824 R0.319
N480 G01 Y262.6
N485 G02 X240.945 Y270.025 R8.044
N490 G03 X245.895 Y277.45 R8.044
N495 G01 Y477.076
N500 G03 X245.576 Y477.395 R0.319
N505 G01 X88.424
N510 G03 X88.105 Y477.076 R0.319
N515 G01 Y94.924
N520 G03 X88.424 Y94.605 R0.319
N525 G01 X245.576
N530 G03 X245.895 Y94.924 R0.319
N535 G01 Y277.45
N540 G02 X250.845 Y284.875 R8.044
N545 G03 X255.795 Y292.3 R8.044
N550 G01 Y486.976
N555 G03 X255.476 Y487.295 R0.319
N560 G01 X78.524
N565 G03 X78.205 Y486.976 R0.319
N570 G01 Y85.024
N575 G03 X78.524 Y84.705 R0.319
N580 G01 X255.476
N585 G03 X255.795 Y85.024 R0.319
N590 G01 Y292.3
N595 G02 X260.745 Y299.725 R8.044
N600 G03 X265.695 Y307.15 R8.044
N605 G01 Y496.876
N610 G03 X265.376 Y497.195 R0.319
N615 G01 X68.624
N620 G03 X68.305 Y496.876 R0.319
N625 G01 Y75.124
N630 G03 X68.624 Y74.805 R0.319
N635 G01 X265.376
N640 G03 X265.695 Y75.124 R0.319
N645 G01 Y307.15
N650 G02 X270.645 Y314.575 R8.044
N655 G03 X275.595 Y322. R8.044
N660 G01 Y506.776
N665 G03 X275.276 Y507.095 R0.319
N670 G01 X58.724
N675 G03 X58.405 Y506.776 R0.319
N680 G01 Y65.224
N685 G03 X58.724 Y64.905 R0.319
N690 G01 X275.276
N695 G03 X275.595 Y65.224 R0.319
N700 G01 Y322.
N705 G02 X280.547 Y329.429 R8.048
N710 G03 X285.5 Y336.858 R8.048
N715 G01 Y517.
N720 X48.5
N725 Y55.
N730 X285.5
N735 Y336.858
N740 G03 X285.462 Y337.245 Z40.038 R2. F3000.
N745 X285.355 Y337.604 Z40.152 R2.
N750 X285.199 Y337.912 Z40.337 R2.
N755 X285.02 Y338.157 Z40.586 R2.
N760 X284.848 Y338.335 Z40.889 R2.
N765 X284.705 Y338.453 Z41.235 R2.
N770 X284.613 Y338.519 Z41.61 R2.
N775 X284.581 Y338.54 Z42. R2.
N780 G00 Z70.
N785 X465.876 Y168.317
N790 Z60.
N795 G01 Z57.5 F3000.
N800 Z37.
N805 G03 X465.908 Y168.338 Z36.61 R2.
N810 X466. Y168.404 Z36.235 R2.
N815 X466.143 Y168.522 Z35.889 R2.
N820 X466.315 Y168.701 Z35.586 R2.
N825 X466.494 Y168.945 Z35.337 R2.
N830 X466.65 Y169.253 Z35.152 R2.
N835 X466.757 Y169.612 Z35.038 R2.
N840 X466.795 Y170. Z35. R2.
N845 G01 Y399.976 F18000.
N850 G03 X466.476 Y400.295 R0.319
N855 G01 X454.52
N860 G03 X454.205 Y399.98 R0.315
N865 G01 Y164.024
N870 G03 X454.524 Y163.705 R0.319
N875 G01 X466.476
N880 G03 X466.795 Y164.024 R0.319
N885 G01 Y170.
N890 G02 X471.745 Y177.425 R8.044
N895 G03 X476.695 Y184.85 R8.044
N900 G01 Y409.876
N905 G03 X476.376 Y410.195 R0.319
N910 G01 X444.62
N915 G03 X444.305 Y409.88 R0.315
N920 G01 Y154.124
N925 G03 X444.624 Y153.805 R0.319
N930 G01 X476.376
N935 G03 X476.695 Y154.124 R0.319
N940 G01 Y184.85
N945 G02 X481.645 Y192.275 R8.044
N950 G03 X486.595 Y199.7 R8.044
N955 G01 Y419.776
N960 G03 X486.276 Y420.095 R0.319
N965 G01 X434.72
N970 G03 X434.405 Y419.78 R0.315
N975 G01 Y144.224
N980 G03 X434.724 Y143.905 R0.319
N985 G01 X486.276
N990 G03 X486.595 Y144.224 R0.319
N995 G01 Y199.7
N1000 G02 X491.545 Y207.125 R8.044
N1005 G03 X496.495 Y214.55 R8.044
N1010 G01 Y429.676
N1015 G03 X496.176 Y429.995 R0.319
N1020 G01 X424.82
N1025 G03 X424.505 Y429.68 R0.315
N1030 G01 Y134.324
N1035 G03 X424.824 Y134.005 R0.319
N1040 G01 X496.176
N1045 G03 X496.495 Y134.324 R0.319
N1050 G01 Y214.55
N1055 G02 X501.445 Y221.975 R8.044
N1060 G03 X506.395 Y229.4 R8.044
N1065 G01 Y439.576
N1070 G03 X506.076 Y439.895 R0.319
N1075 G01 X414.92
N1080 G03 X414.605 Y439.58 R0.315
N1085 G01 Y124.424
N1090 G03 X414.924 Y124.105 R0.319
N1095 G01 X506.076
N1100 G03 X506.395 Y124.424 R0.319
N1105 G01 Y229.4
N1110 G02 X511.345 Y236.825 R8.044
N1115 G03 X516.295 Y244.25 R8.044
N1120 G01 Y449.476
N1125 G03 X515.976 Y449.795 R0.319
N1130 G01 X405.02
N1135 G03 X404.705 Y449.48 R0.315
N1140 G01 Y114.524
N1145 G03 X405.024 Y114.205 R0.319
N1150 G01 X515.976
N1155 G03 X516.295 Y114.524 R0.319
N1160 G01 Y244.25
N1165 G02 X521.245 Y251.675 R8.044
N1170 G03 X526.195 Y259.1 R8.044
N1175 G01 Y459.376
N1180 G03 X525.876 Y459.695 R0.319
N1185 G01 X395.12
N1190 G03 X394.805 Y459.38 R0.315
N1195 G01 Y104.624
N1200 G03 X395.124 Y104.305 R0.319
N1205 G01 X525.876
N1210 G03 X526.195 Y104.624 R0.319
N1215 G01 Y259.1
N1220 G02 X531.145 Y266.525 R8.044
N1225 G03 X536.095 Y273.95 R8.044
N1230 G01 Y469.276
N1235 G03 X535.776 Y469.595 R0.319
N1240 G01 X385.22
N1245 G03 X384.905 Y469.28 R0.315
N1250 G01 Y94.724
N1255 G03 X385.224 Y94.405 R0.319
N1260 G01 X535.776
N1265 G03 X536.095 Y94.724 R0.319
N1270 G01 Y273.95
N1275 G02 X541.045 Y281.375 R8.044
N1280 G03 X545.995 Y288.8 R8.044
N1285 G01 Y479.176
N1290 G03 X545.676 Y479.495 R0.319
N1295 G01 X375.32
N1300 G03 X375.005 Y479.18 R0.315
N1305 G01 Y84.824
N1310 G03 X375.324 Y84.505 R0.319
N1315 G01 X545.676
N1320 G03 X545.995 Y84.824 R0.319
N1325 G01 Y288.8
N1330 G02 X550.945 Y296.225 R8.044
N1335 G03 X555.895 Y303.65 R8.044
N1340 G01 Y489.076
N1345 G03 X555.576 Y489.395 R0.319
N1350 G01 X365.42
N1355 G03 X365.105 Y489.08 R0.315
N1360 G01 Y74.924
N1365 G03 X365.424 Y74.605 R0.319
N1370 G01 X555.576
N1375 G03 X555.895 Y74.924 R0.319
N1380 G01 Y303.65
N1385 G02 X560.845 Y311.075 R8.044
N1390 G03 X565.795 Y318.5 R8.044
N1395 G01 Y498.976
N1400 G03 X565.476 Y499.295 R0.319
N1405 G01 X355.52
N1410 G03 X355.205 Y498.98 R0.315
N1415 G01 Y65.024
N1420 G03 X355.524 Y64.705 R0.319
N1425 G01 X565.476
N1430 G03 X565.795 Y65.024 R0.319
N1435 G01 Y318.5
N1440 G02 X570.745 Y325.925 R8.044
N1445 G03 X575.695 Y333.35 R8.044
N1450 G01 Y508.876
N1455 G03 X575.376 Y509.195 R0.319
N1460 G01 X345.62
N1465 G03 X345.305 Y508.88 R0.315
N1470 G01 Y55.124
N1475 G03 X345.624 Y54.805 R0.319
N1480 G01 X575.376
N1485 G03 X575.695 Y55.124 R0.319
N1490 G01 Y333.35
N1495 G02 X580.645 Y340.775 R8.044
N1500 G03 X585.595 Y348.2 R8.044
N1505 G01 Y518.776
N1510 G03 X585.276 Y519.095 R0.319
N1515 G01 X335.72
N1520 G03 X335.405 Y518.78 R0.315
N1525 G01 Y45.224
N1530 G03 X335.724 Y44.905 R0.319
N1535 G01 X585.276
N1540 G03 X585.595 Y45.224 R0.319
N1545 G01 Y348.2
N1550 G02 X590.547 Y355.629 R8.048
N1555 G03 X595.5 Y363.057 R8.048
N1560 G01 Y529.
N1565 X325.5
N1570 Y35.
N1575 X595.5
N1580 Y363.057
N1585 G03 X595.462 Y363.445 Z35.038 R2. F3000.
N1590 X595.355 Y363.804 Z35.152 R2.
N1595 X595.199 Y364.112 Z35.337 R2.
N1600 X595.021 Y364.357 Z35.586 R2.
N1605 X594.848 Y364.535 Z35.889 R2.
N1610 X594.705 Y364.653 Z36.235 R2.
N1615 X594.613 Y364.719 Z36.61 R2.
N1620 X594.581 Y364.74 Z37. R2.
N1625 G00 Z70.
N1635 M05
N1640 G28 G91 Z0.
N1645 G90
N1650 G49

(2D POCKET4)
N1655 T2 M06
(SKUMFRESSKRUBB)
N1660 S24000 M03
N1665 G54
N1675 G00 X500.486 Y87.155
N1680 G43 Z70. H02
N1685 G00 Z60.
N1690 G01 Z57.5 F3000.
N1695 Z13.2
N1700 G02 X500.516 Y87.161 Z12.933 R1.2
N1705 X500.603 Y87.175 Z12.679 R1.2
N1710 X500.746 Y87.183 Z12.452 R1.2
N1715 X500.935 Y87.168 Z12.262 R1.2
N1720 X501.155 Y87.11 Z12.119 R1.2
N1725 X501.382 Y86.999 Z12.03 R1.2
N1730 X501.591 Y86.833 Z12. R1.2
N1735 X499.302 Y83.797 R1.919 F12000.
N1740 G03 X499.284 Y83.806 R0.325
N1745 G02 X499.266 Y83.816 R0.329
N1750 X498.583 Y84.496 R1.795
N1755 X499.067 Y86.977 R1.943
N1760 X501.591 Y86.833 R1.903
N1765 G03 X504.117 Y86.07 R2.804
N1770 G02 X505.956 Y84.178 R1.572
N1775 X497.383 Y80.379 R5.855
N1780 G03 X496.896 Y80.628 R7.03
N1785 G02 X496.405 Y80.87 R11.537
N1790 X495.649 Y81.623 R1.795
N1795 X495.405 Y82.112 R11.523
N1800 G03 X495.154 Y82.598 R7.025
N1805 G02 X504.38 Y89.634 R5.855
N1810 X505.956 Y84.178 R5.855
N1815 G03 X507.188 Y80.041 R4.384
N1820 G02 X506.812 Y75.741 R2.774
N1825 X494.498 Y75.244 R11.75
N1830 G03 X493.239 Y75.887 R17.804
N1835 X491.95 Y76.47 R91.775
N1840 G02 X491.267 Y77.15 R1.345
N1845 G03 X490.679 Y78.436 R92.029
N1850 X490.031 Y79.693 R17.795
N1855 G02 X510.473 Y91.285 R11.75
N1860 X506.812 Y75.741 R11.75
N1865 G03 X504.827 Y71.514 R4.547
N1870 G02 X501.855 Y67.912 R3.287
N1875 X491.609 Y70.1 R17.65
N1880 G03 X489.479 Y71.136 R20.078
N1885 X487.257 Y71.955 R29.091
N1890 G02 X486.772 Y72.438 R0.754
N1895 G03 X485.944 Y74.657 R29.105
N1900 X484.899 Y76.783 R20.071
N1905 G02 X512.707 Y97.995 R17.65
N1910 X501.855 Y67.912 R17.65
N1915 G03 X497.981 Y65.013 R4.617
N1920 G02 X493.634 Y62.888 R3.59
N1925 X488.719 Y64.956 R23.55
N1930 G03 X485.59 Y66.317 R16.806
N1935 X482.259 Y67.059 R19.166
N1940 G02 X481.896 Y67.421 R0.422
N1945 G03 X481.14 Y70.749 R19.172
N1950 X479.767 Y73.872 R16.802
N1955 G02 X516.871 Y102.175 R23.55
N1960 X493.634 Y62.888 R23.55
N1965 G03 X488.713 Y61.731 R5.124
N1970 G02 X483.77 Y60.675 R4.946
N1975 G03 X475.202 Y60.336 R12.
N1980 X474.591 Y70.937 R12.
N1985 G02 X525.913 Y100.041 R29.5
N1990 X485.805 Y59.769 R29.5
N1995 G03 X483.77 Y60.675 R12.
N2000 G02 X483.528 Y60.788 Z12.03 R1.2 F3000.
N2005 X483.327 Y60.942 Z12.119 R1.2
N2010 X483.178 Y61.113 Z12.262 R1.2
N2015 X483.08 Y61.276 Z12.452 R1.2
N2020 X483.024 Y61.407 Z12.679 R1.2
N2025 X482.997 Y61.492 Z12.933 R1.2
N2030 X482.99 Y61.521 Z13.2 R1.2
N2035 G00 Z70.
N2040 X415.486 Y87.155
N2045 Z60.
N2050 G01 Z57.5 F3000.
N2055 Z13.2
N2060 G02 X415.516 Y87.161 Z12.933 R1.2
N2065 X415.603 Y87.175 Z12.679 R1.2
N2070 X415.746 Y87.183 Z12.452 R1.2
N2075 X415.935 Y87.168 Z12.262 R1.2
N2080 X416.155 Y87.11 Z12.119 R1.2
N2085 X416.382 Y86.999 Z12.03 R1.2
N2090 X416.591 Y86.833 Z12. R1.2
N2095 X414.302 Y83.797 R1.919 F12000.
N2100 G03 X414.284 Y83.806 R0.325
N2105 G02 X414.266 Y83.816 R0.329
N2110 X413.583 Y84.496 R1.795
N2115 X414.067 Y86.977 R1.943
N2120 X416.591 Y86.833 R1.903
N2125 G03 X419.117 Y86.07 R2.804
N2130 G02 X420.956 Y84.178 R1.572
N2135 X412.383 Y80.379 R5.855
N2140 G03 X411.896 Y80.628 R7.03
N2145 G02 X411.405 Y80.87 R11.537
N2150 X410.649 Y81.623 R1.795
N2155 X410.405 Y82.112 R11.523
N2160 G03 X410.154 Y82.598 R7.025
N2165 G02 X419.38 Y89.634 R5.855
N2170 X420.956 Y84.178 R5.855
N2175 G03 X422.188 Y80.041 R4.384
N2180 G02 X421.812 Y75.741 R2.774
N2185 X409.498 Y75.244 R11.75
N2190 G03 X408.239 Y75.887 R17.804
N2195 X406.95 Y76.47 R91.775
N2200 G02 X406.267 Y77.15 R1.345
N2205 G03 X405.679 Y78.436 R92.029
N2210 X405.031 Y79.693 R17.795
N2215 G02 X425.473 Y91.285 R11.75
N2220 X421.812 Y75.741 R11.75
N2225 G03 X419.827 Y71.514 R4.547
N2230 G02 X416.855 Y67.912 R3.287
N2235 X406.609 Y70.1 R17.65
N2240 G03 X404.479 Y71.136 R20.078
N2245 X402.257 Y71.955 R29.091
N2250 G02 X401.772 Y72.438 R0.754
N2255 G03 X400.944 Y74.657 R29.105
N2260 X399.899 Y76.783 R20.071
N2265 G02 X427.707 Y97.995 R17.65
N2270 X416.855 Y67.912 R17.65
N2275 G03 X412.981 Y65.013 R4.617
N2280 G02 X408.634 Y62.888 R3.59
N2285 X403.719 Y64.956 R23.55
N2290 G03 X400.59 Y66.317 R16.806
N2295 X397.259 Y67.059 R19.166
N2300 G02 X396.896 Y67.421 R0.422
N2305 G03 X396.14 Y70.749 R19.172
N2310 X394.767 Y73.872 R16.802
N2315 G02 X431.871 Y102.175 R23.55
N2320 X408.634 Y62.888 R23.55
N2325 G03 X403.713 Y61.731 R5.124
N2330 G02 X398.77 Y60.675 R4.946
N2335 G03 X390.202 Y60.336 R12.
N2340 X389.591 Y70.937 R12.
N2345 G02 X436.069 Y106.391 R29.5
N2350 X400.805 Y59.769 R29.5
N2355 G03 X398.77 Y60.675 R12.
N2360 G02 X398.528 Y60.788 Z12.03 R1.2 F3000.
N2365 X398.327 Y60.942 Z12.119 R1.2
N2370 X398.178 Y61.113 Z12.262 R1.2
N2375 X398.08 Y61.276 Z12.452 R1.2
N2380 X398.024 Y61.407 Z12.679 R1.2
N2385 X397.997 Y61.492 Z12.933 R1.2
N2390 X397.99 Y61.521 Z13.2 R1.2
N2395 G00 Z70.
N2400 X372.872 Y172.186
N2405 Z60.
N2410 G01 Z57.5 F3000.
N2415 Z13.2
N2420 G02 X372.902 Y172.193 Z12.933 R1.2
N2425 X372.989 Y172.206 Z12.679 R1.2
N2430 X373.132 Y172.215 Z12.452 R1.2
N2435 X373.321 Y172.199 Z12.262 R1.2
N2440 X373.541 Y172.142 Z12.119 R1.2
N2445 X373.768 Y172.031 Z12.03 R1.2
N2450 X373.977 Y171.865 Z12. R1.2
N2455 X371.689 Y168.828 R1.919 F12000.
N2460 G03 X371.671 Y168.838 R0.331
N2465 G02 X371.652 Y168.847 R0.335
N2470 X370.969 Y169.528 R1.795
N2475 X371.453 Y172.008 R1.943
N2480 X373.977 Y171.865 R1.903
N2485 G03 X376.503 Y171.102 R2.804
N2490 G02 X378.342 Y169.209 R1.572
N2495 X369.769 Y165.41 R5.856
N2500 G03 X369.282 Y165.659 R7.034
N2505 G02 X368.791 Y165.901 R11.55
N2510 X368.035 Y166.655 R1.795
N2515 X367.791 Y167.144 R11.525
N2520 G03 X367.54 Y167.63 R7.026
N2525 G02 X376.767 Y174.666 R5.855
N2530 X378.342 Y169.209 R5.856
N2535 G03 X379.574 Y165.072 R4.384
N2540 G02 X379.199 Y160.772 R2.774
N2545 X366.885 Y160.276 R11.75
N2550 G03 X365.625 Y160.919 R17.809
N2555 X364.336 Y161.502 R91.605
N2560 G02 X363.653 Y162.182 R1.345
N2565 G03 X363.065 Y163.468 R91.974
N2570 X362.417 Y164.725 R17.798
N2575 G02 X382.859 Y176.317 R11.75
N2580 X379.199 Y160.772 R11.75
N2585 G03 X377.213 Y156.546 R4.547
N2590 G02 X374.241 Y152.943 R3.287
N2595 X363.995 Y155.132 R17.65
N2600 G03 X361.865 Y156.168 R20.08
N2605 X359.643 Y156.987 R29.083
N2610 G02 X359.158 Y157.47 R0.754
N2615 G03 X358.33 Y159.689 R29.103
N2620 X357.285 Y161.814 R20.073
N2625 G02 X385.093 Y183.027 R17.65
N2630 X374.241 Y152.943 R17.65
N2635 G03 X370.367 Y150.044 R4.617
N2640 G02 X366.02 Y147.92 R3.59
N2645 X361.106 Y149.988 R23.55
N2650 G03 X357.976 Y151.348 R16.808
N2655 X354.645 Y152.091 R19.164
N2660 G02 X354.282 Y152.453 R0.422
N2665 G03 X353.526 Y155.78 R19.173
N2670 X352.153 Y158.904 R16.803
N2675 G02 X389.257 Y187.207 R23.55
N2680 X366.02 Y147.92 R23.55
N2685 G03 X361.1 Y146.762 R5.124
N2690 G02 X356.156 Y145.706 R4.946
N2695 G03 X347.588 Y145.368 R12.
N2700 X346.977 Y155.969 R12.
N2705 G02 X398.3 Y185.073 R29.5
N2710 X358.192 Y144.8 R29.5
N2715 G03 X356.156 Y145.706 R12.
N2720 G02 X355.915 Y145.819 Z12.03 R1.2 F3000.
N2725 X355.714 Y145.973 Z12.119 R1.2
N2730 X355.565 Y146.145 Z12.262 R1.2
N2735 X355.467 Y146.307 Z12.452 R1.2
N2740 X355.411 Y146.439 Z12.679 R1.2
N2745 X355.384 Y146.523 Z12.933 R1.2
N2750 X355.376 Y146.552 Z13.2 R1.2
N2755 G00 Z70.
N2760 X457.872 Y172.186
N2765 Z60.
N2770 G01 Z57.5 F3000.
N2775 Z13.2
N2780 G02 X457.902 Y172.193 Z12.933 R1.2
N2785 X457.989 Y172.206 Z12.679 R1.2
N2790 X458.132 Y172.215 Z12.452 R1.2
N2795 X458.321 Y172.199 Z12.262 R1.2
N2800 X458.541 Y172.142 Z12.119 R1.2
N2805 X458.768 Y172.031 Z12.03 R1.2
N2810 X458.977 Y171.865 Z12. R1.2
N2815 X456.689 Y168.828 R1.919 F12000.
N2820 G03 X456.671 Y168.838 R0.331
N2825 G02 X456.652 Y168.847 R0.335
N2830 X455.969 Y169.528 R1.795
N2835 X456.453 Y172.008 R1.943
N2840 X458.977 Y171.865 R1.903
N2845 G03 X461.503 Y171.102 R2.804
N2850 G02 X463.342 Y169.209 R1.572
N2855 X454.769 Y165.41 R5.856
N2860 G03 X454.282 Y165.659 R7.034
N2865 G02 X453.791 Y165.901 R11.55
N2870 X453.035 Y166.655 R1.795
N2875 X452.791 Y167.144 R11.525
N2880 G03 X452.54 Y167.63 R7.026
N2885 G02 X461.767 Y174.666 R5.855
N2890 X463.342 Y169.209 R5.856
N2895 G03 X464.574 Y165.072 R4.384
N2900 G02 X464.199 Y160.772 R2.774
N2905 X451.885 Y160.276 R11.75
N2910 G03 X450.625 Y160.919 R17.809
N2915 X449.336 Y161.502 R91.605
N2920 G02 X448.653 Y162.182 R1.345
N2925 G03 X448.065 Y163.468 R91.974
N2930 X447.417 Y164.725 R17.798
N2935 G02 X467.859 Y176.317 R11.75
N2940 X464.199 Y160.772 R11.75
N2945 G03 X462.213 Y156.546 R4.547
N2950 G02 X459.241 Y152.943 R3.287
N2955 X448.995 Y155.132 R17.65
N2960 G03 X446.865 Y156.168 R20.08
N2965 X444.643 Y156.987 R29.083
N2970 G02 X444.158 Y157.47 R0.754
N2975 G03 X443.33 Y159.689 R29.103
N2980 X442.285 Y161.814 R20.073
N2985 G02 X470.093 Y183.027 R17.65
N2990 X459.241 Y152.943 R17.65
N2995 G03 X455.367 Y150.044 R4.617
N3000 G02 X451.02 Y147.92 R3.59
N3005 X446.106 Y149.988 R23.55
N3010 G03 X442.976 Y151.348 R16.808
N3015 X439.645 Y152.091 R19.164
N3020 G02 X439.282 Y152.453 R0.422
N3025 G03 X438.526 Y155.78 R19.173
N3030 X437.153 Y158.904 R16.803
N3035 G02 X474.257 Y187.207 R23.55
N3040 X451.02 Y147.92 R23.55
N3045 G03 X446.1 Y146.762 R5.124
N3050 G02 X441.156 Y145.706 R4.946
N3055 G03 X432.588 Y145.368 R12.
N3060 X431.977 Y155.969 R12.
N3065 G02 X483.3 Y185.073 R29.5
N3070 X443.192 Y144.8 R29.5
N3075 G03 X441.156 Y145.706 R12.
N3080 G02 X440.915 Y145.819 Z12.03 R1.2 F3000.
N3085 X440.714 Y145.973 Z12.119 R1.2
N3090 X440.565 Y146.145 Z12.262 R1.2
N3095 X440.467 Y146.307 Z12.452 R1.2
N3100 X440.411 Y146.439 Z12.679 R1.2
N3105 X440.384 Y146.523 Z12.933 R1.2
N3110 X440.376 Y146.552 Z13.2 R1.2
N3115 G00 Z70.
N3120 X372.872 Y257.186
N3125 Z60.
N3130 G01 Z57.5 F3000.
N3135 Z13.2
N3140 G02 X372.902 Y257.193 Z12.933 R1.2
N3145 X372.989 Y257.206 Z12.679 R1.2
N3150 X373.132 Y257.215 Z12.452 R1.2
N3155 X373.321 Y257.199 Z12.262 R1.2
N3160 X373.541 Y257.142 Z12.119 R1.2
N3165 X373.768 Y257.031 Z12.03 R1.2
N3170 X373.977 Y256.865 Z12. R1.2
N3175 X371.689 Y253.828 R1.919 F12000.
N3180 G03 X371.671 Y253.838 R0.331
N3185 G02 X371.652 Y253.847 R0.335
N3190 X370.969 Y254.528 R1.795
N3195 X371.453 Y257.008 R1.943
N3200 X373.977 Y256.865 R1.903
N3205 G03 X376.503 Y256.102 R2.804
N3210 G02 X378.342 Y254.209 R1.572
N3215 X369.769 Y250.41 R5.856
N3220 G03 X369.282 Y250.659 R7.034
N3225 G02 X368.791 Y250.901 R11.551
N3230 X368.035 Y251.655 R1.795
N3235 X367.791 Y252.144 R11.525
N3240 G03 X367.54 Y252.63 R7.026
N3245 G02 X376.767 Y259.666 R5.855
N3250 X378.342 Y254.209 R5.856
N3255 G03 X379.574 Y250.072 R4.384
N3260 G02 X379.199 Y245.772 R2.774
N3265 X366.885 Y245.276 R11.75
N3270 G03 X365.625 Y245.919 R17.809
N3275 X364.336 Y246.502 R91.605
N3280 G02 X363.653 Y247.182 R1.345
N3285 G03 X363.065 Y248.468 R91.974
N3290 X362.417 Y249.725 R17.798
N3295 G02 X382.859 Y261.317 R11.75
N3300 X379.199 Y245.772 R11.75
N3305 G03 X377.213 Y241.546 R4.547
N3310 G02 X374.241 Y237.943 R3.287
N3315 X363.995 Y240.132 R17.65
N3320 G03 X361.865 Y241.168 R20.08
N3325 X359.643 Y241.987 R29.083
N3330 G02 X359.158 Y242.47 R0.754
N3335 G03 X358.33 Y244.689 R29.103
N3340 X357.285 Y246.814 R20.073
N3345 G02 X385.093 Y268.027 R17.65
N3350 X374.241 Y237.943 R17.65
N3355 G03 X370.367 Y235.044 R4.617
N3360 G02 X366.02 Y232.92 R3.59
N3365 X361.106 Y234.988 R23.55
N3370 G03 X357.976 Y236.348 R16.808
N3375 X354.645 Y237.091 R19.164
N3380 G02 X354.282 Y237.453 R0.422
N3385 G03 X353.526 Y240.78 R19.173
N3390 X352.153 Y243.904 R16.803
N3395 G02 X389.257 Y272.207 R23.55
N3400 X366.02 Y232.92 R23.55
N3405 G03 X361.1 Y231.762 R5.124
N3410 G02 X356.156 Y230.706 R4.946
N3415 G03 X347.588 Y230.368 R12.
N3420 X346.977 Y240.969 R12.
N3425 G02 X398.3 Y270.073 R29.5
N3430 X358.192 Y229.8 R29.5
N3435 G03 X356.156 Y230.706 R12.
N3440 G02 X355.915 Y230.819 Z12.03 R1.2 F3000.
N3445 X355.714 Y230.973 Z12.119 R1.2
N3450 X355.565 Y231.145 Z12.262 R1.2
N3455 X355.467 Y231.307 Z12.452 R1.2
N3460 X355.411 Y231.439 Z12.679 R1.2
N3465 X355.384 Y231.523 Z12.933 R1.2
N3470 X355.376 Y231.552 Z13.2 R1.2
N3475 G00 Z70.
N3480 X457.872 Y257.186
N3485 Z60.
N3490 G01 Z57.5 F3000.
N3495 Z13.2
N3500 G02 X457.902 Y257.193 Z12.933 R1.2
N3505 X457.989 Y257.206 Z12.679 R1.2
N3510 X458.132 Y257.215 Z12.452 R1.2
N3515 X458.321 Y257.199 Z12.262 R1.2
N3520 X458.541 Y257.142 Z12.119 R1.2
N3525 X458.768 Y257.031 Z12.03 R1.2
N3530 X458.977 Y256.865 Z12. R1.2
N3535 X456.689 Y253.828 R1.919 F12000.
N3540 G03 X456.671 Y253.838 R0.331
N3545 G02 X456.652 Y253.847 R0.335
N3550 X455.969 Y254.528 R1.795
N3555 X456.453 Y257.008 R1.943
N3560 X458.977 Y256.865 R1.903
N3565 G03 X461.503 Y256.102 R2.804
N3570 G02 X463.342 Y254.209 R1.572
N3575 X454.769 Y250.41 R5.856
N3580 G03 X454.282 Y250.659 R7.034
N3585 G02 X453.791 Y250.901 R11.551
N3590 X453.035 Y251.655 R1.795
N3595 X452.791 Y252.144 R11.525
N3600 G03 X452.54 Y252.63 R7.026
N3605 G02 X461.767 Y259.666 R5.855
N3610 X463.342 Y254.209 R5.856
N3615 G03 X464.574 Y250.072 R4.384
N3620 G02 X464.199 Y245.772 R2.774
N3625 X451.885 Y245.276 R11.75
N3630 G03 X450.625 Y245.919 R17.809
N3635 X449.336 Y246.502 R91.605
N3640 G02 X448.653 Y247.182 R1.345
N3645 G03 X448.065 Y248.468 R91.974
N3650 X447.417 Y249.725 R17.798
N3655 G02 X467.859 Y261.317 R11.75
N3660 X464.199 Y245.772 R11.75
N3665 G03 X462.213 Y241.546 R4.547
N3670 G02 X459.241 Y237.943 R3.287
N3675 X448.995 Y240.132 R17.65
N3680 G03 X446.865 Y241.168 R20.08
N3685 X444.643 Y241.987 R29.083
N3690 G02 X444.158 Y242.47 R0.754
N3695 G03 X443.33 Y244.689 R29.103
N3700 X442.285 Y246.814 R20.073
N3705 G02 X470.093 Y268.027 R17.65
N3710 X459.241 Y237.943 R17.65
N3715 G03 X455.367 Y235.044 R4.617
N3720 G02 X451.02 Y232.92 R3.59
N3725 X446.106 Y234.988 R23.55
N3730 G03 X442.976 Y236.348 R16.808
N3735 X439.645 Y237.091 R19.164
N3740 G02 X439.282 Y237.453 R0.422
N3745 G03 X438.526 Y240.78 R19.173
N3750 X437.153 Y243.904 R16.803
N3755 G02 X474.257 Y272.207 R23.55
N3760 X451.02 Y232.92 R23.55
N3765 G03 X446.1 Y231.762 R5.124
N3770 G02 X441.156 Y230.706 R4.946
N3775 G03 X432.588 Y230.368 R12.
N3780 X431.977 Y240.969 R12.
N3785 G02 X483.3 Y270.073 R29.5
N3790 X443.192 Y229.8 R29.5
N3795 G03 X441.156 Y230.706 R12.
N3800 G02 X440.915 Y230.819 Z12.03 R1.2 F3000.
N3805 X440.714 Y230.973 Z12.119 R1.2
N3810 X440.565 Y231.145 Z12.262 R1.2
N3815 X440.467 Y231.307 Z12.452 R1.2
N3820 X440.411 Y231.439 Z12.679 R1.2
N3825 X440.384 Y231.523 Z12.933 R1.2
N3830 X440.376 Y231.552 Z13.2 R1.2
N3835 G00 Z70.
N3840 X542.872 Y257.186
N3845 Z60.
N3850 G01 Z57.5 F3000.
N3855 Z13.2
N3860 G02 X542.902 Y257.193 Z12.933 R1.2
N3865 X542.989 Y257.206 Z12.679 R1.2
N3870 X543.132 Y257.215 Z12.452 R1.2
N3875 X543.321 Y257.199 Z12.262 R1.2
N3880 X543.541 Y257.142 Z12.119 R1.2
N3885 X543.768 Y257.031 Z12.03 R1.2
N3890 X543.977 Y256.865 Z12. R1.2
N3895 X541.689 Y253.828 R1.919 F12000.
N3900 G03 X541.671 Y253.838 R0.331
N3905 G02 X541.652 Y253.847 R0.335
N3910 X540.969 Y254.528 R1.795
N3915 X541.453 Y257.008 R1.943
N3920 X543.977 Y256.865 R1.903
N3925 G03 X546.503 Y256.102 R2.804
N3930 G02 X548.342 Y254.209 R1.572
N3935 X539.769 Y250.41 R5.856
N3940 G03 X539.282 Y250.659 R7.034
N3945 G02 X538.791 Y250.901 R11.55
N3950 X538.035 Y251.655 R1.795
N3955 X537.791 Y252.144 R11.525
N3960 G03 X537.54 Y252.63 R7.026
N3965 G02 X546.767 Y259.666 R5.855
N3970 X548.342 Y254.209 R5.856
N3975 G03 X549.574 Y250.072 R4.384
N3980 G02 X549.199 Y245.772 R2.774
N3985 X536.885 Y245.276 R11.75
N3990 G03 X535.625 Y245.919 R17.809
N3995 X534.336 Y246.502 R91.605
N4000 G02 X533.653 Y247.182 R1.345
N4005 G03 X533.065 Y248.468 R91.974
N4010 X532.417 Y249.725 R17.798
N4015 G02 X552.859 Y261.317 R11.75
N4020 X549.199 Y245.772 R11.75
N4025 G03 X547.213 Y241.546 R4.547
N4030 G02 X544.241 Y237.943 R3.287
N4035 X533.995 Y240.132 R17.65
N4040 G03 X531.865 Y241.168 R20.08
N4045 X529.643 Y241.987 R29.083
N4050 G02 X529.158 Y242.47 R0.754
N4055 G03 X528.33 Y244.689 R29.103
N4060 X527.285 Y246.814 R20.073
N4065 G02 X557.992 Y264.227 R17.65
N4070 X544.241 Y237.943 R17.65
N4075 G03 X540.367 Y235.044 R4.617
N4080 G02 X536.02 Y232.92 R3.59
N4085 X531.106 Y234.988 R23.55
N4090 G03 X527.976 Y236.348 R16.808
N4095 X524.645 Y237.091 R19.164
N4100 G02 X524.282 Y237.453 R0.422
N4105 G03 X523.526 Y240.78 R19.173
N4110 X522.153 Y243.904 R16.803
N4115 G02 X559.257 Y272.207 R23.55
N4120 X536.02 Y232.92 R23.55
N4125 G03 X531.1 Y231.762 R5.124
N4130 G02 X526.156 Y230.706 R4.946
N4135 G03 X517.588 Y230.368 R12.
N4140 X516.977 Y240.969 R12.
N4145 G02 X563.455 Y276.423 R29.5
N4150 X528.192 Y229.8 R29.5
N4155 G03 X526.156 Y230.706 R12.
N4160 G02 X525.915 Y230.819 Z12.03 R1.2 F3000.
N4165 X525.714 Y230.973 Z12.119 R1.2
N4170 X525.565 Y231.145 Z12.262 R1.2
N4175 X525.467 Y231.307 Z12.452 R1.2
N4180 X525.411 Y231.439 Z12.679 R1.2
N4185 X525.384 Y231.523 Z12.933 R1.2
N4190 X525.376 Y231.552 Z13.2 R1.2
N4195 G00 Z70.
N4200 X542.872 Y172.186
N4205 Z60.
N4210 G01 Z57.5 F3000.
N4215 Z13.2
N4220 G02 X542.902 Y172.193 Z12.933 R1.2
N4225 X542.989 Y172.206 Z12.679 R1.2
N4230 X543.132 Y172.215 Z12.452 R1.2
N4235 X543.321 Y172.199 Z12.262 R1.2
N4240 X543.541 Y172.142 Z12.119 R1.2
N4245 X543.768 Y172.031 Z12.03 R1.2
N4250 X543.977 Y171.865 Z12. R1.2
N4255 X541.689 Y168.828 R1.919 F12000.
N4260 G03 X541.671 Y168.838 R0.331
N4265 G02 X541.652 Y168.847 R0.335
N4270 X540.969 Y169.528 R1.795
N4275 X541.453 Y172.008 R1.943
N4280 X543.977 Y171.865 R1.903
N4285 G03 X546.503 Y171.102 R2.804
N4290 G02 X548.342 Y169.209 R1.572
N4295 X539.769 Y165.41 R5.856
N4300 G03 X539.282 Y165.659 R7.034
N4305 G02 X538.791 Y165.901 R11.55
N4310 X538.035 Y166.655 R1.795
N4315 X537.791 Y167.144 R11.525
N4320 G03 X537.54 Y167.63 R7.026
N4325 G02 X546.767 Y174.666 R5.855
N4330 X548.342 Y169.209 R5.856
N4335 G03 X549.574 Y165.072 R4.384
N4340 G02 X549.199 Y160.772 R2.774
N4345 X536.885 Y160.276 R11.75
N4350 G03 X535.625 Y160.919 R17.809
N4355 X534.336 Y161.502 R91.605
N4360 G02 X533.653 Y162.182 R1.345
N4365 G03 X533.065 Y163.468 R91.974
N4370 X532.417 Y164.725 R17.798
N4375 G02 X552.859 Y176.317 R11.75
N4380 X549.199 Y160.772 R11.75
N4385 G03 X547.213 Y156.546 R4.547
N4390 G02 X544.241 Y152.943 R3.287
N4395 X533.995 Y155.132 R17.65
N4400 G03 X531.865 Y156.168 R20.08
N4405 X529.643 Y156.987 R29.083
N4410 G02 X529.158 Y157.47 R0.754
N4415 G03 X528.33 Y159.689 R29.103
N4420 X527.285 Y161.814 R20.073
N4425 G02 X557.992 Y179.227 R17.65
N4430 X544.241 Y152.943 R17.65
N4435 G03 X540.367 Y150.044 R4.617
N4440 G02 X536.02 Y147.92 R3.59
N4445 X531.106 Y149.988 R23.55
N4450 G03 X527.976 Y151.348 R16.808
N4455 X524.645 Y152.091 R19.164
N4460 G02 X524.282 Y152.453 R0.422
N4465 G03 X523.526 Y155.78 R19.173
N4470 X522.153 Y158.904 R16.803
N4475 G02 X559.257 Y187.207 R23.55
N4480 X536.02 Y147.92 R23.55
N4485 G03 X531.1 Y146.762 R5.124
N4490 G02 X526.156 Y145.706 R4.946
N4495 G03 X517.588 Y145.368 R12.
N4500 X516.977 Y155.969 R12.
N4505 G02 X563.455 Y191.423 R29.5
N4510 X528.192 Y144.8 R29.5
N4515 G03 X526.156 Y145.706 R12.
N4520 G02 X525.915 Y145.819 Z12.03 R1.2 F3000.
N4525 X525.714 Y145.973 Z12.119 R1.2
N4530 X525.565 Y146.145 Z12.262 R1.2
N4535 X525.467 Y146.307 Z12.452 R1.2
N4540 X525.411 Y146.439 Z12.679 R1.2
N4545 X525.384 Y146.523 Z12.933 R1.2
N4550 X525.376 Y146.552 Z13.2 R1.2
N4555 G00 Z70.
N4560 X542.872 Y342.186
N4565 Z60.
N4570 G01 Z57.5 F3000.
N4575 Z13.2
N4580 G02 X542.902 Y342.193 Z12.933 R1.2
N4585 X542.989 Y342.206 Z12.679 R1.2
N4590 X543.132 Y342.215 Z12.452 R1.2
N4595 X543.321 Y342.199 Z12.262 R1.2
N4600 X543.541 Y342.142 Z12.119 R1.2
N4605 X543.768 Y342.031 Z12.03 R1.2
N4610 X543.977 Y341.865 Z12. R1.2
N4615 X541.689 Y338.828 R1.919 F12000.
N4620 G03 X541.671 Y338.838 R0.331
N4625 G02 X541.652 Y338.847 R0.335
N4630 X540.969 Y339.528 R1.795
N4635 X541.453 Y342.008 R1.943
N4640 X543.977 Y341.865 R1.903
N4645 G03 X546.503 Y341.102 R2.804
N4650 G02 X548.342 Y339.209 R1.572
N4655 X539.769 Y335.41 R5.856
N4660 G03 X539.282 Y335.659 R7.034
N4665 G02 X538.791 Y335.901 R11.55
N4670 X538.035 Y336.655 R1.795
N4675 X537.791 Y337.144 R11.525
N4680 G03 X537.54 Y337.63 R7.026
N4685 G02 X546.767 Y344.666 R5.855
N4690 X548.342 Y339.209 R5.856
N4695 G03 X549.574 Y335.072 R4.384
N4700 G02 X549.199 Y330.772 R2.774
N4705 X536.885 Y330.276 R11.75
N4710 G03 X535.625 Y330.919 R17.809
N4715 X534.336 Y331.502 R91.605
N4720 G02 X533.653 Y332.182 R1.345
N4725 G03 X533.065 Y333.468 R91.974
N4730 X532.417 Y334.725 R17.798
N4735 G02 X552.859 Y346.317 R11.75
N4740 X549.199 Y330.772 R11.75
N4745 G03 X547.213 Y326.546 R4.547
N4750 G02 X544.241 Y322.943 R3.287
N4755 X533.995 Y325.132 R17.65
N4760 G03 X531.865 Y326.168 R20.08
N4765 X529.643 Y326.987 R29.083
N4770 G02 X529.158 Y327.47 R0.754
N4775 G03 X528.33 Y329.689 R29.103
N4780 X527.285 Y331.814 R20.073
N4785 G02 X557.992 Y349.227 R17.65
N4790 X544.241 Y322.943 R17.65
N4795 G03 X540.367 Y320.044 R4.617
N4800 G02 X536.02 Y317.92 R3.59
N4805 X531.106 Y319.988 R23.55
N4810 G03 X527.976 Y321.348 R16.808
N4815 X524.645 Y322.091 R19.164
N4820 G02 X524.282 Y322.453 R0.422
N4825 G03 X523.526 Y325.78 R19.173
N4830 X522.153 Y328.904 R16.803
N4835 G02 X559.257 Y357.207 R23.55
N4840 X536.02 Y317.92 R23.55
N4845 G03 X531.1 Y316.762 R5.124
N4850 G02 X526.156 Y315.706 R4.946
N4855 G03 X517.588 Y315.368 R12.
N4860 X516.977 Y325.969 R12.
N4865 G02 X563.455 Y361.423 R29.5
N4870 X528.192 Y314.8 R29.5
N4875 G03 X526.156 Y315.706 R12.
N4880 G02 X525.915 Y315.819 Z12.03 R1.2 F3000.
N4885 X525.714 Y315.973 Z12.119 R1.2
N4890 X525.565 Y316.145 Z12.262 R1.2
N4895 X525.467 Y316.307 Z12.452 R1.2
N4900 X525.411 Y316.439 Z12.679 R1.2
N4905 X525.384 Y316.523 Z12.933 R1.2
N4910 X525.376 Y316.552 Z13.2 R1.2
N4915 G00 Z70.
N4920 X542.872 Y427.186
N4925 Z60.
N4930 G01 Z57.5 F3000.
N4935 Z13.2
N4940 G02 X542.902 Y427.193 Z12.933 R1.2
N4945 X542.989 Y427.206 Z12.679 R1.2
N4950 X543.132 Y427.215 Z12.452 R1.2
N4955 X543.321 Y427.199 Z12.262 R1.2
N4960 X543.541 Y427.142 Z12.119 R1.2
N4965 X543.768 Y427.031 Z12.03 R1.2
N4970 X543.977 Y426.865 Z12. R1.2
N4975 X541.689 Y423.828 R1.919 F12000.
N4980 G03 X541.671 Y423.838 R0.331
N4985 G02 X541.652 Y423.847 R0.335
N4990 X540.969 Y424.528 R1.795
N4995 X541.453 Y427.008 R1.943
N5000 X543.977 Y426.865 R1.903
N5005 G03 X546.503 Y426.102 R2.804
N5010 G02 X548.342 Y424.209 R1.572
N5015 X539.769 Y420.41 R5.856
N5020 G03 X539.282 Y420.659 R7.034
N5025 G02 X538.791 Y420.901 R11.55
N5030 X538.035 Y421.655 R1.795
N5035 X537.791 Y422.144 R11.525
N5040 G03 X537.54 Y422.63 R7.026
N5045 G02 X546.767 Y429.666 R5.855
N5050 X548.342 Y424.209 R5.856
N5055 G03 X549.574 Y420.072 R4.384
N5060 G02 X549.199 Y415.772 R2.774
N5065 X536.885 Y415.276 R11.75
N5070 G03 X535.625 Y415.919 R17.809
N5075 X534.336 Y416.502 R91.605
N5080 G02 X533.653 Y417.182 R1.345
N5085 G03 X533.065 Y418.468 R91.974
N5090 X532.417 Y419.725 R17.798
N5095 G02 X552.859 Y431.317 R11.75
N5100 X549.199 Y415.772 R11.75
N5105 G03 X547.213 Y411.546 R4.547
N5110 G02 X544.241 Y407.943 R3.287
N5115 X533.995 Y410.132 R17.65
N5120 G03 X531.865 Y411.168 R20.08
N5125 X529.643 Y411.987 R29.083
N5130 G02 X529.158 Y412.47 R0.754
N5135 G03 X528.33 Y414.689 R29.103
N5140 X527.285 Y416.814 R20.073
N5145 G02 X557.992 Y434.227 R17.65
N5150 X544.241 Y407.943 R17.65
N5155 G03 X540.367 Y405.044 R4.617
N5160 G02 X536.02 Y402.92 R3.59
N5165 X531.106 Y404.988 R23.55
N5170 G03 X527.976 Y406.348 R16.808
N5175 X524.645 Y407.091 R19.164
N5180 G02 X524.282 Y407.453 R0.422
N5185 G03 X523.526 Y410.78 R19.173
N5190 X522.153 Y413.904 R16.803
N5195 G02 X559.257 Y442.207 R23.55
N5200 X536.02 Y402.92 R23.55
N5205 G03 X531.1 Y401.762 R5.124
N5210 G02 X526.156 Y400.706 R4.946
N5215 G03 X517.588 Y400.368 R12.
N5220 X516.977 Y410.969 R12.
N5225 G02 X563.455 Y446.423 R29.5
N5230 X528.192 Y399.8 R29.5
N5235 G03 X526.156 Y400.706 R12.
N5240 G02 X525.915 Y400.819 Z12.03 R1.2 F3000.
N5245 X525.714 Y400.973 Z12.119 R1.2
N5250 X525.565 Y401.145 Z12.262 R1.2
N5255 X525.467 Y401.307 Z12.452 R1.2
N5260 X525.411 Y401.439 Z12.679 R1.2
N5265 X525.384 Y401.523 Z12.933 R1.2
N5270 X525.376 Y401.552 Z13.2 R1.2
N5275 G00 Z70.
N5280 X457.872 Y427.186
N5285 Z60.
N5290 G01 Z57.5 F3000.
N5295 Z13.2
N5300 G02 X457.902 Y427.193 Z12.933 R1.2
N5305 X457.989 Y427.206 Z12.679 R1.2
N5310 X458.132 Y427.215 Z12.452 R1.2
N5315 X458.321 Y427.199 Z12.262 R1.2
N5320 X458.541 Y427.142 Z12.119 R1.2
N5325 X458.768 Y427.031 Z12.03 R1.2
N5330 X458.977 Y426.865 Z12. R1.2
N5335 X456.689 Y423.828 R1.919 F12000.
N5340 G03 X456.671 Y423.838 R0.331
N5345 G02 X456.652 Y423.847 R0.335
N5350 X455.969 Y424.528 R1.795
N5355 X456.453 Y427.008 R1.943
N5360 X458.977 Y426.865 R1.903
N5365 G03 X461.503 Y426.102 R2.804
N5370 G02 X463.342 Y424.209 R1.572
N5375 X454.769 Y420.41 R5.856
N5380 G03 X454.282 Y420.659 R7.034
N5385 G02 X453.791 Y420.901 R11.55
N5390 X453.035 Y421.655 R1.795
N5395 X452.791 Y422.144 R11.525
N5400 G03 X452.54 Y422.63 R7.026
N5405 G02 X461.767 Y429.666 R5.855
N5410 X463.342 Y424.209 R5.856
N5415 G03 X464.574 Y420.072 R4.384
N5420 G02 X464.199 Y415.772 R2.774
N5425 X451.885 Y415.276 R11.75
N5430 G03 X450.625 Y415.919 R17.809
N5435 X449.336 Y416.502 R91.605
N5440 G02 X448.653 Y417.182 R1.345
N5445 G03 X448.065 Y418.468 R91.974
N5450 X447.417 Y419.725 R17.798
N5455 G02 X467.859 Y431.317 R11.75
N5460 X464.199 Y415.772 R11.75
N5465 G03 X462.213 Y411.546 R4.547
N5470 G02 X459.241 Y407.943 R3.287
N5475 X448.995 Y410.132 R17.65
N5480 G03 X446.865 Y411.168 R20.08
N5485 X444.643 Y411.987 R29.083
N5490 G02 X444.158 Y412.47 R0.754
N5495 G03 X443.33 Y414.689 R29.103
N5500 X442.285 Y416.814 R20.073
N5505 G02 X470.093 Y438.027 R17.65
N5510 X459.241 Y407.943 R17.65
N5515 G03 X455.367 Y405.044 R4.617
N5520 G02 X451.02 Y402.92 R3.59
N5525 X446.106 Y404.988 R23.55
N5530 G03 X442.976 Y406.348 R16.808
N5535 X439.645 Y407.091 R19.164
N5540 G02 X439.282 Y407.453 R0.422
N5545 G03 X438.526 Y410.78 R19.173
N5550 X437.153 Y413.904 R16.803
N5555 G02 X474.257 Y442.207 R23.55
N5560 X451.02 Y402.92 R23.55
N5565 G03 X446.1 Y401.762 R5.124
N5570 G02 X441.156 Y400.706 R4.946
N5575 G03 X432.588 Y400.368 R12.
N5580 X431.977 Y410.969 R12.
N5585 G02 X483.299 Y440.073 R29.5
N5590 X443.192 Y399.8 R29.5
N5595 G03 X441.156 Y400.706 R12.
N5600 G02 X440.915 Y400.819 Z12.03 R1.2 F3000.
N5605 X440.714 Y400.973 Z12.119 R1.2
N5610 X440.565 Y401.145 Z12.262 R1.2
N5615 X440.467 Y401.307 Z12.452 R1.2
N5620 X440.411 Y401.439 Z12.679 R1.2
N5625 X440.384 Y401.523 Z12.933 R1.2
N5630 X440.376 Y401.552 Z13.2 R1.2
N5635 G00 Z70.
N5640 X457.872 Y342.186
N5645 Z60.
N5650 G01 Z57.5 F3000.
N5655 Z13.2
N5660 G02 X457.902 Y342.193 Z12.933 R1.2
N5665 X457.989 Y342.206 Z12.679 R1.2
N5670 X458.132 Y342.215 Z12.452 R1.2
N5675 X458.321 Y342.199 Z12.262 R1.2
N5680 X458.541 Y342.142 Z12.119 R1.2
N5685 X458.768 Y342.031 Z12.03 R1.2
N5690 X458.977 Y341.865 Z12. R1.2
N5695 X456.689 Y338.828 R1.919 F12000.
N5700 G03 X456.671 Y338.838 R0.331
N5705 G02 X456.652 Y338.847 R0.335
N5710 X455.969 Y339.528 R1.795
N5715 X456.453 Y342.008 R1.943
N5720 X458.977 Y341.865 R1.903
N5725 G03 X461.503 Y341.102 R2.804
N5730 G02 X463.342 Y339.209 R1.572
N5735 X454.769 Y335.41 R5.856
N5740 G03 X454.282 Y335.659 R7.034
N5745 G02 X453.791 Y335.901 R11.55
N5750 X453.035 Y336.655 R1.795
N5755 X452.791 Y337.144 R11.525
N5760 G03 X452.54 Y337.63 R7.026
N5765 G02 X461.767 Y344.666 R5.855
N5770 X463.342 Y339.209 R5.856
N5775 G03 X464.574 Y335.072 R4.384
N5780 G02 X464.199 Y330.772 R2.774
N5785 X451.885 Y330.276 R11.75
N5790 G03 X450.625 Y330.919 R17.809
N5795 X449.336 Y331.502 R91.605
N5800 G02 X448.653 Y332.182 R1.345
N5805 G03 X448.065 Y333.468 R91.974
N5810 X447.417 Y334.725 R17.798
N5815 G02 X467.859 Y346.317 R11.75
N5820 X464.199 Y330.772 R11.75
N5825 G03 X462.213 Y326.546 R4.547
N5830 G02 X459.241 Y322.943 R3.287
N5835 X448.995 Y325.132 R17.65
N5840 G03 X446.865 Y326.168 R20.08
N5845 X444.643 Y326.987 R29.083
N5850 G02 X444.158 Y327.47 R0.754
N5855 G03 X443.33 Y329.689 R29.103
N5860 X442.285 Y331.814 R20.073
N5865 G02 X470.093 Y353.027 R17.65
N5870 X459.241 Y322.943 R17.65
N5875 G03 X455.367 Y320.044 R4.617
N5880 G02 X451.02 Y317.92 R3.59
N5885 X446.106 Y319.988 R23.55
N5890 G03 X442.976 Y321.348 R16.808
N5895 X439.645 Y322.091 R19.164
N5900 G02 X439.282 Y322.453 R0.422
N5905 G03 X438.526 Y325.78 R19.173
N5910 X437.153 Y328.904 R16.803
N5915 G02 X474.257 Y357.207 R23.55
N5920 X451.02 Y317.92 R23.55
N5925 G03 X446.1 Y316.762 R5.124
N5930 G02 X441.156 Y315.706 R4.946
N5935 G03 X432.588 Y315.368 R12.
N5940 X431.977 Y325.969 R12.
N5945 G02 X483.299 Y355.073 R29.5
N5950 X443.192 Y314.8 R29.5
N5955 G03 X441.156 Y315.706 R12.
N5960 G02 X440.915 Y315.819 Z12.03 R1.2 F3000.
N5965 X440.714 Y315.973 Z12.119 R1.2
N5970 X440.565 Y316.145 Z12.262 R1.2
N5975 X440.467 Y316.307 Z12.452 R1.2
N5980 X440.411 Y316.439 Z12.679 R1.2
N5985 X440.384 Y316.523 Z12.933 R1.2
N5990 X440.376 Y316.552 Z13.2 R1.2
N5995 G00 Z70.
N6000 X372.872 Y342.186
N6005 Z60.
N6010 G01 Z57.5 F3000.
N6015 Z13.2
N6020 G02 X372.902 Y342.193 Z12.933 R1.2
N6025 X372.989 Y342.206 Z12.679 R1.2
N6030 X373.132 Y342.215 Z12.452 R1.2
N6035 X373.321 Y342.199 Z12.262 R1.2
N6040 X373.541 Y342.142 Z12.119 R1.2
N6045 X373.768 Y342.031 Z12.03 R1.2
N6050 X373.977 Y341.865 Z12. R1.2
N6055 X371.689 Y338.828 R1.919 F12000.
N6060 G03 X371.671 Y338.838 R0.331
N6065 G02 X371.652 Y338.847 R0.335
N6070 X370.969 Y339.528 R1.795
N6075 X371.453 Y342.008 R1.943
N6080 X373.977 Y341.865 R1.903
N6085 G03 X376.503 Y341.102 R2.804
N6090 G02 X378.342 Y339.209 R1.572
N6095 X369.769 Y335.41 R5.856
N6100 G03 X369.282 Y335.659 R7.034
N6105 G02 X368.791 Y335.901 R11.55
N6110 X368.035 Y336.655 R1.795
N6115 X367.791 Y337.144 R11.525
N6120 G03 X367.54 Y337.63 R7.026
N6125 G02 X376.767 Y344.666 R5.855
N6130 X378.342 Y339.209 R5.856
N6135 G03 X379.574 Y335.072 R4.384
N6140 G02 X379.199 Y330.772 R2.774
N6145 X366.885 Y330.276 R11.75
N6150 G03 X365.625 Y330.919 R17.809
N6155 X364.336 Y331.502 R91.605
N6160 G02 X363.653 Y332.182 R1.345
N6165 G03 X363.065 Y333.468 R91.974
N6170 X362.417 Y334.725 R17.798
N6175 G02 X382.859 Y346.317 R11.75
N6180 X379.199 Y330.772 R11.75
N6185 G03 X377.213 Y326.546 R4.547
N6190 G02 X374.241 Y322.943 R3.287
N6195 X363.995 Y325.132 R17.65
N6200 G03 X361.865 Y326.168 R20.08
N6205 X359.643 Y326.987 R29.083
N6210 G02 X359.158 Y327.47 R0.754
N6215 G03 X358.33 Y329.689 R29.103
N6220 X357.285 Y331.814 R20.073
N6225 G02 X385.093 Y353.027 R17.65
N6230 X374.241 Y322.943 R17.65
N6235 G03 X370.367 Y320.044 R4.617
N6240 G02 X366.02 Y317.92 R3.59
N6245 X361.106 Y319.988 R23.55
N6250 G03 X357.976 Y321.348 R16.808
N6255 X354.645 Y322.091 R19.164
N6260 G02 X354.282 Y322.453 R0.422
N6265 G03 X353.526 Y325.78 R19.173
N6270 X352.153 Y328.904 R16.803
N6275 G02 X389.257 Y357.207 R23.55
N6280 X366.02 Y317.92 R23.55
N6285 G03 X361.1 Y316.762 R5.124
N6290 G02 X356.156 Y315.706 R4.946
N6295 G03 X347.588 Y315.368 R12.
N6300 X346.977 Y325.969 R12.
N6305 G02 X398.299 Y355.073 R29.5
N6310 X358.192 Y314.8 R29.5
N6315 G03 X356.156 Y315.706 R12.
N6320 G02 X355.915 Y315.819 Z12.03 R1.2 F3000.
N6325 X355.714 Y315.973 Z12.119 R1.2
N6330 X355.565 Y316.145 Z12.262 R1.2
N6335 X355.467 Y316.307 Z12.452 R1.2
N6340 X355.411 Y316.439 Z12.679 R1.2
N6345 X355.384 Y316.523 Z12.933 R1.2
N6350 X355.376 Y316.552 Z13.2 R1.2
N6355 G00 Z70.
N6360 X372.872 Y427.186
N6365 Z60.
N6370 G01 Z57.5 F3000.
N6375 Z13.2
N6380 G02 X372.902 Y427.193 Z12.933 R1.2
N6385 X372.989 Y427.206 Z12.679 R1.2
N6390 X373.132 Y427.215 Z12.452 R1.2
N6395 X373.321 Y427.199 Z12.262 R1.2
N6400 X373.541 Y427.142 Z12.119 R1.2
N6405 X373.768 Y427.031 Z12.03 R1.2
N6410 X373.977 Y426.865 Z12. R1.2
N6415 X371.689 Y423.828 R1.919 F12000.
N6420 G03 X371.671 Y423.838 R0.331
N6425 G02 X371.652 Y423.847 R0.335
N6430 X370.969 Y424.528 R1.795
N6435 X371.453 Y427.008 R1.943
N6440 X373.977 Y426.865 R1.903
N6445 G03 X376.503 Y426.102 R2.804
N6450 G02 X378.342 Y424.209 R1.572
N6455 X369.769 Y420.41 R5.856
N6460 G03 X369.282 Y420.659 R7.034
N6465 G02 X368.791 Y420.901 R11.55
N6470 X368.035 Y421.655 R1.795
N6475 X367.791 Y422.144 R11.525
N6480 G03 X367.54 Y422.63 R7.026
N6485 G02 X376.767 Y429.666 R5.855
N6490 X378.342 Y424.209 R5.856
N6495 G03 X379.574 Y420.072 R4.384
N6500 G02 X379.199 Y415.772 R2.774
N6505 X366.885 Y415.276 R11.75
N6510 G03 X365.625 Y415.919 R17.809
N6515 X364.336 Y416.502 R91.605
N6520 G02 X363.653 Y417.182 R1.345
N6525 G03 X363.065 Y418.468 R91.974
N6530 X362.417 Y419.725 R17.798
N6535 G02 X382.859 Y431.317 R11.75
N6540 X379.199 Y415.772 R11.75
N6545 G03 X377.213 Y411.546 R4.547
N6550 G02 X374.241 Y407.943 R3.287
N6555 X363.995 Y410.132 R17.65
N6560 G03 X361.865 Y411.168 R20.08
N6565 X359.643 Y411.987 R29.083
N6570 G02 X359.158 Y412.47 R0.754
N6575 G03 X358.33 Y414.689 R29.103
N6580 X357.285 Y416.814 R20.073
N6585 G02 X385.093 Y438.027 R17.65
N6590 X374.241 Y407.943 R17.65
N6595 G03 X370.367 Y405.044 R4.617
N6600 G02 X366.02 Y402.92 R3.59
N6605 X361.106 Y404.988 R23.55
N6610 G03 X357.976 Y406.348 R16.808
N6615 X354.645 Y407.091 R19.164
N6620 G02 X354.282 Y407.453 R0.422
N6625 G03 X353.526 Y410.78 R19.173
N6630 X352.153 Y413.904 R16.803
N6635 G02 X389.257 Y442.207 R23.55
N6640 X366.02 Y402.92 R23.55
N6645 G03 X361.1 Y401.762 R5.124
N6650 G02 X356.156 Y400.706 R4.946
N6655 G03 X347.588 Y400.368 R12.
N6660 X346.977 Y410.969 R12.
N6665 G02 X398.299 Y440.073 R29.5
N6670 X358.192 Y399.8 R29.5
N6675 G03 X356.156 Y400.706 R12.
N6680 G02 X355.915 Y400.819 Z12.03 R1.2 F3000.
N6685 X355.714 Y400.973 Z12.119 R1.2
N6690 X355.565 Y401.145 Z12.262 R1.2
N6695 X355.467 Y401.307 Z12.452 R1.2
N6700 X355.411 Y401.439 Z12.679 R1.2
N6705 X355.384 Y401.523 Z12.933 R1.2
N6710 X355.376 Y401.552 Z13.2 R1.2
N6715 G00 Z70.
N6720 X1041.522 Y137.51
N6725 Z60.
N6730 G01 Z57.5 F3000.
N6735 Z31.2
N6740 G02 X1041.497 Y137.527 Z30.933 R1.2
N6745 X1041.425 Y137.579 Z30.679 R1.2
N6750 X1041.318 Y137.674 Z30.452 R1.2
N6755 X1041.196 Y137.819 Z30.262 R1.2
N6760 X1041.081 Y138.016 Z30.119 R1.2
N6765 X1041. Y138.255 Z30.03 R1.2
N6770 X1040.97 Y138.52 Z30. R1.2
N6775 G01 Y464.521 F12000.
N6780 G02 X1041.52 Y465.071 R0.55
N6785 X1042.07 Y464.521 R0.55
N6790 G01 Y138.52
N6795 G02 X1041.52 Y137.97 R0.55
N6800 X1040.97 Y138.52 R0.55
N6805 G03 X1037.995 Y142.982 R4.834
N6810 G02 X1035.02 Y147.445 R4.834
N6815 G01 Y464.521
N6820 G02 X1048.02 R6.5
N6825 G01 Y138.52
N6830 G02 X1035.02 R6.5
N6835 G01 Y147.445
N6840 G02 X1035.05 Y147.71 Z30.03 R1.2 F3000.
N6845 X1035.131 Y147.949 Z30.119 R1.2
N6850 X1035.246 Y148.146 Z30.262 R1.2
N6855 X1035.368 Y148.29 Z30.452 R1.2
N6860 X1035.475 Y148.386 Z30.679 R1.2
N6865 X1035.547 Y148.438 Z30.933 R1.2
N6870 X1035.572 Y148.455 Z31.2 R1.2
N6875 G00 Z60.
N6880 X956.522 Y139.53
N6885 G01 Z57.5 F3000.
N6890 Z31.2
N6895 G02 X956.547 Y139.513 Z30.933 R1.2
N6900 X956.619 Y139.461 Z30.679 R1.2
N6905 X956.726 Y139.365 Z30.452 R1.2
N6910 X956.848 Y139.221 Z30.262 R1.2
N6915 X956.963 Y139.024 Z30.119 R1.2
N6920 X957.044 Y138.785 Z30.03 R1.2
N6925 X957.074 Y138.52 Z30. R1.2
N6930 X955.974 R0.55 F12000.
N6935 G01 Y464.521
N6940 G02 X957.074 R0.55
N6945 G01 Y138.52
N6950 G03 X958.576 Y135.463 R3.861
N6955 G02 X957.801 Y132.147 R1.871
N6960 X950.024 Y138.52 R6.5
N6965 G01 Y464.521
N6970 G02 X963.024 R6.5
N6975 G01 Y138.52
N6980 G02 X957.801 Y132.147 R6.5
N6985 X957.535 Y132.124 Z30.03 R1.2 F3000.
N6990 X957.284 Y132.157 Z30.119 R1.2
N6995 X957.069 Y132.23 Z30.262 R1.2
N7000 X956.903 Y132.322 Z30.452 R1.2
N7005 X956.789 Y132.408 Z30.679 R1.2
N7010 X956.724 Y132.468 Z30.933 R1.2
N7015 X956.702 Y132.489 Z31.2 R1.2
N7020 G00 Z60.
N7025 X964.762 Y88.991
N7030 G01 Z57.5 F3000.
N7035 Z31.2
N7040 G02 X964.745 Y88.966 Z30.933 R1.2
N7045 X964.693 Y88.894 Z30.679 R1.2
N7050 X964.597 Y88.788 Z30.452 R1.2
N7055 X964.453 Y88.665 Z30.262 R1.2
N7060 X964.256 Y88.55 Z30.119 R1.2
N7065 X964.017 Y88.469 Z30.03 R1.2
N7070 X963.752 Y88.439 Z30. R1.2
N7075 X963.202 Y88.989 R0.55 F12000.
N7080 X963.752 Y89.539 R0.55
N7085 G01 X1119.75
N7090 G02 X1120.3 Y88.989 R0.55
N7095 X1119.75 Y88.439 R0.55
N7100 G01 X963.752
N7105 G03 X960.695 Y86.937 R3.861
N7110 G02 X957.379 Y87.713 R1.871
N7115 X957.252 Y88.989 R6.5
N7120 X963.752 Y95.489 R6.5
N7125 G01 X1119.75
N7130 G02 X1126.25 Y88.989 R6.5
N7135 X1119.75 Y82.489 R6.5
N7140 G01 X963.752
N7145 G02 X957.379 Y87.713 R6.5
N7150 X957.356 Y87.978 Z30.03 R1.2 F3000.
N7155 X957.389 Y88.229 Z30.119 R1.2
N7160 X957.462 Y88.444 Z30.262 R1.2
N7165 X957.554 Y88.61 Z30.452 R1.2
N7170 X957.64 Y88.724 Z30.679 R1.2
N7175 X957.7 Y88.79 Z30.933 R1.2
N7180 X957.721 Y88.811 Z31.2 R1.2
N7185 G00 Z60.
N7190 X1126.522 Y463.511
N7195 G01 Z57.5 F3000.
N7200 Z31.2
N7205 G02 X1126.497 Y463.528 Z30.933 R1.2
N7210 X1126.425 Y463.58 Z30.679 R1.2
N7215 X1126.318 Y463.676 Z30.452 R1.2
N7220 X1126.196 Y463.82 Z30.262 R1.2
N7225 X1126.081 Y464.017 Z30.119 R1.2
N7230 X1126. Y464.256 Z30.03 R1.2
N7235 X1125.97 Y464.521 Z30. R1.2
N7240 X1127.07 R0.55 F12000.
N7245 G01 Y138.52
N7250 G02 X1126.52 Y137.97 R0.55
N7255 X1125.97 Y138.52 R0.55
N7260 G01 Y464.521
N7265 G03 X1124.468 Y467.578 R3.861
N7270 G02 X1125.243 Y470.894 R1.871
N7275 X1133.02 Y464.521 R6.5
N7280 G01 Y138.52
N7285 G02 X1120.02 R6.5
N7290 G01 Y464.521
N7295 G02 X1125.243 Y470.894 R6.5
N7300 X1125.509 Y470.917 Z30.03 R1.2 F3000.
N7305 X1125.76 Y470.884 Z30.119 R1.2
N7310 X1125.974 Y470.811 Z30.262 R1.2
N7315 X1126.141 Y470.719 Z30.452 R1.2
N7320 X1126.255 Y470.633 Z30.679 R1.2
N7325 X1126.32 Y470.573 Z30.933 R1.2
N7330 X1126.342 Y470.552 Z31.2 R1.2
N7335 G00 Z70.
N7340 X295.496 Y283.7
N7345 Z60.
N7350 G01 Z57.5 F3000.
N7355 Z21.2
N7360 G02 X295.474 Y283.679 Z20.933 R1.2
N7365 X295.407 Y283.621 Z20.679 R1.2
N7370 X295.289 Y283.54 Z20.452 R1.2
N7375 X295.12 Y283.453 Z20.262 R1.2
N7380 X294.903 Y283.387 Z20.119 R1.2
N7385 X294.651 Y283.362 Z20.03 R1.2
N7390 X294.387 Y283.394 Z20. R1.2
N7395 G03 X294.026 Y283.475 R19.018 F12000.
N7400 X290.5 Y283.85 R16.779
N7405 G02 Y288.15 R2.15
N7410 G03 X294.026 Y288.525 R16.779
N7415 X297.408 Y289.59 R19.018
N7420 G02 X297.695 Y289.399 R0.207
N7425 G01 Y282.601
N7430 G02 X297.408 Y282.41 R0.207
N7435 G03 X294.387 Y283.394 R19.018
N7440 G02 X294.135 Y283.481 Z20.03 R1.2 F3000.
N7445 X293.919 Y283.613 Z20.119 R1.2
N7450 X293.752 Y283.767 Z20.262 R1.2
N7455 X293.637 Y283.919 Z20.452 R1.2
N7460 X293.568 Y284.043 Z20.679 R1.2
N7465 X293.532 Y284.125 Z20.933 R1.2
N7470 X293.521 Y284.153 Z21.2 R1.2
N7475 G00 Z60.
N7480 X292.766 Y46.306
N7485 G01 Z57.5 F3000.
N7490 Z21.2
N7495 G02 X292.76 Y46.335 Z20.933 R1.2
N7500 X292.747 Y46.423 Z20.679 R1.2
N7505 X292.739 Y46.566 Z20.452 R1.2
N7510 X292.754 Y46.755 Z20.262 R1.2
N7515 X292.812 Y46.975 Z20.119 R1.2
N7520 X292.924 Y47.202 Z20.03 R1.2
N7525 X293.09 Y47.41 Z20. R1.2
N7530 G01 X297.441 Y51.761 F12000.
N7535 G02 X297.695 Y51.655 R0.149
N7540 G01 Y43.124
N7545 G02 X297.376 Y42.805 R0.319
N7550 G01 X288.799
N7555 G02 X288.707 Y43.027 R0.13
N7560 G01 X293.09 Y47.41
N7565 G02 X293.298 Y47.576 Z20.03 R1.2 F3000.
N7570 X293.525 Y47.688 Z20.119 R1.2
N7575 X293.745 Y47.746 Z20.262 R1.2
N7580 X293.934 Y47.761 Z20.452 R1.2
N7585 X294.077 Y47.753 Z20.679 R1.2
N7590 X294.165 Y47.74 Z20.933 R1.2
N7595 X294.194 Y47.734 Z21.2 R1.2
N7600 G00 Z60.
N7605 X40.012 Y43.357
N7610 G01 Z57.5 F3000.
N7615 Z21.2
N7620 G02 X39.996 Y43.332 Z20.933 R1.2
N7625 X39.943 Y43.26 Z20.679 R1.2
N7630 X39.848 Y43.153 Z20.452 R1.2
N7635 X39.703 Y43.031 Z20.262 R1.2
N7640 X39.507 Y42.916 Z20.119 R1.2
N7645 X39.267 Y42.835 Z20.03 R1.2
N7650 X39.003 Y42.805 Z20. R1.2
N7655 G01 X36.624 F12000.
N7660 G02 X36.305 Y43.124 R0.319
N7665 G01 Y51.655
N7670 G02 X36.559 Y51.761 R0.149
N7675 G01 X45.261 Y43.059
N7680 G02 X45.155 Y42.805 R0.149
N7685 G01 X39.003
N7690 G02 X38.738 Y42.835 Z20.03 R1.2 F3000.
N7695 X38.498 Y42.916 Z20.119 R1.2
N7700 X38.302 Y43.031 Z20.262 R1.2
N7705 X38.157 Y43.153 Z20.452 R1.2
N7710 X38.062 Y43.26 Z20.679 R1.2
N7715 X38.009 Y43.332 Z20.933 R1.2
N7720 X37.993 Y43.357 Z21.2 R1.2
N7725 G00 Z60.
N7730 X40.47 Y284.163
N7735 G01 Z57.5 F3000.
N7740 Z21.2
N7745 G02 X40.459 Y284.135 Z20.933 R1.2
N7750 X40.425 Y284.053 Z20.679 R1.2
N7755 X40.356 Y283.927 Z20.452 R1.2
N7760 X40.244 Y283.775 Z20.262 R1.2
N7765 X40.079 Y283.618 Z20.119 R1.2
N7770 X39.864 Y283.484 Z20.03 R1.2
N7775 X39.613 Y283.394 Z20. R1.2
N7780 G03 X36.549 Y282.392 R19.001 F12000.
N7785 G02 X36.305 Y282.553 R0.175
N7790 G01 Y289.399
N7795 G02 X36.592 Y289.59 R0.207
N7800 G03 X39.974 Y288.525 R19.018
N7805 X43.5 Y288.15 R16.779
N7810 G02 Y283.85 R2.15
N7815 G03 X39.951 Y283.471 R16.792
N7820 X39.613 Y283.394 R19.001
N7825 G02 X39.348 Y283.366 Z20.03 R1.2 F3000.
N7830 X39.097 Y283.393 Z20.119 R1.2
N7835 X38.88 Y283.462 Z20.262 R1.2
N7840 X38.712 Y283.55 Z20.452 R1.2
N7845 X38.596 Y283.633 Z20.679 R1.2
N7850 X38.529 Y283.692 Z20.933 R1.2
N7855 X38.508 Y283.713 Z21.2 R1.2
N7860 G00 Z60.
N7865 X41.234 Y525.694
N7870 G01 Z57.5 F3000.
N7875 Z21.2
N7880 G02 X41.24 Y525.665 Z20.933 R1.2
N7885 X41.253 Y525.577 Z20.679 R1.2
N7890 X41.261 Y525.434 Z20.452 R1.2
N7895 X41.246 Y525.245 Z20.262 R1.2
N7900 X41.188 Y525.025 Z20.119 R1.2
N7905 X41.076 Y524.798 Z20.03 R1.2
N7910 X40.91 Y524.59 Z20. R1.2
N7915 G01 X36.527 Y520.207 F12000.
N7920 G02 X36.305 Y520.299 R0.13
N7925 G01 Y528.876
N7930 G02 X36.624 Y529.195 R0.319
N7935 G01 X45.155
N7940 G02 X45.261 Y528.941 R0.149
N7945 G01 X40.91 Y524.59
N7950 G02 X40.702 Y524.424 Z20.03 R1.2 F3000.
N7955 X40.475 Y524.312 Z20.119 R1.2
N7960 X40.255 Y524.254 Z20.262 R1.2
N7965 X40.066 Y524.239 Z20.452 R1.2
N7970 X39.923 Y524.247 Z20.679 R1.2
N7975 X39.835 Y524.26 Z20.933 R1.2
N7980 X39.806 Y524.266 Z21.2 R1.2
N7985 G00 Z60.
N7990 X294.194
N7995 G01 Z57.5 F3000.
N8000 Z21.2
N8005 G02 X294.165 Y524.26 Z20.933 R1.2
N8010 X294.077 Y524.247 Z20.679 R1.2
N8015 X293.934 Y524.239 Z20.452 R1.2
N8020 X293.745 Y524.254 Z20.262 R1.2
N8025 X293.525 Y524.312 Z20.119 R1.2
N8030 X293.298 Y524.424 Z20.03 R1.2
N8035 X293.09 Y524.59 Z20. R1.2
N8040 G01 X288.739 Y528.941 F12000.
N8045 G02 X288.845 Y529.195 R0.149
N8050 G01 X297.376
N8055 G02 X297.695 Y528.876 R0.319
N8060 G01 Y520.345
N8065 G02 X297.441 Y520.239 R0.149
N8070 G01 X293.09 Y524.59
N8075 G03 X287.915 Y525.625 R4.757
N8080 G02 X282.74 Y526.66 R4.757
N8085 G01 X278.95 Y530.45
N8090 G03 X270.5 Y533.95 R11.95
N8095 G01 X63.5
N8100 G03 X55.05 Y530.45 R11.95
N8105 G01 X35.05 Y510.45
N8110 G03 X31.55 Y502. R11.95
N8115 G01 Y306.
N8120 G03 X43.5 Y294.05 R11.95
N8125 G02 Y277.95 R8.05
N8130 G03 X31.55 Y266. R11.95
N8135 G01 Y70.
N8140 G03 X35.05 Y61.55 R11.95
N8145 G01 X55.05 Y41.55
N8150 G03 X63.5 Y38.05 R11.95
N8155 G01 X270.5
N8160 G03 X278.95 Y41.55 R11.95
N8165 G01 X298.95 Y61.55
N8170 G03 X302.45 Y70. R11.95
N8175 G01 Y266.
N8180 G03 X290.5 Y277.95 R11.95
N8185 G02 Y294.05 R8.05
N8190 G03 X302.45 Y306. R11.95
N8195 G01 Y502.
N8200 G03 X298.95 Y510.45 R11.95
N8205 G01 X282.74 Y526.66
N8210 G03 X277.282 Y528.106 R5.619
N8215 G02 X271.64 Y527.891 R12.419
N8220 G03 X270.5 Y528. R6.
N8225 G01 X63.5
N8230 G03 X59.257 Y526.243 R6.
N8235 G01 X39.257 Y506.243
N8240 G03 X37.5 Y502. R6.
N8245 G01 Y306.
N8250 G03 X43.5 Y300. R6.
N8255 G02 Y272. R14.
N8260 G03 X37.5 Y266. R6.
N8265 G01 Y70.
N8270 G03 X39.257 Y65.757 R6.
N8275 G01 X59.257 Y45.757
N8280 G03 X63.5 Y44. R6.
N8285 G01 X270.5
N8290 G03 X274.743 Y45.757 R6.
N8295 G01 X294.743 Y65.757
N8300 G03 X296.5 Y70. R6.
N8305 G01 Y266.
N8310 G03 X290.5 Y272. R6.
N8315 G02 Y300. R14.
N8320 G03 X296.5 Y306. R6.
N8325 G01 Y502.
N8330 G03 X294.743 Y506.243 R6.
N8335 G01 X274.743 Y526.243
N8340 G03 X271.64 Y527.891 R6.
N8345 G02 X271.604 Y529.061 R0.6
N8350 G01 X294.848 Y535.076
N8355 G02 X294.998 Y535.095 R0.6
N8360 G01 X303.276
N8365 G02 X303.595 Y534.776 R0.319
N8370 G01 Y37.224
N8375 G02 X303.276 Y36.905 R0.319
N8380 G01 X30.724
N8385 G02 X30.405 Y37.224 R0.319
N8390 G01 Y534.776
N8395 G02 X30.724 Y535.095 R0.319
N8400 G01 X294.998
N8405 G03 X299.427 Y538.047 R4.798
N8410 G02 X303.856 Y541. R4.798
N8415 G01 X309.5
N8420 Y31.
N8425 X24.5
N8430 Y541.
N8435 X303.856
N8440 G02 X304.12 Y540.97 Z20.03 R1.2 F3000.
N8445 X304.36 Y540.889 Z20.119 R1.2
N8450 X304.556 Y540.774 Z20.262 R1.2
N8455 X304.701 Y540.652 Z20.452 R1.2
N8460 X304.796 Y540.545 Z20.679 R1.2
N8465 X304.849 Y540.473 Z20.933 R1.2
N8470 X304.865 Y540.448 Z21.2 R1.2
N8475 G00 Z70.
N8485 M05
N8490 G28 G91 Z0.
N8495 G90
N8500 G49

(TRACE1)
N8505 T25 M06
N8510 S5000 M03
N8515 G54
N8525 G00 X731.253 Y397.069
N8530 G43 Z70. H25
N8535 G00 Z60.
N8540 G01 Z0. F2000.
N8545 X732.295 Y396.506 F3000.
N8550 X733.356 Y395.978
N8555 X734.433 Y395.486
N8560 X735.527 Y395.03
N8565 X736.635 Y394.611
N8570 X737.756 Y394.229
N8575 X738.89 Y393.885
N8580 X740.034 Y393.579
N8585 X741.188 Y393.311
N8590 X742.35 Y393.082
N8595 X743.52 Y392.891
N8600 X744.695 Y392.74
N8605 X745.874 Y392.628
N8610 X747.057 Y392.555
N8615 X748.241 Y392.522
N8620 X749.425 Y392.529
N8625 X750.609 Y392.575
N8630 X751.791 Y392.66
N8635 X752.969 Y392.785
N8640 X754.142 Y392.949
N8645 X755.309 Y393.153
N8650 X756.469 Y393.395
N8655 X757.62 Y393.675
N8660 X758.761 Y393.994
N8665 X759.891 Y394.351
N8670 X761.008 Y394.745
N8675 X762.111 Y395.176
N8680 X763.2 Y395.644
N8685 X764.272 Y396.148
N8690 X765.326 Y396.687
N8695 X766.363 Y397.261
N8700 X767.379 Y397.87
N8705 X768.375 Y398.512
N8710 X769.348 Y399.187
N8715 X770.299 Y399.894
N8720 X771.225 Y400.632
N8725 X772.126 Y401.401
N8730 X773.002 Y402.2
N8735 X773.85 Y403.027
N8740 X774.669 Y403.882
N8745 X775.46 Y404.764
N8750 X776.221 Y405.672
N8755 X776.952 Y406.605
N8760 X777.651 Y407.562
N8765 X778.317 Y408.541
N8770 X778.95 Y409.542
N8775 X779.55 Y410.564
N8780 X780.115 Y411.605
N8785 X780.646 Y412.664
N8790 X781.14 Y413.741
N8795 X781.599 Y414.833
N8800 X782.02 Y415.94
N8805 X782.405 Y417.061
N8810 X782.752 Y418.194
N8815 X783.06 Y419.337
N8820 X783.331 Y420.491
N8825 X783.563 Y421.652
N8830 X783.756 Y422.821
N8835 X783.91 Y423.996
N8840 X784.025 Y425.175
N8845 X784.1 Y426.357
N8850 X784.136 Y427.541
N8855 X784.132 Y428.726
N8860 X784.089 Y429.91
N8865 X784.006 Y431.092
N8870 X783.884 Y432.27
N8875 X783.722 Y433.444
N8880 X783.522 Y434.611
N8885 X783.282 Y435.772
N8890 X783.004 Y436.923
N8895 X782.688 Y438.065
N8900 X782.334 Y439.195
N8905 X781.943 Y440.313
N8910 X781.514 Y441.418
N8915 X781.049 Y442.507
N8920 X780.547 Y443.581
N8925 X780.01 Y444.637
N8930 X779.438 Y445.674
N8935 X778.832 Y446.692
N8940 X778.192 Y447.689
N8945 X777.52 Y448.664
N8950 X776.815 Y449.616
N8955 X776.078 Y450.544
N8960 X775.312 Y451.447
N8965 X774.515 Y452.324
N8970 X773.69 Y453.174
N8975 X772.837 Y453.996
N8980 X771.956 Y454.789
N8985 X771.05 Y455.552
N8990 X770.119 Y456.285
N8995 X769.164 Y456.986
N9000 X768.186 Y457.654
N9005 X767.187 Y458.29
N9010 X766.166 Y458.892
N9015 X765.126 Y459.46
N9020 X764.068 Y459.992
N9025 X762.993 Y460.489
N9030 X761.902 Y460.95
N9035 X760.795 Y461.375
N9040 X759.676 Y461.762
N9045 X758.544 Y462.111
N9050 X757.401 Y462.423
N9055 X756.248 Y462.696
N9060 X755.087 Y462.93
N9065 X753.919 Y463.126
N9070 X752.744 Y463.283
N9075 X751.565 Y463.4
N9080 X750.383 Y463.478
N9085 X749.199 Y463.517
N9090 X748.015 Y463.516
N9095 X746.831 Y463.475
N9100 X745.649 Y463.395
N9105 X744.47 Y463.275
N9110 X743.296 Y463.117
N9115 X742.128 Y462.919
N9120 X740.967 Y462.682
N9125 X739.815 Y462.407
N9130 X738.672 Y462.093
N9135 X737.541 Y461.742
N9140 X736.422 Y461.353
N9145 X735.317 Y460.927
N9150 X734.226 Y460.464
N9155 X733.152 Y459.965
N9160 X732.095 Y459.43
N9165 X731.056 Y458.861
N9170 X730.037 Y458.257
N9175 X729.038 Y457.62
N9180 X728.061 Y456.949
N9185 X727.108 Y456.246
N9190 X726.178 Y455.512
N9195 X725.273 Y454.748
N9200 X724.394 Y453.953
N9205 X723.542 Y453.13
N9210 X722.719 Y452.278
N9215 X721.924 Y451.4
N9220 X721.158 Y450.496
N9225 X720.424 Y449.566
N9230 X719.721 Y448.613
N9235 X719.05 Y447.636
N9240 X718.412 Y446.638
N9245 X717.807 Y445.619
N9250 X717.237 Y444.581
N9255 X716.702 Y443.524
N9260 X716.203 Y442.45
N9265 X715.739 Y441.359
N9270 X715.313 Y440.254
N9275 X714.923 Y439.135
N9280 X714.571 Y438.004
N9285 X714.257 Y436.862
N9290 X713.981 Y435.71
N9295 X713.744 Y434.549
N9300 X713.545 Y433.381
N9305 X713.386 Y432.207
N9310 X713.266 Y431.029
N9315 X713.185 Y429.847
N9320 X713.144 Y428.663
N9325 X713.142 Y427.478
N9330 X713.18 Y426.294
N9335 X713.257 Y425.112
N9340 X713.374 Y423.933
N9345 X713.53 Y422.759
N9350 X713.725 Y421.59
N9355 X713.959 Y420.429
N9360 X714.232 Y419.276
N9365 X714.543 Y418.133
N9370 X714.892 Y417.001
N9375 X715.278 Y415.881
N9380 X715.702 Y414.775
N9385 X716.162 Y413.683
N9390 X716.659 Y412.607
N9395 X717.191 Y411.549
N9400 X717.758 Y410.509
N9405 X717.968 Y410.102
N9410 X718.147 Y409.68
N9415 X718.294 Y409.246
N9420 X718.406 Y408.802
N9425 X718.485 Y408.35
N9430 X718.529 Y407.894
N9435 X718.537 Y407.436
N9440 X718.511 Y406.979
N9445 X718.45 Y406.525
N9450 X718.355 Y406.076
N9455 X718.226 Y405.637
N9460 X718.063 Y405.208
N9465 X717.895 Y404.764
N9470 X717.763 Y404.307
N9475 X717.667 Y403.842
N9480 X717.609 Y403.371
N9485 X717.588 Y402.896
N9490 X717.604 Y402.421
N9495 X717.658 Y401.949
N9500 X717.75 Y401.483
N9505 X717.878 Y401.025
N9510 X718.041 Y400.579
N9515 X718.24 Y400.147
N9520 X718.472 Y399.733
N9525 X718.736 Y399.338
N9530 X719.031 Y398.965
N9535 X719.354 Y398.616
N9540 X719.703 Y398.295
N9545 X720.077 Y398.002
N9550 X720.473 Y397.739
N9555 X720.889 Y397.509
N9560 X721.322 Y397.312
N9565 X721.768 Y397.15
N9570 X722.226 Y397.024
N9575 X722.693 Y396.935
N9580 X723.165 Y396.882
N9585 X723.64 Y396.868
N9590 X724.115 Y396.891
N9595 X724.586 Y396.951
N9600 X725.051 Y397.049
N9605 X725.507 Y397.183
N9610 X726.379 Y397.517
N9615 X726.818 Y397.648
N9620 X727.265 Y397.745
N9625 X727.719 Y397.808
N9630 X728.177 Y397.836
N9635 X728.635 Y397.829
N9640 X729.091 Y397.787
N9645 X729.543 Y397.71
N9650 X729.987 Y397.6
N9655 X730.422 Y397.455
N9660 X730.845 Y397.278
N9665 X731.253 Y397.069
N9670 Z60. F2000.
N9675 G00 X737.541 Y376.742
N9680 G01 Z0. F2000.
N9685 X736.422 Y376.353 F3000.
N9690 X735.317 Y375.927
N9695 X734.226 Y375.464
N9700 X733.152 Y374.965
N9705 X732.095 Y374.43
N9710 X731.056 Y373.861
N9715 X730.037 Y373.257
N9720 X729.038 Y372.62
N9725 X728.061 Y371.949
N9730 X727.108 Y371.246
N9735 X726.178 Y370.512
N9740 X725.273 Y369.748
N9745 X724.394 Y368.953
N9750 X723.542 Y368.13
N9755 X722.719 Y367.278
N9760 X721.924 Y366.4
N9765 X721.158 Y365.496
N9770 X720.424 Y364.566
N9775 X719.721 Y363.613
N9780 X719.05 Y362.636
N9785 X718.412 Y361.638
N9790 X717.807 Y360.619
N9795 X717.237 Y359.581
N9800 X716.702 Y358.524
N9805 X716.203 Y357.45
N9810 X715.739 Y356.359
N9815 X715.313 Y355.254
N9820 X714.923 Y354.135
N9825 X714.571 Y353.004
N9830 X714.257 Y351.862
N9835 X713.981 Y350.71
N9840 X713.744 Y349.549
N9845 X713.545 Y348.381
N9850 X713.386 Y347.207
N9855 X713.266 Y346.029
N9860 X713.185 Y344.847
N9865 X713.144 Y343.663
N9870 X713.142 Y342.478
N9875 X713.18 Y341.294
N9880 X713.257 Y340.112
N9885 X713.374 Y338.933
N9890 X713.53 Y337.759
N9895 X713.725 Y336.59
N9900 X713.959 Y335.429
N9905 X714.232 Y334.276
N9910 X714.543 Y333.133
N9915 X714.892 Y332.001
N9920 X715.278 Y330.881
N9925 X715.702 Y329.775
N9930 X716.162 Y328.683
N9935 X716.659 Y327.607
N9940 X717.191 Y326.549
N9945 X717.758 Y325.509
N9950 X717.968 Y325.102
N9955 X718.147 Y324.68
N9960 X718.294 Y324.246
N9965 X718.406 Y323.802
N9970 X718.485 Y323.35
N9975 X718.529 Y322.894
N9980 X718.537 Y322.436
N9985 X718.511 Y321.979
N9990 X718.45 Y321.525
N9995 X718.355 Y321.076
N10000 X718.226 Y320.637
N10005 X718.063 Y320.208
N10010 X717.895 Y319.764
N10015 X717.763 Y319.307
N10020 X717.667 Y318.842
N10025 X717.609 Y318.371
N10030 X717.588 Y317.896
N10035 X717.604 Y317.421
N10040 X717.658 Y316.949
N10045 X717.75 Y316.483
N10050 X717.878 Y316.025
N10055 X718.041 Y315.579
N10060 X718.24 Y315.147
N10065 X718.472 Y314.733
N10070 X718.736 Y314.338
N10075 X719.031 Y313.965
N10080 X719.354 Y313.616
N10085 X719.703 Y313.295
N10090 X720.077 Y313.002
N10095 X720.473 Y312.739
N10100 X720.889 Y312.509
N10105 X721.322 Y312.312
N10110 X721.768 Y312.15
N10115 X722.226 Y312.024
N10120 X722.693 Y311.935
N10125 X723.165 Y311.882
N10130 X723.64 Y311.868
N10135 X724.115 Y311.891
N10140 X724.586 Y311.951
N10145 X725.051 Y312.049
N10150 X725.507 Y312.183
N10155 X726.379 Y312.517
N10160 X726.818 Y312.648
N10165 X727.265 Y312.745
N10170 X727.719 Y312.808
N10175 X728.177 Y312.836
N10180 X728.635 Y312.829
N10185 X729.091 Y312.787
N10190 X729.543 Y312.71
N10195 X729.987 Y312.6
N10200 X730.422 Y312.455
N10205 X730.845 Y312.278
N10210 X731.253 Y312.069
N10215 X732.295 Y311.506
N10220 X733.356 Y310.978
N10225 X734.433 Y310.486
N10230 X735.527 Y310.03
N10235 X736.635 Y309.611
N10240 X737.756 Y309.229
N10245 X738.89 Y308.885
N10250 X740.034 Y308.579
N10255 X741.188 Y308.311
N10260 X742.35 Y308.082
N10265 X743.52 Y307.891
N10270 X744.695 Y307.74
N10275 X745.874 Y307.628
N10280 X747.057 Y307.555
N10285 X748.241 Y307.522
N10290 X749.425 Y307.529
N10295 X750.609 Y307.575
N10300 X751.791 Y307.66
N10305 X752.969 Y307.785
N10310 X754.142 Y307.949
N10315 X755.309 Y308.153
N10320 X756.469 Y308.395
N10325 X757.62 Y308.675
N10330 X758.761 Y308.994
N10335 X759.891 Y309.351
N10340 X761.008 Y309.745
N10345 X762.111 Y310.176
N10350 X763.2 Y310.644
N10355 X764.272 Y311.148
N10360 X765.326 Y311.687
N10365 X766.363 Y312.261
N10370 X767.379 Y312.87
N10375 X768.375 Y313.512
N10380 X769.348 Y314.187
N10385 X770.299 Y314.894
N10390 X771.225 Y315.632
N10395 X772.126 Y316.401
N10400 X773.002 Y317.2
N10405 X773.85 Y318.027
N10410 X774.669 Y318.882
N10415 X775.46 Y319.764
N10420 X776.221 Y320.672
N10425 X776.952 Y321.605
N10430 X777.651 Y322.562
N10435 X778.317 Y323.541
N10440 X778.95 Y324.542
N10445 X779.55 Y325.564
N10450 X780.115 Y326.605
N10455 X780.646 Y327.664
N10460 X781.14 Y328.741
N10465 X781.599 Y329.833
N10470 X782.02 Y330.94
N10475 X782.405 Y332.061
N10480 X782.752 Y333.194
N10485 X783.06 Y334.337
N10490 X783.331 Y335.491
N10495 X783.563 Y336.652
N10500 X783.756 Y337.821
N10505 X783.91 Y338.996
N10510 X784.025 Y340.175
N10515 X784.1 Y341.357
N10520 X784.136 Y342.541
N10525 X784.132 Y343.726
N10530 X784.089 Y344.91
N10535 X784.006 Y346.092
N10540 X783.884 Y347.27
N10545 X783.722 Y348.444
N10550 X783.522 Y349.611
N10555 X783.282 Y350.772
N10560 X783.004 Y351.923
N10565 X782.688 Y353.065
N10570 X782.334 Y354.195
N10575 X781.943 Y355.313
N10580 X781.514 Y356.418
N10585 X781.049 Y357.507
N10590 X780.547 Y358.581
N10595 X780.01 Y359.637
N10600 X779.438 Y360.674
N10605 X778.832 Y361.692
N10610 X778.192 Y362.689
N10615 X777.52 Y363.664
N10620 X776.815 Y364.616
N10625 X776.078 Y365.544
N10630 X775.312 Y366.447
N10635 X774.515 Y367.324
N10640 X773.69 Y368.174
N10645 X772.837 Y368.996
N10650 X771.956 Y369.789
N10655 X771.05 Y370.552
N10660 X770.119 Y371.285
N10665 X769.164 Y371.986
N10670 X768.186 Y372.654
N10675 X767.187 Y373.29
N10680 X766.166 Y373.892
N10685 X765.126 Y374.46
N10690 X764.068 Y374.992
N10695 X762.993 Y375.489
N10700 X761.902 Y375.95
N10705 X760.795 Y376.375
N10710 X759.676 Y376.762
N10715 X758.544 Y377.111
N10720 X757.401 Y377.423
N10725 X756.248 Y377.696
N10730 X755.087 Y377.93
N10735 X753.919 Y378.126
N10740 X752.744 Y378.283
N10745 X751.565 Y378.4
N10750 X750.383 Y378.478
N10755 X749.199 Y378.517
N10760 X748.015 Y378.516
N10765 X746.831 Y378.475
N10770 X745.649 Y378.395
N10775 X744.47 Y378.275
N10780 X743.296 Y378.117
N10785 X742.128 Y377.919
N10790 X740.967 Y377.682
N10795 X739.815 Y377.407
N10800 X738.672 Y377.093
N10805 X737.541 Y376.742
N10810 Z60. F2000.
N10815 G00 Y291.742
N10820 G01 Z0. F2000.
N10825 X736.422 Y291.353 F3000.
N10830 X735.317 Y290.927
N10835 X734.226 Y290.464
N10840 X733.152 Y289.965
N10845 X732.095 Y289.43
N10850 X731.056 Y288.861
N10855 X730.037 Y288.257
N10860 X729.038 Y287.62
N10865 X728.061 Y286.949
N10870 X727.108 Y286.246
N10875 X726.178 Y285.512
N10880 X725.273 Y284.748
N10885 X724.394 Y283.953
N10890 X723.542 Y283.13
N10895 X722.719 Y282.278
N10900 X721.924 Y281.4
N10905 X721.158 Y280.496
N10910 X720.424 Y279.566
N10915 X719.721 Y278.613
N10920 X719.05 Y277.636
N10925 X718.412 Y276.638
N10930 X717.807 Y275.619
N10935 X717.237 Y274.581
N10940 X716.702 Y273.524
N10945 X716.203 Y272.45
N10950 X715.739 Y271.359
N10955 X715.313 Y270.254
N10960 X714.923 Y269.135
N10965 X714.571 Y268.004
N10970 X714.257 Y266.862
N10975 X713.981 Y265.71
N10980 X713.744 Y264.549
N10985 X713.545 Y263.381
N10990 X713.386 Y262.207
N10995 X713.266 Y261.029
N11000 X713.185 Y259.847
N11005 X713.144 Y258.663
N11010 X713.142 Y257.478
N11015 X713.18 Y256.294
N11020 X713.257 Y255.112
N11025 X713.374 Y253.933
N11030 X713.53 Y252.759
N11035 X713.725 Y251.59
N11040 X713.959 Y250.429
N11045 X714.232 Y249.276
N11050 X714.543 Y248.133
N11055 X714.892 Y247.001
N11060 X715.278 Y245.881
N11065 X715.702 Y244.775
N11070 X716.162 Y243.683
N11075 X716.659 Y242.607
N11080 X717.191 Y241.549
N11085 X717.758 Y240.509
N11090 X717.968 Y240.102
N11095 X718.147 Y239.68
N11100 X718.294 Y239.246
N11105 X718.406 Y238.802
N11110 X718.485 Y238.35
N11115 X718.529 Y237.894
N11120 X718.537 Y237.436
N11125 X718.511 Y236.979
N11130 X718.45 Y236.525
N11135 X718.355 Y236.076
N11140 X718.226 Y235.637
N11145 X718.063 Y235.208
N11150 X717.895 Y234.764
N11155 X717.763 Y234.307
N11160 X717.667 Y233.842
N11165 X717.609 Y233.371
N11170 X717.588 Y232.896
N11175 X717.604 Y232.421
N11180 X717.658 Y231.949
N11185 X717.75 Y231.483
N11190 X717.878 Y231.025
N11195 X718.041 Y230.579
N11200 X718.24 Y230.147
N11205 X718.472 Y229.733
N11210 X718.736 Y229.338
N11215 X719.031 Y228.965
N11220 X719.354 Y228.616
N11225 X719.703 Y228.295
N11230 X720.077 Y228.002
N11235 X720.473 Y227.739
N11240 X720.889 Y227.509
N11245 X721.322 Y227.312
N11250 X721.768 Y227.15
N11255 X722.226 Y227.024
N11260 X722.693 Y226.935
N11265 X723.165 Y226.882
N11270 X723.64 Y226.868
N11275 X724.115 Y226.891
N11280 X724.586 Y226.951
N11285 X725.051 Y227.049
N11290 X725.507 Y227.183
N11295 X726.379 Y227.517
N11300 X726.818 Y227.648
N11305 X727.265 Y227.745
N11310 X727.719 Y227.808
N11315 X728.177 Y227.836
N11320 X728.635 Y227.829
N11325 X729.091 Y227.787
N11330 X729.543 Y227.71
N11335 X729.987 Y227.6
N11340 X730.422 Y227.455
N11345 X730.845 Y227.278
N11350 X731.253 Y227.069
N11355 X732.295 Y226.506
N11360 X733.356 Y225.978
N11365 X734.433 Y225.486
N11370 X735.527 Y225.03
N11375 X736.635 Y224.611
N11380 X737.756 Y224.229
N11385 X738.89 Y223.885
N11390 X740.034 Y223.579
N11395 X741.188 Y223.311
N11400 X742.35 Y223.082
N11405 X743.52 Y222.891
N11410 X744.695 Y222.74
N11415 X745.874 Y222.628
N11420 X747.057 Y222.555
N11425 X748.241 Y222.522
N11430 X749.425 Y222.529
N11435 X750.609 Y222.575
N11440 X751.791 Y222.66
N11445 X752.969 Y222.785
N11450 X754.142 Y222.949
N11455 X755.309 Y223.153
N11460 X756.469 Y223.395
N11465 X757.62 Y223.675
N11470 X758.761 Y223.994
N11475 X759.891 Y224.351
N11480 X761.008 Y224.745
N11485 X762.111 Y225.176
N11490 X763.2 Y225.644
N11495 X764.272 Y226.148
N11500 X765.326 Y226.687
N11505 X766.363 Y227.261
N11510 X767.379 Y227.87
N11515 X768.375 Y228.512
N11520 X769.348 Y229.187
N11525 X770.299 Y229.894
N11530 X771.225 Y230.632
N11535 X772.126 Y231.401
N11540 X773.002 Y232.2
N11545 X773.85 Y233.027
N11550 X774.669 Y233.882
N11555 X775.46 Y234.764
N11560 X776.221 Y235.672
N11565 X776.952 Y236.605
N11570 X777.651 Y237.562
N11575 X778.317 Y238.541
N11580 X778.95 Y239.542
N11585 X779.55 Y240.564
N11590 X780.115 Y241.605
N11595 X780.646 Y242.664
N11600 X781.14 Y243.741
N11605 X781.599 Y244.833
N11610 X782.02 Y245.94
N11615 X782.405 Y247.061
N11620 X782.752 Y248.194
N11625 X783.06 Y249.337
N11630 X783.331 Y250.491
N11635 X783.563 Y251.652
N11640 X783.756 Y252.821
N11645 X783.91 Y253.996
N11650 X784.025 Y255.175
N11655 X784.1 Y256.357
N11660 X784.136 Y257.541
N11665 X784.132 Y258.726
N11670 X784.089 Y259.91
N11675 X784.006 Y261.092
N11680 X783.884 Y262.27
N11685 X783.722 Y263.444
N11690 X783.522 Y264.611
N11695 X783.282 Y265.772
N11700 X783.004 Y266.923
N11705 X782.688 Y268.065
N11710 X782.334 Y269.195
N11715 X781.943 Y270.313
N11720 X781.514 Y271.418
N11725 X781.049 Y272.507
N11730 X780.547 Y273.581
N11735 X780.01 Y274.637
N11740 X779.438 Y275.674
N11745 X778.832 Y276.692
N11750 X778.192 Y277.689
N11755 X777.52 Y278.664
N11760 X776.815 Y279.616
N11765 X776.078 Y280.544
N11770 X775.312 Y281.447
N11775 X774.515 Y282.324
N11780 X773.69 Y283.174
N11785 X772.837 Y283.996
N11790 X771.956 Y284.789
N11795 X771.05 Y285.552
N11800 X770.119 Y286.285
N11805 X769.164 Y286.986
N11810 X768.186 Y287.654
N11815 X767.187 Y288.29
N11820 X766.166 Y288.892
N11825 X765.126 Y289.46
N11830 X764.068 Y289.992
N11835 X762.993 Y290.489
N11840 X761.902 Y290.95
N11845 X760.795 Y291.375
N11850 X759.676 Y291.762
N11855 X758.544 Y292.111
N11860 X757.401 Y292.423
N11865 X756.248 Y292.696
N11870 X755.087 Y292.93
N11875 X753.919 Y293.126
N11880 X752.744 Y293.283
N11885 X751.565 Y293.4
N11890 X750.383 Y293.478
N11895 X749.199 Y293.517
N11900 X748.015 Y293.516
N11905 X746.831 Y293.475
N11910 X745.649 Y293.395
N11915 X744.47 Y293.275
N11920 X743.296 Y293.117
N11925 X742.128 Y292.919
N11930 X740.967 Y292.682
N11935 X739.815 Y292.407
N11940 X738.672 Y292.093
N11945 X737.541 Y291.742
N11950 Z60. F2000.
N11955 G00 Y206.742
N11960 G01 Z0. F2000.
N11965 X736.422 Y206.353 F3000.
N11970 X735.317 Y205.927
N11975 X734.226 Y205.464
N11980 X733.152 Y204.965
N11985 X732.095 Y204.43
N11990 X731.056 Y203.861
N11995 X730.037 Y203.257
N12000 X729.038 Y202.62
N12005 X728.061 Y201.949
N12010 X727.108 Y201.246
N12015 X726.178 Y200.512
N12020 X725.273 Y199.748
N12025 X724.394 Y198.953
N12030 X723.542 Y198.13
N12035 X722.719 Y197.278
N12040 X721.924 Y196.4
N12045 X721.158 Y195.496
N12050 X720.424 Y194.566
N12055 X719.721 Y193.613
N12060 X719.05 Y192.636
N12065 X718.412 Y191.638
N12070 X717.807 Y190.619
N12075 X717.237 Y189.581
N12080 X716.702 Y188.524
N12085 X716.203 Y187.45
N12090 X715.739 Y186.359
N12095 X715.313 Y185.254
N12100 X714.923 Y184.135
N12105 X714.571 Y183.004
N12110 X714.257 Y181.862
N12115 X713.981 Y180.71
N12120 X713.744 Y179.549
N12125 X713.545 Y178.381
N12130 X713.386 Y177.207
N12135 X713.266 Y176.029
N12140 X713.185 Y174.847
N12145 X713.144 Y173.663
N12150 X713.142 Y172.478
N12155 X713.18 Y171.294
N12160 X713.257 Y170.112
N12165 X713.374 Y168.933
N12170 X713.53 Y167.759
N12175 X713.725 Y166.59
N12180 X713.959 Y165.429
N12185 X714.232 Y164.276
N12190 X714.543 Y163.133
N12195 X714.892 Y162.001
N12200 X715.278 Y160.881
N12205 X715.702 Y159.775
N12210 X716.162 Y158.683
N12215 X716.659 Y157.607
N12220 X717.191 Y156.549
N12225 X717.758 Y155.509
N12230 X717.968 Y155.102
N12235 X718.147 Y154.68
N12240 X718.294 Y154.246
N12245 X718.406 Y153.802
N12250 X718.485 Y153.35
N12255 X718.529 Y152.894
N12260 X718.537 Y152.436
N12265 X718.511 Y151.979
N12270 X718.45 Y151.525
N12275 X718.355 Y151.076
N12280 X718.226 Y150.637
N12285 X718.063 Y150.208
N12290 X717.895 Y149.764
N12295 X717.763 Y149.307
N12300 X717.667 Y148.842
N12305 X717.609 Y148.371
N12310 X717.588 Y147.896
N12315 X717.604 Y147.421
N12320 X717.658 Y146.949
N12325 X717.75 Y146.483
N12330 X717.878 Y146.025
N12335 X718.041 Y145.579
N12340 X718.24 Y145.147
N12345 X718.472 Y144.733
N12350 X718.736 Y144.338
N12355 X719.031 Y143.965
N12360 X719.354 Y143.616
N12365 X719.703 Y143.295
N12370 X720.077 Y143.002
N12375 X720.473 Y142.739
N12380 X720.889 Y142.509
N12385 X721.322 Y142.312
N12390 X721.768 Y142.15
N12395 X722.226 Y142.024
N12400 X722.693 Y141.935
N12405 X723.165 Y141.882
N12410 X723.64 Y141.868
N12415 X724.115 Y141.891
N12420 X724.586 Y141.951
N12425 X725.051 Y142.049
N12430 X725.507 Y142.183
N12435 X726.379 Y142.517
N12440 X726.818 Y142.648
N12445 X727.265 Y142.745
N12450 X727.719 Y142.808
N12455 X728.177 Y142.836
N12460 X728.635 Y142.829
N12465 X729.091 Y142.787
N12470 X729.543 Y142.71
N12475 X729.987 Y142.6
N12480 X730.422 Y142.455
N12485 X730.845 Y142.278
N12490 X731.253 Y142.069
N12495 X732.295 Y141.506
N12500 X733.356 Y140.978
N12505 X734.433 Y140.486
N12510 X735.527 Y140.03
N12515 X736.635 Y139.611
N12520 X737.756 Y139.229
N12525 X738.89 Y138.885
N12530 X740.034 Y138.579
N12535 X741.188 Y138.311
N12540 X742.35 Y138.082
N12545 X743.52 Y137.891
N12550 X744.695 Y137.74
N12555 X745.874 Y137.628
N12560 X747.057 Y137.555
N12565 X748.241 Y137.522
N12570 X749.425 Y137.529
N12575 X750.609 Y137.575
N12580 X751.791 Y137.66
N12585 X752.969 Y137.785
N12590 X754.142 Y137.949
N12595 X755.309 Y138.153
N12600 X756.469 Y138.395
N12605 X757.62 Y138.675
N12610 X758.761 Y138.994
N12615 X759.891 Y139.351
N12620 X761.008 Y139.745
N12625 X762.111 Y140.176
N12630 X763.2 Y140.644
N12635 X764.272 Y141.148
N12640 X765.326 Y141.687
N12645 X766.363 Y142.261
N12650 X767.379 Y142.87
N12655 X768.375 Y143.512
N12660 X769.348 Y144.187
N12665 X770.299 Y144.894
N12670 X771.225 Y145.632
N12675 X772.126 Y146.401
N12680 X773.002 Y147.2
N12685 X773.85 Y148.027
N12690 X774.669 Y148.882
N12695 X775.46 Y149.764
N12700 X776.221 Y150.672
N12705 X776.952 Y151.605
N12710 X777.651 Y152.562
N12715 X778.317 Y153.541
N12720 X778.95 Y154.542
N12725 X779.55 Y155.564
N12730 X780.115 Y156.605
N12735 X780.646 Y157.664
N12740 X781.14 Y158.741
N12745 X781.599 Y159.833
N12750 X782.02 Y160.94
N12755 X782.405 Y162.061
N12760 X782.752 Y163.194
N12765 X783.06 Y164.337
N12770 X783.331 Y165.491
N12775 X783.563 Y166.652
N12780 X783.756 Y167.821
N12785 X783.91 Y168.996
N12790 X784.025 Y170.175
N12795 X784.1 Y171.357
N12800 X784.136 Y172.541
N12805 X784.132 Y173.726
N12810 X784.089 Y174.91
N12815 X784.006 Y176.092
N12820 X783.884 Y177.27
N12825 X783.722 Y178.444
N12830 X783.522 Y179.611
N12835 X783.282 Y180.772
N12840 X783.004 Y181.923
N12845 X782.688 Y183.065
N12850 X782.334 Y184.195
N12855 X781.943 Y185.313
N12860 X781.514 Y186.418
N12865 X781.049 Y187.507
N12870 X780.547 Y188.581
N12875 X780.01 Y189.637
N12880 X779.438 Y190.674
N12885 X778.832 Y191.692
N12890 X778.192 Y192.689
N12895 X777.52 Y193.664
N12900 X776.815 Y194.616
N12905 X776.078 Y195.544
N12910 X775.312 Y196.447
N12915 X774.515 Y197.324
N12920 X773.69 Y198.174
N12925 X772.837 Y198.996
N12930 X771.956 Y199.789
N12935 X771.05 Y200.552
N12940 X770.119 Y201.285
N12945 X769.164 Y201.986
N12950 X768.186 Y202.654
N12955 X767.187 Y203.29
N12960 X766.166 Y203.892
N12965 X765.126 Y204.46
N12970 X764.068 Y204.992
N12975 X762.993 Y205.489
N12980 X761.902 Y205.95
N12985 X760.795 Y206.375
N12990 X759.676 Y206.762
N12995 X758.544 Y207.111
N13000 X757.401 Y207.423
N13005 X756.248 Y207.696
N13010 X755.087 Y207.93
N13015 X753.919 Y208.126
N13020 X752.744 Y208.283
N13025 X751.565 Y208.4
N13030 X750.383 Y208.478
N13035 X749.199 Y208.517
N13040 X748.015 Y208.516
N13045 X746.831 Y208.475
N13050 X745.649 Y208.395
N13055 X744.47 Y208.275
N13060 X743.296 Y208.117
N13065 X742.128 Y207.919
N13070 X740.967 Y207.682
N13075 X739.815 Y207.407
N13080 X738.672 Y207.093
N13085 X737.541 Y206.742
N13090 Z60. F2000.
N13095 G00 X721.144 Y120.21
N13100 G01 Z0. F2000.
N13105 X720.607 Y120.458 F3000.
N13110 X719.516 Y120.919
N13115 X718.41 Y121.343
N13120 X717.29 Y121.73
N13125 X716.158 Y122.08
N13130 X715.015 Y122.391
N13135 X713.862 Y122.665
N13140 X712.701 Y122.899
N13145 X711.533 Y123.095
N13150 X710.358 Y123.251
N13155 X709.179 Y123.369
N13160 X707.997 Y123.447
N13165 X706.813 Y123.485
N13170 X705.629 Y123.484
N13175 X704.445 Y123.444
N13180 X703.263 Y123.364
N13185 X702.084 Y123.244
N13190 X700.91 Y123.085
N13195 X699.742 Y122.888
N13200 X698.581 Y122.651
N13205 X697.429 Y122.376
N13210 X696.287 Y122.062
N13215 X695.155 Y121.711
N13220 X694.036 Y121.322
N13225 X692.931 Y120.895
N13230 X691.84 Y120.433
N13235 X690.766 Y119.934
N13240 X689.709 Y119.399
N13245 X688.67 Y118.83
N13250 X687.651 Y118.226
N13255 X686.652 Y117.588
N13260 X685.675 Y116.918
N13265 X684.722 Y116.215
N13270 X683.792 Y115.481
N13275 X682.887 Y114.716
N13280 X682.008 Y113.922
N13285 X681.156 Y113.098
N13290 X680.333 Y112.247
N13295 X679.538 Y111.369
N13300 X678.772 Y110.464
N13305 X678.038 Y109.535
N13310 X677.335 Y108.582
N13315 X676.664 Y107.605
N13320 X676.026 Y106.607
N13325 X675.421 Y105.588
N13330 X674.851 Y104.55
N13335 X674.316 Y103.493
N13340 X673.817 Y102.418
N13345 X673.353 Y101.328
N13350 X672.927 Y100.223
N13355 X672.537 Y99.104
N13360 X672.185 Y97.973
N13365 X671.871 Y96.831
N13370 X671.595 Y95.679
N13375 X671.358 Y94.518
N13380 X671.159 Y93.35
N13385 X671. Y92.176
N13390 X670.88 Y90.997
N13395 X670.799 Y89.816
N13400 X670.758 Y88.632
N13405 X670.756 Y87.447
N13410 X670.794 Y86.263
N13415 X670.871 Y85.081
N13420 X670.988 Y83.902
N13425 X671.144 Y82.728
N13430 X671.339 Y81.559
N13435 X671.573 Y80.398
N13440 X671.846 Y79.245
N13445 X672.157 Y78.102
N13450 X672.506 Y76.969
N13455 X672.892 Y75.85
N13460 X673.316 Y74.743
N13465 X673.776 Y73.652
N13470 X674.273 Y72.576
N13475 X674.805 Y71.518
N13480 X675.372 Y70.478
N13485 X675.582 Y70.071
N13490 X675.761 Y69.649
N13495 X675.908 Y69.215
N13500 X676.02 Y68.77
N13505 X676.099 Y68.319
N13510 X676.143 Y67.863
N13515 X676.152 Y67.405
N13520 X676.125 Y66.947
N13525 X676.064 Y66.493
N13530 X675.969 Y66.045
N13535 X675.84 Y65.605
N13540 X675.677 Y65.177
N13545 X675.509 Y64.732
N13550 X675.377 Y64.276
N13555 X675.281 Y63.811
N13560 X675.223 Y63.339
N13565 X675.202 Y62.864
N13570 X675.218 Y62.39
N13575 X675.273 Y61.918
N13580 X675.364 Y61.451
N13585 X675.492 Y60.994
N13590 X675.655 Y60.548
N13595 X675.854 Y60.116
N13600 X676.086 Y59.701
N13605 X676.35 Y59.306
N13610 X676.645 Y58.933
N13615 X676.968 Y58.585
N13620 X677.317 Y58.263
N13625 X677.691 Y57.97
N13630 X678.088 Y57.708
N13635 X678.503 Y57.477
N13640 X678.936 Y57.281
N13645 X679.382 Y57.119
N13650 X679.841 Y56.993
N13655 X680.307 Y56.903
N13660 X680.779 Y56.851
N13665 X681.254 Y56.836
N13670 X681.729 Y56.86
N13675 X682.2 Y56.92
N13680 X682.665 Y57.018
N13685 X683.121 Y57.152
N13690 X683.565 Y57.321
N13695 X683.993 Y57.486
N13700 X684.432 Y57.617
N13705 X684.88 Y57.714
N13710 X685.333 Y57.777
N13715 X685.791 Y57.805
N13720 X686.249 Y57.798
N13725 X686.705 Y57.756
N13730 X687.157 Y57.679
N13735 X687.602 Y57.568
N13740 X688.036 Y57.424
N13745 X688.459 Y57.246
N13750 X688.867 Y57.037
N13755 X689.909 Y56.475
N13760 X690.97 Y55.947
N13765 X692.047 Y55.455
N13770 X693.141 Y54.999
N13775 X694.249 Y54.58
N13780 X695.37 Y54.198
N13785 X696.504 Y53.854
N13790 X697.648 Y53.547
N13795 X698.802 Y53.279
N13800 X699.964 Y53.05
N13805 X701.134 Y52.86
N13810 X702.309 Y52.709
N13815 X703.488 Y52.597
N13820 X704.671 Y52.524
N13825 X705.855 Y52.491
N13830 X707.039 Y52.498
N13835 X708.223 Y52.544
N13840 X709.405 Y52.629
N13845 X710.583 Y52.754
N13850 X711.756 Y52.918
N13855 X712.923 Y53.121
N13860 X714.083 Y53.363
N13865 X715.234 Y53.644
N13870 X716.375 Y53.963
N13875 X717.505 Y54.319
N13880 X718.622 Y54.714
N13885 X719.725 Y55.145
N13890 X720.814 Y55.613
N13895 X721.886 Y56.116
N13900 X722.941 Y56.656
N13905 X723.977 Y57.23
N13910 X724.993 Y57.839
N13915 X725.989 Y58.481
N13920 X726.962 Y59.156
N13925 X727.913 Y59.863
N13930 X728.839 Y60.601
N13935 X729.741 Y61.37
N13940 X730.616 Y62.168
N13945 X731.464 Y62.996
N13950 X732.284 Y63.851
N13955 X733.074 Y64.733
N13960 X733.835 Y65.641
N13965 X734.566 Y66.574
N13970 X735.265 Y67.53
N13975 X735.931 Y68.51
N13980 X736.565 Y69.511
N13985 X737.164 Y70.532
N13990 X737.729 Y71.574
N13995 X738.26 Y72.633
N14000 X738.754 Y73.709
N14005 X739.213 Y74.802
N14010 X739.634 Y75.909
N14015 X740.019 Y77.03
N14020 X740.366 Y78.162
N14025 X740.675 Y79.306
N14030 X740.945 Y80.459
N14035 X741.177 Y81.621
N14040 X741.37 Y82.79
N14045 X741.524 Y83.965
N14050 X741.639 Y85.144
N14055 X741.714 Y86.326
N14060 X741.75 Y87.51
N14065 X741.746 Y88.695
N14070 X741.703 Y89.879
N14075 X741.62 Y91.06
N14080 X741.498 Y92.239
N14085 X741.336 Y93.412
N14090 X741.136 Y94.58
N14095 X740.896 Y95.74
N14100 X740.619 Y96.892
N14105 X740.302 Y98.034
N14110 X739.948 Y99.164
N14115 X739.557 Y100.282
N14120 X739.128 Y101.386
N14125 X738.663 Y102.476
N14130 X738.161 Y103.549
N14135 X737.624 Y104.605
N14140 X737.052 Y105.643
N14145 X736.446 Y106.661
N14150 X735.806 Y107.658
N14155 X735.134 Y108.633
N14160 X734.429 Y109.585
N14165 X733.693 Y110.513
N14170 X732.926 Y111.416
N14175 X732.129 Y112.293
N14180 X731.304 Y113.143
N14185 X730.451 Y113.965
N14190 X729.57 Y114.758
N14195 X728.664 Y115.521
N14200 X727.733 Y116.253
N14205 X726.778 Y116.954
N14210 X725.8 Y117.623
N14215 X724.801 Y118.259
N14220 X723.78 Y118.861
N14225 X722.741 Y119.428
N14230 X721.682 Y119.961
N14235 X721.144 Y120.21
N14240 Z60. F2000.
N14245 G00 X757.157 Y78.102
N14250 G01 Z0. F2000.
N14255 X757.506 Y76.969 F3000.
N14260 X757.892 Y75.85
N14265 X758.316 Y74.743
N14270 X758.776 Y73.652
N14275 X759.273 Y72.576
N14280 X759.805 Y71.518
N14285 X760.372 Y70.478
N14290 X760.582 Y70.071
N14295 X760.761 Y69.649
N14300 X760.908 Y69.215
N14305 X761.02 Y68.77
N14310 X761.099 Y68.319
N14315 X761.143 Y67.863
N14320 X761.152 Y67.405
N14325 X761.125 Y66.947
N14330 X761.064 Y66.493
N14335 X760.969 Y66.045
N14340 X760.84 Y65.605
N14345 X760.677 Y65.177
N14350 X760.509 Y64.732
N14355 X760.377 Y64.276
N14360 X760.281 Y63.811
N14365 X760.223 Y63.339
N14370 X760.202 Y62.864
N14375 X760.218 Y62.39
N14380 X760.273 Y61.918
N14385 X760.364 Y61.451
N14390 X760.492 Y60.994
N14395 X760.655 Y60.548
N14400 X760.854 Y60.116
N14405 X761.086 Y59.701
N14410 X761.35 Y59.306
N14415 X761.645 Y58.933
N14420 X761.968 Y58.585
N14425 X762.317 Y58.263
N14430 X762.691 Y57.97
N14435 X763.088 Y57.708
N14440 X763.503 Y57.477
N14445 X763.936 Y57.281
N14450 X764.382 Y57.119
N14455 X764.841 Y56.993
N14460 X765.307 Y56.903
N14465 X765.779 Y56.851
N14470 X766.254 Y56.836
N14475 X766.729 Y56.86
N14480 X767.2 Y56.92
N14485 X767.665 Y57.018
N14490 X768.121 Y57.152
N14495 X768.565 Y57.321
N14500 X768.993 Y57.486
N14505 X769.432 Y57.617
N14510 X769.88 Y57.714
N14515 X770.333 Y57.777
N14520 X770.791 Y57.805
N14525 X771.249 Y57.798
N14530 X771.705 Y57.756
N14535 X772.157 Y57.679
N14540 X772.602 Y57.568
N14545 X773.036 Y57.424
N14550 X773.459 Y57.246
N14555 X773.867 Y57.037
N14560 X774.909 Y56.475
N14565 X775.97 Y55.947
N14570 X777.047 Y55.455
N14575 X778.141 Y54.999
N14580 X779.249 Y54.58
N14585 X780.37 Y54.198
N14590 X781.504 Y53.854
N14595 X782.648 Y53.547
N14600 X783.802 Y53.279
N14605 X784.964 Y53.05
N14610 X786.134 Y52.86
N14615 X787.309 Y52.709
N14620 X788.488 Y52.597
N14625 X789.671 Y52.524
N14630 X790.855 Y52.491
N14635 X792.039 Y52.498
N14640 X793.223 Y52.544
N14645 X794.405 Y52.629
N14650 X795.583 Y52.754
N14655 X796.756 Y52.918
N14660 X797.923 Y53.121
N14665 X799.083 Y53.363
N14670 X800.234 Y53.644
N14675 X801.375 Y53.963
N14680 X802.505 Y54.319
N14685 X803.622 Y54.714
N14690 X804.725 Y55.145
N14695 X805.814 Y55.613
N14700 X806.886 Y56.116
N14705 X807.941 Y56.656
N14710 X808.977 Y57.23
N14715 X809.993 Y57.839
N14720 X810.989 Y58.481
N14725 X811.962 Y59.156
N14730 X812.913 Y59.863
N14735 X813.839 Y60.601
N14740 X814.741 Y61.37
N14745 X815.616 Y62.168
N14750 X816.464 Y62.996
N14755 X817.284 Y63.851
N14760 X818.074 Y64.733
N14765 X818.835 Y65.641
N14770 X819.566 Y66.574
N14775 X820.265 Y67.53
N14780 X820.931 Y68.51
N14785 X821.565 Y69.511
N14790 X822.164 Y70.532
N14795 X822.729 Y71.574
N14800 X823.26 Y72.633
N14805 X823.754 Y73.709
N14810 X824.213 Y74.802
N14815 X824.634 Y75.909
N14820 X825.019 Y77.03
N14825 X825.366 Y78.162
N14830 X825.675 Y79.306
N14835 X825.945 Y80.459
N14840 X826.177 Y81.621
N14845 X826.37 Y82.79
N14850 X826.524 Y83.965
N14855 X826.639 Y85.144
N14860 X826.714 Y86.326
N14865 X826.75 Y87.51
N14870 X826.746 Y88.695
N14875 X826.703 Y89.879
N14880 X826.62 Y91.06
N14885 X826.498 Y92.239
N14890 X826.336 Y93.412
N14895 X826.136 Y94.58
N14900 X825.896 Y95.74
N14905 X825.619 Y96.892
N14910 X825.302 Y98.034
N14915 X824.948 Y99.164
N14920 X824.557 Y100.282
N14925 X824.128 Y101.386
N14930 X823.663 Y102.476
N14935 X823.161 Y103.549
N14940 X822.624 Y104.605
N14945 X822.052 Y105.643
N14950 X821.446 Y106.661
N14955 X820.806 Y107.658
N14960 X820.134 Y108.633
N14965 X819.429 Y109.585
N14970 X818.693 Y110.513
N14975 X817.926 Y111.416
N14980 X817.129 Y112.293
N14985 X816.304 Y113.143
N14990 X815.451 Y113.965
N14995 X814.57 Y114.758
N15000 X813.664 Y115.521
N15005 X812.733 Y116.253
N15010 X811.778 Y116.954
N15015 X810.8 Y117.623
N15020 X809.801 Y118.259
N15025 X808.78 Y118.861
N15030 X807.741 Y119.428
N15035 X806.682 Y119.961
N15040 X805.607 Y120.458
N15045 X804.516 Y120.919
N15050 X803.41 Y121.343
N15055 X802.29 Y121.73
N15060 X801.158 Y122.08
N15065 X800.015 Y122.391
N15070 X798.862 Y122.665
N15075 X797.701 Y122.899
N15080 X796.533 Y123.095
N15085 X795.358 Y123.251
N15090 X794.179 Y123.369
N15095 X792.997 Y123.447
N15100 X791.813 Y123.485
N15105 X790.629 Y123.484
N15110 X789.445 Y123.444
N15115 X788.263 Y123.364
N15120 X787.084 Y123.244
N15125 X785.91 Y123.085
N15130 X784.742 Y122.888
N15135 X783.581 Y122.651
N15140 X782.429 Y122.376
N15145 X781.287 Y122.062
N15150 X780.155 Y121.711
N15155 X779.036 Y121.322
N15160 X777.931 Y120.895
N15165 X776.84 Y120.433
N15170 X775.766 Y119.934
N15175 X774.709 Y119.399
N15180 X773.67 Y118.83
N15185 X772.651 Y118.226
N15190 X771.652 Y117.588
N15195 X770.675 Y116.918
N15200 X769.722 Y116.215
N15205 X768.792 Y115.481
N15210 X767.887 Y114.716
N15215 X767.008 Y113.922
N15220 X766.156 Y113.098
N15225 X765.333 Y112.247
N15230 X764.538 Y111.369
N15235 X763.772 Y110.464
N15240 X763.038 Y109.535
N15245 X762.335 Y108.582
N15250 X761.664 Y107.605
N15255 X761.026 Y106.607
N15260 X760.421 Y105.588
N15265 X759.851 Y104.55
N15270 X759.316 Y103.493
N15275 X758.817 Y102.418
N15280 X758.353 Y101.328
N15285 X757.927 Y100.223
N15290 X757.537 Y99.104
N15295 X757.185 Y97.973
N15300 X756.871 Y96.831
N15305 X756.595 Y95.679
N15310 X756.358 Y94.518
N15315 X756.159 Y93.35
N15320 X756. Y92.176
N15325 X755.88 Y90.997
N15330 X755.799 Y89.816
N15335 X755.758 Y88.632
N15340 X755.756 Y87.447
N15345 X755.794 Y86.263
N15350 X755.871 Y85.081
N15355 X755.988 Y83.902
N15360 X756.144 Y82.728
N15365 X756.339 Y81.559
N15370 X756.573 Y80.398
N15375 X756.846 Y79.245
N15380 X757.157 Y78.102
N15385 Z60. F2000.
N15390 G00 X806.322 Y142.312
N15395 G01 Z0. F2000.
N15400 X806.768 Y142.15 F3000.
N15405 X807.226 Y142.024
N15410 X807.693 Y141.935
N15415 X808.165 Y141.882
N15420 X808.64 Y141.868
N15425 X809.115 Y141.891
N15430 X809.586 Y141.951
N15435 X810.051 Y142.049
N15440 X810.507 Y142.183
N15445 X811.379 Y142.517
N15450 X811.818 Y142.648
N15455 X812.265 Y142.745
N15460 X812.719 Y142.808
N15465 X813.177 Y142.836
N15470 X813.635 Y142.829
N15475 X814.091 Y142.787
N15480 X814.543 Y142.71
N15485 X814.987 Y142.6
N15490 X815.422 Y142.455
N15495 X815.845 Y142.278
N15500 X816.253 Y142.069
N15505 X817.295 Y141.506
N15510 X818.356 Y140.978
N15515 X819.433 Y140.486
N15520 X820.527 Y140.03
N15525 X821.635 Y139.611
N15530 X822.756 Y139.229
N15535 X823.89 Y138.885
N15540 X825.034 Y138.579
N15545 X826.188 Y138.311
N15550 X827.35 Y138.082
N15555 X828.52 Y137.891
N15560 X829.695 Y137.74
N15565 X830.874 Y137.628
N15570 X832.057 Y137.555
N15575 X833.241 Y137.522
N15580 X834.425 Y137.529
N15585 X835.609 Y137.575
N15590 X836.791 Y137.66
N15595 X837.969 Y137.785
N15600 X839.142 Y137.949
N15605 X840.309 Y138.153
N15610 X841.469 Y138.395
N15615 X842.62 Y138.675
N15620 X843.761 Y138.994
N15625 X844.891 Y139.351
N15630 X846.008 Y139.745
N15635 X847.111 Y140.176
N15640 X848.2 Y140.644
N15645 X849.272 Y141.148
N15650 X850.326 Y141.687
N15655 X851.363 Y142.261
N15660 X852.379 Y142.87
N15665 X853.375 Y143.512
N15670 X854.348 Y144.187
N15675 X855.299 Y144.894
N15680 X856.225 Y145.632
N15685 X857.126 Y146.401
N15690 X858.002 Y147.2
N15695 X858.85 Y148.027
N15700 X859.669 Y148.882
N15705 X860.46 Y149.764
N15710 X861.221 Y150.672
N15715 X861.952 Y151.605
N15720 X862.651 Y152.562
N15725 X863.317 Y153.541
N15730 X863.95 Y154.542
N15735 X864.55 Y155.564
N15740 X865.115 Y156.605
N15745 X865.646 Y157.664
N15750 X866.14 Y158.741
N15755 X866.599 Y159.833
N15760 X867.02 Y160.94
N15765 X867.405 Y162.061
N15770 X867.752 Y163.194
N15775 X868.06 Y164.337
N15780 X868.331 Y165.491
N15785 X868.563 Y166.652
N15790 X868.756 Y167.821
N15795 X868.91 Y168.996
N15800 X869.025 Y170.175
N15805 X869.1 Y171.357
N15810 X869.136 Y172.541
N15815 X869.132 Y173.726
N15820 X869.089 Y174.91
N15825 X869.006 Y176.092
N15830 X868.884 Y177.27
N15835 X868.722 Y178.444
N15840 X868.522 Y179.611
N15845 X868.282 Y180.772
N15850 X868.004 Y181.923
N15855 X867.688 Y183.065
N15860 X867.334 Y184.195
N15865 X866.943 Y185.313
N15870 X866.514 Y186.418
N15875 X866.049 Y187.507
N15880 X865.547 Y188.581
N15885 X865.01 Y189.637
N15890 X864.438 Y190.674
N15895 X863.832 Y191.692
N15900 X863.192 Y192.689
N15905 X862.52 Y193.664
N15910 X861.815 Y194.616
N15915 X861.078 Y195.544
N15920 X860.312 Y196.447
N15925 X859.515 Y197.324
N15930 X858.69 Y198.174
N15935 X857.837 Y198.996
N15940 X856.956 Y199.789
N15945 X856.05 Y200.552
N15950 X855.119 Y201.285
N15955 X854.164 Y201.986
N15960 X853.186 Y202.654
N15965 X852.187 Y203.29
N15970 X851.166 Y203.892
N15975 X850.126 Y204.46
N15980 X849.068 Y204.992
N15985 X847.993 Y205.489
N15990 X846.902 Y205.95
N15995 X845.795 Y206.375
N16000 X844.676 Y206.762
N16005 X843.544 Y207.111
N16010 X842.401 Y207.423
N16015 X841.248 Y207.696
N16020 X840.087 Y207.93
N16025 X838.919 Y208.126
N16030 X837.744 Y208.283
N16035 X836.565 Y208.4
N16040 X835.383 Y208.478
N16045 X834.199 Y208.517
N16050 X833.015 Y208.516
N16055 X831.831 Y208.475
N16060 X830.649 Y208.395
N16065 X829.47 Y208.275
N16070 X828.296 Y208.117
N16075 X827.128 Y207.919
N16080 X825.967 Y207.682
N16085 X824.815 Y207.407
N16090 X823.672 Y207.093
N16095 X822.541 Y206.742
N16100 X821.422 Y206.353
N16105 X820.317 Y205.927
N16110 X819.226 Y205.464
N16115 X818.152 Y204.965
N16120 X817.095 Y204.43
N16125 X816.056 Y203.861
N16130 X815.037 Y203.257
N16135 X814.038 Y202.62
N16140 X813.061 Y201.949
N16145 X812.108 Y201.246
N16150 X811.178 Y200.512
N16155 X810.273 Y199.748
N16160 X809.394 Y198.953
N16165 X808.542 Y198.13
N16170 X807.719 Y197.278
N16175 X806.924 Y196.4
N16180 X806.158 Y195.496
N16185 X805.424 Y194.566
N16190 X804.721 Y193.613
N16195 X804.05 Y192.636
N16200 X803.412 Y191.638
N16205 X802.807 Y190.619
N16210 X802.237 Y189.581
N16215 X801.702 Y188.524
N16220 X801.203 Y187.45
N16225 X800.739 Y186.359
N16230 X800.313 Y185.254
N16235 X799.923 Y184.135
N16240 X799.571 Y183.004
N16245 X799.257 Y181.862
N16250 X798.981 Y180.71
N16255 X798.744 Y179.549
N16260 X798.545 Y178.381
N16265 X798.386 Y177.207
N16270 X798.266 Y176.029
N16275 X798.185 Y174.847
N16280 X798.144 Y173.663
N16285 X798.142 Y172.478
N16290 X798.18 Y171.294
N16295 X798.257 Y170.112
N16300 X798.374 Y168.933
N16305 X798.53 Y167.759
N16310 X798.725 Y166.59
N16315 X798.959 Y165.429
N16320 X799.232 Y164.276
N16325 X799.543 Y163.133
N16330 X799.892 Y162.001
N16335 X800.278 Y160.881
N16340 X800.702 Y159.775
N16345 X801.162 Y158.683
N16350 X801.659 Y157.607
N16355 X802.191 Y156.549
N16360 X802.758 Y155.509
N16365 X802.968 Y155.102
N16370 X803.147 Y154.68
N16375 X803.294 Y154.246
N16380 X803.406 Y153.802
N16385 X803.485 Y153.35
N16390 X803.529 Y152.894
N16395 X803.537 Y152.436
N16400 X803.511 Y151.979
N16405 X803.45 Y151.525
N16410 X803.355 Y151.076
N16415 X803.226 Y150.637
N16420 X803.063 Y150.208
N16425 X802.895 Y149.764
N16430 X802.763 Y149.307
N16435 X802.667 Y148.842
N16440 X802.609 Y148.371
N16445 X802.588 Y147.896
N16450 X802.604 Y147.421
N16455 X802.658 Y146.949
N16460 X802.75 Y146.483
N16465 X802.878 Y146.025
N16470 X803.041 Y145.579
N16475 X803.24 Y145.147
N16480 X803.472 Y144.733
N16485 X803.736 Y144.338
N16490 X804.031 Y143.965
N16495 X804.354 Y143.616
N16500 X804.703 Y143.295
N16505 X805.077 Y143.002
N16510 X805.473 Y142.739
N16515 X805.889 Y142.509
N16520 X806.322 Y142.312
N16525 Z60. F2000.
N16530 G00 X828.52 Y222.891
N16535 G01 Z0. F2000.
N16540 X829.695 Y222.74 F3000.
N16545 X830.874 Y222.628
N16550 X832.057 Y222.555
N16555 X833.241 Y222.522
N16560 X834.425 Y222.529
N16565 X835.609 Y222.575
N16570 X836.791 Y222.66
N16575 X837.969 Y222.785
N16580 X839.142 Y222.949
N16585 X840.309 Y223.153
N16590 X841.469 Y223.395
N16595 X842.62 Y223.675
N16600 X843.761 Y223.994
N16605 X844.891 Y224.351
N16610 X846.008 Y224.745
N16615 X847.111 Y225.176
N16620 X848.2 Y225.644
N16625 X849.272 Y226.148
N16630 X850.326 Y226.687
N16635 X851.363 Y227.261
N16640 X852.379 Y227.87
N16645 X853.375 Y228.512
N16650 X854.348 Y229.187
N16655 X855.299 Y229.894
N16660 X856.225 Y230.632
N16665 X857.126 Y231.401
N16670 X858.002 Y232.2
N16675 X858.85 Y233.027
N16680 X859.669 Y233.882
N16685 X860.46 Y234.764
N16690 X861.221 Y235.672
N16695 X861.952 Y236.605
N16700 X862.651 Y237.562
N16705 X863.317 Y238.541
N16710 X863.95 Y239.542
N16715 X864.55 Y240.564
N16720 X865.115 Y241.605
N16725 X865.646 Y242.664
N16730 X866.14 Y243.741
N16735 X866.599 Y244.833
N16740 X867.02 Y245.94
N16745 X867.405 Y247.061
N16750 X867.752 Y248.194
N16755 X868.06 Y249.337
N16760 X868.331 Y250.491
N16765 X868.563 Y251.652
N16770 X868.756 Y252.821
N16775 X868.91 Y253.996
N16780 X869.025 Y255.175
N16785 X869.1 Y256.357
N16790 X869.136 Y257.541
N16795 X869.132 Y258.726
N16800 X869.089 Y259.91
N16805 X869.006 Y261.092
N16810 X868.884 Y262.27
N16815 X868.722 Y263.444
N16820 X868.522 Y264.611
N16825 X868.282 Y265.772
N16830 X868.004 Y266.923
N16835 X867.688 Y268.065
N16840 X867.334 Y269.195
N16845 X866.943 Y270.313
N16850 X866.514 Y271.418
N16855 X866.049 Y272.507
N16860 X865.547 Y273.581
N16865 X865.01 Y274.637
N16870 X864.438 Y275.674
N16875 X863.832 Y276.692
N16880 X863.192 Y277.689
N16885 X862.52 Y278.664
N16890 X861.815 Y279.616
N16895 X861.078 Y280.544
N16900 X860.312 Y281.447
N16905 X859.515 Y282.324
N16910 X858.69 Y283.174
N16915 X857.837 Y283.996
N16920 X856.956 Y284.789
N16925 X856.05 Y285.552
N16930 X855.119 Y286.285
N16935 X854.164 Y286.986
N16940 X853.186 Y287.654
N16945 X852.187 Y288.29
N16950 X851.166 Y288.892
N16955 X850.126 Y289.46
N16960 X849.068 Y289.992
N16965 X847.993 Y290.489
N16970 X846.902 Y290.95
N16975 X845.795 Y291.375
N16980 X844.676 Y291.762
N16985 X843.544 Y292.111
N16990 X842.401 Y292.423
N16995 X841.248 Y292.696
N17000 X840.087 Y292.93
N17005 X838.919 Y293.126
N17010 X837.744 Y293.283
N17015 X836.565 Y293.4
N17020 X835.383 Y293.478
N17025 X834.199 Y293.517
N17030 X833.015 Y293.516
N17035 X831.831 Y293.475
N17040 X830.649 Y293.395
N17045 X829.47 Y293.275
N17050 X828.296 Y293.117
N17055 X827.128 Y292.919
N17060 X825.967 Y292.682
N17065 X824.815 Y292.407
N17070 X823.672 Y292.093
N17075 X822.541 Y291.742
N17080 X821.422 Y291.353
N17085 X820.317 Y290.927
N17090 X819.226 Y290.464
N17095 X818.152 Y289.965
N17100 X817.095 Y289.43
N17105 X816.056 Y288.861
N17110 X815.037 Y288.257
N17115 X814.038 Y287.62
N17120 X813.061 Y286.949
N17125 X812.108 Y286.246
N17130 X811.178 Y285.512
N17135 X810.273 Y284.748
N17140 X809.394 Y283.953
N17145 X808.542 Y283.13
N17150 X807.719 Y282.278
N17155 X806.924 Y281.4
N17160 X806.158 Y280.496
N17165 X805.424 Y279.566
N17170 X804.721 Y278.613
N17175 X804.05 Y277.636
N17180 X803.412 Y276.638
N17185 X802.807 Y275.619
N17190 X802.237 Y274.581
N17195 X801.702 Y273.524
N17200 X801.203 Y272.45
N17205 X800.739 Y271.359
N17210 X800.313 Y270.254
N17215 X799.923 Y269.135
N17220 X799.571 Y268.004
N17225 X799.257 Y266.862
N17230 X798.981 Y265.71
N17235 X798.744 Y264.549
N17240 X798.545 Y263.381
N17245 X798.386 Y262.207
N17250 X798.266 Y261.029
N17255 X798.185 Y259.847
N17260 X798.144 Y258.663
N17265 X798.142 Y257.478
N17270 X798.18 Y256.294
N17275 X798.257 Y255.112
N17280 X798.374 Y253.933
N17285 X798.53 Y252.759
N17290 X798.725 Y251.59
N17295 X798.959 Y250.429
N17300 X799.232 Y249.276
N17305 X799.543 Y248.133
N17310 X799.892 Y247.001
N17315 X800.278 Y245.881
N17320 X800.702 Y244.775
N17325 X801.162 Y243.683
N17330 X801.659 Y242.607
N17335 X802.191 Y241.549
N17340 X802.758 Y240.509
N17345 X802.968 Y240.102
N17350 X803.147 Y239.68
N17355 X803.294 Y239.246
N17360 X803.406 Y238.802
N17365 X803.485 Y238.35
N17370 X803.529 Y237.894
N17375 X803.537 Y237.436
N17380 X803.511 Y236.979
N17385 X803.45 Y236.525
N17390 X803.355 Y236.076
N17395 X803.226 Y235.637
N17400 X803.063 Y235.208
N17405 X802.895 Y234.764
N17410 X802.763 Y234.307
N17415 X802.667 Y233.842
N17420 X802.609 Y233.371
N17425 X802.588 Y232.896
N17430 X802.604 Y232.421
N17435 X802.658 Y231.949
N17440 X802.75 Y231.483
N17445 X802.878 Y231.025
N17450 X803.041 Y230.579
N17455 X803.24 Y230.147
N17460 X803.472 Y229.733
N17465 X803.736 Y229.338
N17470 X804.031 Y228.965
N17475 X804.354 Y228.616
N17480 X804.703 Y228.295
N17485 X805.077 Y228.002
N17490 X805.473 Y227.739
N17495 X805.889 Y227.509
N17500 X806.322 Y227.312
N17505 X806.768 Y227.15
N17510 X807.226 Y227.024
N17515 X807.693 Y226.935
N17520 X808.165 Y226.882
N17525 X808.64 Y226.868
N17530 X809.115 Y226.891
N17535 X809.586 Y226.951
N17540 X810.051 Y227.049
N17545 X810.507 Y227.183
N17550 X811.379 Y227.517
N17555 X811.818 Y227.648
N17560 X812.265 Y227.745
N17565 X812.719 Y227.808
N17570 X813.177 Y227.836
N17575 X813.635 Y227.829
N17580 X814.091 Y227.787
N17585 X814.543 Y227.71
N17590 X814.987 Y227.6
N17595 X815.422 Y227.455
N17600 X815.845 Y227.278
N17605 X816.253 Y227.069
N17610 X817.295 Y226.506
N17615 X818.356 Y225.978
N17620 X819.433 Y225.486
N17625 X820.527 Y225.03
N17630 X821.635 Y224.611
N17635 X822.756 Y224.229
N17640 X823.89 Y223.885
N17645 X825.034 Y223.579
N17650 X826.188 Y223.311
N17655 X827.35 Y223.082
N17660 X828.52 Y222.891
N17665 Z60. F2000.
N17670 G00 Y307.891
N17675 G01 Z0. F2000.
N17680 X829.695 Y307.74 F3000.
N17685 X830.874 Y307.628
N17690 X832.057 Y307.555
N17695 X833.241 Y307.522
N17700 X834.425 Y307.529
N17705 X835.609 Y307.575
N17710 X836.791 Y307.66
N17715 X837.969 Y307.785
N17720 X839.142 Y307.949
N17725 X840.309 Y308.153
N17730 X841.469 Y308.395
N17735 X842.62 Y308.675
N17740 X843.761 Y308.994
N17745 X844.891 Y309.351
N17750 X846.008 Y309.745
N17755 X847.111 Y310.176
N17760 X848.2 Y310.644
N17765 X849.272 Y311.148
N17770 X850.326 Y311.687
N17775 X851.363 Y312.261
N17780 X852.379 Y312.87
N17785 X853.375 Y313.512
N17790 X854.348 Y314.187
N17795 X855.299 Y314.894
N17800 X856.225 Y315.632
N17805 X857.126 Y316.401
N17810 X858.002 Y317.2
N17815 X858.85 Y318.027
N17820 X859.669 Y318.882
N17825 X860.46 Y319.764
N17830 X861.221 Y320.672
N17835 X861.952 Y321.605
N17840 X862.651 Y322.562
N17845 X863.317 Y323.541
N17850 X863.95 Y324.542
N17855 X864.55 Y325.564
N17860 X865.115 Y326.605
N17865 X865.646 Y327.664
N17870 X866.14 Y328.741
N17875 X866.599 Y329.833
N17880 X867.02 Y330.94
N17885 X867.405 Y332.061
N17890 X867.752 Y333.194
N17895 X868.06 Y334.337
N17900 X868.331 Y335.491
N17905 X868.563 Y336.652
N17910 X868.756 Y337.821
N17915 X868.91 Y338.996
N17920 X869.025 Y340.175
N17925 X869.1 Y341.357
N17930 X869.136 Y342.541
N17935 X869.132 Y343.726
N17940 X869.089 Y344.91
N17945 X869.006 Y346.092
N17950 X868.884 Y347.27
N17955 X868.722 Y348.444
N17960 X868.522 Y349.611
N17965 X868.282 Y350.772
N17970 X868.004 Y351.923
N17975 X867.688 Y353.065
N17980 X867.334 Y354.195
N17985 X866.943 Y355.313
N17990 X866.514 Y356.418
N17995 X866.049 Y357.507
N18000 X865.547 Y358.581
N18005 X865.01 Y359.637
N18010 X864.438 Y360.674
N18015 X863.832 Y361.692
N18020 X863.192 Y362.689
N18025 X862.52 Y363.664
N18030 X861.815 Y364.616
N18035 X861.078 Y365.544
N18040 X860.312 Y366.447
N18045 X859.515 Y367.324
N18050 X858.69 Y368.174
N18055 X857.837 Y368.996
N18060 X856.956 Y369.789
N18065 X856.05 Y370.552
N18070 X855.119 Y371.285
N18075 X854.164 Y371.986
N18080 X853.186 Y372.654
N18085 X852.187 Y373.29
N18090 X851.166 Y373.892
N18095 X850.126 Y374.46
N18100 X849.068 Y374.992
N18105 X847.993 Y375.489
N18110 X846.902 Y375.95
N18115 X845.795 Y376.375
N18120 X844.676 Y376.762
N18125 X843.544 Y377.111
N18130 X842.401 Y377.423
N18135 X841.248 Y377.696
N18140 X840.087 Y377.93
N18145 X838.919 Y378.126
N18150 X837.744 Y378.283
N18155 X836.565 Y378.4
N18160 X835.383 Y378.478
N18165 X834.199 Y378.517
N18170 X833.015 Y378.516
N18175 X831.831 Y378.475
N18180 X830.649 Y378.395
N18185 X829.47 Y378.275
N18190 X828.296 Y378.117
N18195 X827.128 Y377.919
N18200 X825.967 Y377.682
N18205 X824.815 Y377.407
N18210 X823.672 Y377.093
N18215 X822.541 Y376.742
N18220 X821.422 Y376.353
N18225 X820.317 Y375.927
