(XYZok Orginal kniv)
O0001
(T25 D=0.1 CR=0. - ZMIN=0. - FLAT END MILL)
N10 G90 G94 G17 G49 G40 G80
N15 G28 G91 Z0.
N20 G90

(2D CONTOUR1)
N25 T25 M06
N30 S5000 M03
N35 G56
N45 G00 X220.117 Y112.185
N46 G00 X220.05 Y112.285
N50 G43 Z65. H25
N55 G00 Z55.
N60 G01 Z51. F2000.
N65 Z0.
N70 X200.05 Y142.285 F3000.
N75 G02 X200. Y19.95 A180. R20.05
N80 G01 X40.
N85 G02 X19.95 Y40. A90. R20.05
N90 G01 Y200.
N95 G02 X40. Y220.05 A0. R20.05
N100 G01 X200.
N105 G02 X220.05 Y200. A270. R20.05
N110 G01 Y112.285
N115 G00 Z65.

(2D CONTOUR1)
N125 G00 X440.05 Y112.385
N126 G00 X440.05 Y112.285
N130 Z65.
N135 Z55.
N140 G01 Z51. F2000.
N145 Z0.
N150 Y40. F3000.
N155 G02 X420. Y19.95 A180. R20.05
N160 G01 X260.
N165 G02 X239.95 Y40. A90. R20.05
N170 G01 Y200.
N175 G02 X260. Y220.05 A0. R20.05
N180 G01 X420.
N185 G02 X440.05 Y200. A270. R20.05
N190 G01 Y112.285
N195 G00 Z65.

N205 G28 G91 Z0.
N210 G49
N215 M05
%
